<?xml version="1.0" encoding="UTF-8"?>
<map version="1.10" tiledversion="1.11.2" orientation="orthogonal" renderorder="right-down" width="40" height="40" tilewidth="32" tileheight="32" infinite="0" nextlayerid="6" nextobjectid="27">
 <tileset firstgid="1" source="../../../TiledAssets/TiledSets/Proto.tsx"/>
 <tileset firstgid="65" source="../../../TiledAssets/TiledSets/CollisionTiles.tsx"/>
 <tileset firstgid="81" source="../../../TiledAssets/TiledSets/TextureSheet.tsx"/>
 <tileset firstgid="145" source="../../../TiledAssets/TiledSets/EnemySheet.tsx"/>
 <tileset firstgid="149" source="../../../TiledAssets/TiledSets/PlayerSheet.tsx"/>
 <imagelayer id="5" name="Background" repeatx="1" repeaty="1">
  <image source="../Content/Textures/Backgrounds/CastleBackground.png" width="256" height="256"/>
 </imagelayer>
 <layer id="1" name="prototype" width="40" height="40">
  <data encoding="csv">
2,2,2,2,2,2,2,2,2,2,2,2,2,2,2,2,2,2,2,2,2,2,2,2,2,2,2,2,2,2,2,2,2,2,2,2,2,2,2,2,
2,2,2,2,2,2,2,2,2,2,2,2,2,2,2,2,2,2,2,2,2,2,2,2,2,2,2,2,2,2,2,2,2,2,2,2,2,2,2,2,
2,2,2,2,2,2,2,2,2,2,2,2,2,2,2,2,2,2,2,2,2,2,2,2,2,2,2,2,2,2,2,2,2,2,2,2,2,2,2,2,
2,2,2,0,0,0,0,0,0,0,0,0,0,0,0,0,0,0,0,0,0,0,0,0,0,0,0,0,0,0,0,0,0,0,0,0,0,2,2,2,
2,2,2,0,0,0,0,0,0,0,0,0,0,0,0,0,0,0,0,0,0,0,0,0,0,0,0,0,0,0,0,0,0,0,0,0,0,2,2,2,
2,2,2,2,2,2,2,2,2,2,2,0,0,0,0,0,0,0,2,2,2,2,2,2,2,2,2,2,2,2,0,0,0,0,0,0,0,2,2,2,
2,2,2,0,0,0,0,0,0,0,2,0,0,3,3,3,0,0,2,0,0,0,0,0,0,0,0,0,0,2,0,0,0,0,0,0,0,2,2,2,
2,2,2,0,0,0,0,0,0,0,2,0,0,0,0,0,0,0,2,0,0,0,0,0,0,0,0,0,0,2,0,0,0,0,0,0,0,2,2,2,
2,2,2,0,0,0,0,0,0,0,2,0,0,0,0,0,0,0,2,0,0,0,0,0,3,0,0,0,0,2,2,2,2,2,0,0,0,2,2,2,
2,2,2,0,3,0,0,3,0,0,2,2,2,2,2,2,2,2,2,0,0,0,0,0,0,0,0,0,0,0,0,0,0,2,0,0,0,2,2,2,
2,2,2,0,0,0,0,0,0,0,0,0,0,0,0,0,0,0,0,0,0,0,0,0,0,0,0,0,0,0,0,0,0,2,0,0,0,2,2,2,
2,2,2,0,0,0,0,0,0,0,0,0,0,0,0,0,0,0,0,0,3,0,0,0,0,0,0,0,0,0,0,0,0,0,0,0,0,2,2,2,
2,2,2,0,0,0,0,0,0,0,0,0,0,0,0,0,0,0,0,0,0,0,0,0,0,0,0,0,2,0,0,0,0,2,0,0,0,2,2,2,
2,2,2,0,0,0,0,0,0,2,2,2,2,2,2,2,2,0,0,0,0,0,0,0,0,0,0,0,2,0,0,0,0,2,0,0,0,2,2,2,
2,2,2,0,0,0,3,0,0,2,0,0,0,0,0,0,2,2,0,0,0,0,0,0,0,0,3,0,2,0,0,0,0,2,0,0,0,2,2,2,
2,2,2,0,0,0,0,0,0,2,0,0,0,0,0,0,0,2,2,0,0,0,0,0,0,0,0,0,2,3,3,3,3,2,3,3,3,2,2,2,
2,2,2,3,0,0,0,0,2,2,2,2,2,3,3,0,0,0,2,2,0,0,0,0,0,0,0,0,2,0,0,0,0,2,0,0,0,2,2,2,
2,2,2,0,0,0,0,0,2,2,0,0,0,0,0,0,0,0,0,2,2,0,0,0,3,0,0,0,2,0,0,0,0,2,0,0,0,2,2,2,
2,2,2,0,0,3,0,0,2,2,0,0,0,0,0,0,0,0,0,0,2,2,0,0,0,0,0,0,2,0,0,0,0,0,0,0,0,2,2,2,
2,2,2,0,0,0,0,0,2,2,0,0,0,3,3,0,0,0,0,3,0,2,2,0,0,0,0,0,2,0,0,0,0,2,0,0,0,2,2,2,
2,2,2,0,0,0,0,3,0,2,0,0,0,0,0,0,0,0,0,0,0,0,2,2,2,2,2,2,2,0,0,0,0,2,0,0,0,2,2,2,
2,2,2,0,0,0,0,0,0,2,0,0,0,0,0,0,0,0,0,0,0,0,0,2,2,2,2,2,2,0,0,0,0,2,0,0,0,2,2,2,
2,2,2,0,0,3,0,0,0,2,0,0,0,3,3,3,3,0,0,0,0,0,0,0,2,2,2,2,2,3,3,3,3,2,3,3,3,2,2,2,
2,2,2,0,0,0,0,0,3,2,0,0,0,0,0,0,0,0,0,0,0,0,0,0,0,2,2,2,2,0,0,0,0,2,0,0,0,2,2,2,
2,2,2,3,0,0,0,0,0,2,0,0,0,0,0,0,0,0,3,0,0,0,0,0,0,0,2,2,2,0,0,0,0,0,0,0,0,2,2,2,
2,2,2,0,0,0,0,0,0,2,0,0,3,0,0,0,0,0,0,0,0,0,0,0,0,0,0,2,2,0,0,0,0,2,0,0,0,2,2,2,
2,2,2,0,0,3,0,0,0,2,0,0,0,0,0,0,0,0,0,0,3,0,0,0,0,0,0,0,2,0,0,0,0,2,0,0,0,2,2,2,
2,2,2,0,0,0,0,0,0,2,0,0,0,0,3,0,0,0,0,0,0,0,0,0,0,0,0,0,2,0,0,0,0,2,0,0,0,2,2,2,
2,2,2,0,0,0,0,3,0,2,0,0,0,0,0,0,0,0,3,0,0,0,3,0,0,0,0,0,2,3,3,3,3,2,3,3,3,2,2,2,
2,2,2,0,0,0,0,0,0,2,0,0,0,0,0,0,0,0,0,0,0,0,0,0,0,0,0,0,0,0,0,0,0,2,0,0,0,2,2,2,
2,2,2,0,0,0,0,0,0,2,0,0,0,0,0,0,0,0,0,0,0,0,0,0,0,0,0,0,0,0,0,0,0,2,0,0,0,2,2,2,
2,2,2,0,0,0,2,2,2,2,11,11,11,11,11,11,11,11,11,2,2,2,2,2,2,2,2,2,2,2,2,2,2,2,0,0,0,2,2,2,
2,2,2,0,3,0,0,0,0,0,0,0,0,0,0,0,0,0,0,2,2,2,2,2,2,2,2,2,2,2,2,2,2,2,0,0,0,2,2,2,
2,2,2,0,0,0,0,0,0,0,0,0,0,0,0,0,0,0,0,2,2,2,2,2,2,2,2,2,2,2,2,2,2,2,0,0,0,2,2,2,
2,2,2,0,0,0,0,0,0,0,0,0,0,0,0,0,0,0,0,2,2,2,2,2,2,2,2,2,2,2,0,0,0,0,0,0,0,2,2,2,
2,2,2,0,3,0,0,0,0,0,0,0,0,0,0,0,0,0,0,0,0,0,0,0,0,0,0,0,0,0,0,0,0,0,0,0,0,2,2,2,
2,2,2,0,0,0,0,0,0,0,0,0,0,0,0,0,0,0,0,0,0,0,0,0,0,0,0,0,0,0,0,0,0,0,0,0,0,2,2,2,
2,2,2,2,2,2,2,2,2,2,11,11,11,11,11,9,9,9,9,9,9,9,9,9,9,9,9,9,9,9,9,9,9,9,10,10,10,2,2,2,
2,2,2,2,2,2,2,2,2,2,2,2,2,2,2,2,2,2,2,2,2,2,2,2,2,2,2,2,2,2,2,2,2,2,2,2,2,2,2,2,
2,2,2,2,2,2,2,2,2,2,2,2,2,2,2,2,2,2,2,2,2,2,2,2,2,2,2,2,2,2,2,2,2,2,2,2,2,2,2,2
</data>
 </layer>
 <layer id="4" name="tiles" width="40" height="40">
  <data encoding="csv">
82,84,84,84,84,84,84,84,84,84,84,84,84,84,84,84,84,84,84,84,84,84,84,84,84,84,84,84,84,84,84,84,84,84,84,84,84,84,84,82,
82,84,84,84,84,84,84,84,84,84,84,84,84,84,84,84,84,84,84,84,84,84,84,84,84,84,84,84,84,84,84,84,84,84,84,84,84,84,84,82,
82,84,84,84,84,84,84,84,84,84,84,84,84,84,84,84,84,84,84,84,84,84,84,84,84,84,84,84,84,84,84,84,84,84,84,84,84,84,84,82,
82,84,85,0,0,0,0,0,0,0,0,0,0,0,0,0,0,0,0,0,0,0,0,0,0,0,0,0,0,0,0,0,0,0,0,0,0,83,84,82,
82,84,85,0,0,0,0,0,0,0,0,0,0,0,0,0,0,0,0,0,0,0,0,0,0,0,0,0,0,0,0,0,0,0,0,0,0,83,84,82,
82,84,84,84,84,84,84,84,84,84,85,0,0,0,0,0,0,0,83,84,84,84,84,84,84,84,84,84,84,85,0,0,0,0,0,0,0,83,84,82,
82,84,85,0,0,0,0,0,0,0,82,0,0,98,99,100,0,0,82,0,0,0,0,0,0,0,0,0,0,82,0,0,0,0,0,0,0,83,84,82,
82,84,85,0,0,0,0,0,0,0,82,0,0,0,0,0,0,0,82,0,0,0,0,0,0,0,0,0,0,82,0,0,0,0,0,0,0,83,84,82,
82,84,85,0,0,0,0,0,0,0,82,0,0,0,0,0,0,0,82,0,0,0,0,0,97,0,0,0,0,83,84,84,84,85,0,0,0,83,84,82,
82,84,85,0,97,0,0,97,0,0,83,84,84,84,84,84,84,84,85,0,0,0,0,0,0,0,0,0,0,0,0,0,0,82,0,0,0,83,84,82,
82,84,85,0,0,0,0,0,0,0,0,0,0,0,0,0,0,0,0,0,0,0,0,0,0,0,0,0,0,0,0,0,0,82,0,0,0,83,84,82,
82,84,85,0,0,0,0,0,0,0,0,0,0,0,0,0,0,0,0,0,97,0,0,0,0,0,0,0,0,0,0,0,0,0,0,0,0,83,84,82,
82,84,85,0,0,0,0,0,0,0,0,0,0,0,0,0,0,0,0,0,0,0,0,0,0,0,0,0,82,0,0,0,0,82,0,0,0,83,84,82,
82,84,85,0,0,0,0,0,0,83,84,84,84,84,84,84,85,0,0,0,0,0,0,0,0,0,0,0,82,0,0,0,0,82,0,0,0,83,84,82,
82,84,85,0,0,0,97,0,0,82,0,0,0,0,0,0,83,85,0,0,0,0,0,0,0,0,97,0,82,0,0,0,0,82,0,0,0,83,84,82,
82,84,85,0,0,0,0,0,0,82,0,0,0,0,0,0,0,83,85,0,0,0,0,0,0,0,0,0,82,98,99,99,100,82,98,99,100,83,84,82,
82,84,85,100,0,0,0,0,83,84,84,84,85,98,100,0,0,0,83,85,0,0,0,0,0,0,0,0,82,0,0,0,0,82,0,0,0,83,84,82,
82,84,85,0,0,0,0,0,83,85,0,0,0,0,0,0,0,0,0,83,85,0,0,0,97,0,0,0,82,0,0,0,0,82,0,0,0,83,84,82,
82,84,85,0,0,97,0,0,83,85,0,0,0,0,0,0,0,0,0,0,83,85,0,0,0,0,0,0,82,0,0,0,0,0,0,0,0,83,84,82,
82,84,85,0,0,0,0,0,83,85,0,0,0,98,100,0,0,0,0,97,0,83,85,0,0,0,0,0,82,0,0,0,0,82,0,0,0,83,84,82,
82,84,85,0,0,0,0,97,0,82,0,0,0,0,0,0,0,0,0,0,0,0,83,84,84,84,84,84,85,0,0,0,0,82,0,0,0,83,84,82,
82,84,85,0,0,0,0,0,0,82,0,0,0,0,0,0,0,0,0,0,0,0,0,83,84,84,84,84,85,0,0,0,0,82,0,0,0,83,84,82,
82,84,85,0,0,97,0,0,0,82,0,0,0,98,99,99,100,0,0,0,0,0,0,0,83,84,84,84,85,98,99,99,100,82,98,99,100,83,84,82,
82,84,85,0,0,0,0,0,98,82,0,0,0,0,0,0,0,0,0,0,0,0,0,0,0,83,84,84,85,0,0,0,0,82,0,0,0,83,84,82,
82,84,85,100,0,0,0,0,0,82,0,0,0,0,0,0,0,0,97,0,0,0,0,0,0,0,83,84,85,0,0,0,0,0,0,0,0,83,84,82,
82,84,85,0,0,0,0,0,0,82,0,0,97,0,0,0,0,0,0,0,0,0,0,0,0,0,0,83,85,0,0,0,0,82,0,0,0,83,84,82,
82,84,85,0,0,97,0,0,0,82,0,0,0,0,0,0,0,0,0,0,97,0,0,0,0,0,0,0,82,0,0,0,0,82,0,0,0,83,84,82,
82,84,85,0,0,0,0,0,0,82,0,0,0,0,97,0,0,0,0,0,0,0,0,0,0,0,0,0,82,0,0,0,0,82,0,0,0,83,84,82,
82,84,85,0,0,0,0,97,0,82,0,0,0,0,0,0,0,0,97,0,0,0,97,0,0,0,0,0,82,98,99,99,100,82,98,99,100,83,84,82,
82,84,85,0,0,0,0,0,0,82,0,0,0,0,0,0,0,0,0,0,0,0,0,0,0,0,0,0,0,0,0,0,0,82,0,0,0,83,84,82,
82,84,85,0,0,0,0,0,0,82,0,0,0,0,0,0,0,0,0,0,0,0,0,0,0,0,0,0,0,0,0,0,0,82,0,0,0,83,84,82,
82,84,85,0,0,0,83,84,84,82,122,123,123,123,123,123,123,123,124,82,84,84,84,84,84,84,84,84,84,84,84,84,84,85,0,0,0,83,84,82,
82,84,85,0,97,0,0,0,0,0,0,0,0,0,0,0,0,0,0,83,84,84,84,84,84,84,84,84,84,84,84,84,84,85,0,0,0,83,84,82,
82,84,85,0,0,0,0,0,0,0,0,0,0,0,0,0,0,0,0,83,84,84,84,84,84,84,84,84,84,84,84,84,84,85,0,0,0,83,84,82,
82,84,85,0,0,0,0,0,0,0,0,0,0,0,0,0,0,0,0,83,84,84,84,84,84,84,84,84,84,85,0,0,0,0,0,0,0,83,84,82,
82,84,85,0,97,0,0,0,0,0,0,0,0,0,0,0,0,0,0,0,0,0,0,0,0,0,0,0,0,0,0,0,0,0,0,0,0,83,84,82,
82,84,85,0,0,0,0,0,0,0,0,0,0,0,0,0,0,0,0,0,0,0,0,0,0,0,0,0,0,0,0,0,0,0,0,0,0,83,84,82,
82,84,84,84,84,84,84,84,84,82,122,123,123,123,124,106,107,107,107,107,107,107,107,107,107,107,107,107,107,107,107,107,107,108,114,115,116,82,84,82,
82,84,84,84,84,84,84,84,84,84,84,84,84,84,84,84,84,84,84,84,84,84,84,84,84,84,84,84,84,84,84,84,84,84,84,84,84,84,84,82,
82,84,84,84,84,84,84,84,84,84,84,84,84,84,84,84,84,84,84,84,84,84,84,84,84,84,84,84,84,84,84,84,84,84,84,84,84,84,84,82
</data>
 </layer>
 <objectgroup id="3" name="Objects">
  <object id="1" type="Enemy" gid="145" x="384" y="288" width="32" height="32"/>
  <object id="4" type="Enemy" gid="145" x="512" y="288" width="32" height="32"/>
  <object id="5" type="TurretEnemy" gid="146" x="448" y="288" width="32" height="32"/>
  <object id="6" type="Enemy" gid="145" x="1056" y="256" width="32" height="32"/>
  <object id="7" type="TurretEnemy" gid="146" x="1056" y="384" width="32" height="32"/>
  <object id="8" type="TurretEnemy" gid="146" x="1056" y="608" width="32" height="32"/>
  <object id="9" type="TurretEnemy" gid="146" x="1056" y="800" width="32" height="32"/>
  <object id="10" type="TurretEnemy" gid="146" x="576" y="1056" width="32" height="32"/>
  <object id="11" type="Enemy" gid="145" x="960" y="1184" width="32" height="32"/>
  <object id="12" type="Enemy" gid="145" x="672" y="1184" width="32" height="32"/>
  <object id="13" type="TurretEnemy" gid="146" x="256" y="736" width="32" height="32"/>
  <object id="14" type="TurretEnemy" gid="146" x="128" y="288" width="32" height="32"/>
  <object id="15" type="TurretEnemy" gid="146" x="224" y="288" width="32" height="32"/>
  <object id="16" type="TurretEnemy" gid="146" x="768" y="256" width="32" height="32"/>
  <object id="17" type="TurretEnemy" gid="146" x="640" y="352" width="32" height="32"/>
  <object id="18" type="TurretEnemy" gid="146" x="608" y="608" width="32" height="32"/>
  <object id="19" type="TurretEnemy" gid="146" x="384" y="800" width="32" height="32"/>
  <object id="20" type="TurretEnemy" gid="146" x="448" y="864" width="32" height="32"/>
  <object id="21" type="TurretEnemy" gid="146" x="576" y="896" width="32" height="32"/>
  <object id="22" type="Enemy" gid="145" x="832" y="640" width="32" height="32"/>
  <object id="23" type="Enemy" gid="145" x="768" y="640" width="32" height="32"/>
  <object id="24" type="Player" gid="149" x="160" y="160" width="32" height="32"/>
  <object id="25" name="Hub" type="Door" x="128" y="160" width="32" height="32">
   <properties>
    <property name="connects" value="Hub"/>
    <property name="loadX" type="int" value="96"/>
    <property name="loadY" type="int" value="608"/>
   </properties>
  </object>
  <object id="26" name="Goal" type="Goal" x="352" y="512" width="32" height="32"/>
 </objectgroup>
 <layer id="2" name="Collisions" width="40" height="40">
  <data encoding="csv">
65,65,65,65,65,65,65,65,65,65,65,65,65,65,65,65,65,65,65,65,65,65,65,65,65,65,65,65,65,65,65,65,65,65,65,65,65,65,65,65,
65,65,65,65,65,65,65,65,65,65,65,65,65,65,65,65,65,65,65,65,65,65,65,65,65,65,65,65,65,65,65,65,65,65,65,65,65,65,65,65,
65,65,65,65,65,65,65,65,65,65,65,65,65,65,65,65,65,65,65,65,65,65,65,65,65,65,65,65,65,65,65,65,65,65,65,65,65,65,65,65,
65,65,65,0,0,0,0,0,0,0,0,0,0,0,0,0,0,0,0,0,0,0,0,0,0,0,0,0,0,0,0,0,0,0,0,0,0,65,65,65,
65,65,65,0,0,0,0,0,0,0,0,0,0,0,0,0,0,0,0,0,0,0,0,0,0,0,0,0,0,0,0,0,0,0,0,0,0,65,65,65,
65,65,65,65,65,65,65,65,65,65,65,0,0,0,0,0,0,0,65,65,65,65,65,65,65,65,65,65,65,65,0,0,0,0,0,0,0,65,65,65,
65,65,65,0,0,0,0,0,0,0,65,0,0,66,66,66,0,0,65,0,0,0,0,0,0,0,0,0,0,65,0,0,0,0,0,0,0,65,65,65,
65,65,65,0,0,0,0,0,0,0,65,0,0,0,0,0,0,0,65,0,0,0,0,0,0,0,0,0,0,65,0,0,0,0,0,0,0,65,65,65,
65,65,65,0,0,0,0,0,0,0,65,0,0,0,0,0,0,0,65,0,0,0,0,0,66,0,0,0,0,65,65,65,65,65,0,0,0,65,65,65,
65,65,65,0,66,0,0,66,0,0,65,65,65,65,65,65,65,65,65,0,0,0,0,0,0,0,0,0,0,0,0,0,0,65,0,0,0,65,65,65,
65,65,65,0,0,0,0,0,0,0,0,0,0,0,0,0,0,0,0,0,0,0,0,0,0,0,0,0,0,0,0,0,0,65,0,0,0,65,65,65,
65,65,65,0,0,0,0,0,0,0,0,0,0,0,0,0,0,0,0,0,66,0,0,0,0,0,0,0,0,0,0,0,0,0,0,0,0,65,65,65,
65,65,65,0,0,0,0,0,0,0,0,0,0,0,0,0,0,0,0,0,0,0,0,0,0,0,0,0,65,0,0,0,0,65,0,0,0,65,65,65,
65,65,65,0,0,0,0,0,0,65,65,65,65,65,65,65,65,0,0,0,0,0,0,0,0,0,0,0,65,0,0,0,0,65,0,0,0,65,65,65,
65,65,65,0,0,0,66,0,0,65,0,0,0,0,0,0,65,65,0,0,0,0,0,0,0,0,66,0,65,0,0,0,0,65,0,0,0,65,65,65,
65,65,65,0,0,0,0,0,0,65,0,0,0,0,0,0,0,65,65,0,0,0,0,0,0,0,0,0,65,66,66,66,66,65,66,66,66,65,65,65,
65,65,65,66,0,0,0,0,65,65,65,65,65,66,66,0,0,0,65,65,0,0,0,0,0,0,0,0,65,0,0,0,0,65,0,0,0,65,65,65,
65,65,65,0,0,0,0,0,65,65,0,0,0,0,0,0,0,0,0,65,65,0,0,0,66,0,0,0,65,0,0,0,0,65,0,0,0,65,65,65,
65,65,65,0,0,66,0,0,65,65,0,0,0,0,0,0,0,0,0,0,65,65,0,0,0,0,0,0,65,0,0,0,0,0,0,0,0,65,65,65,
65,65,65,0,0,0,0,0,65,65,0,0,0,66,66,0,0,0,0,66,0,65,65,0,0,0,0,0,65,0,0,0,0,65,0,0,0,65,65,65,
65,65,65,0,0,0,0,66,0,65,0,0,0,0,0,0,0,0,0,0,0,0,65,65,65,65,65,65,65,0,0,0,0,65,0,0,0,65,65,65,
65,65,65,0,0,0,0,0,0,65,0,0,0,0,0,0,0,0,0,0,0,0,0,65,65,65,65,65,65,0,0,0,0,65,0,0,0,65,65,65,
65,65,65,0,0,66,0,0,0,65,0,0,0,66,66,66,66,0,0,0,0,0,0,0,65,65,65,65,65,66,66,66,66,65,66,66,66,65,65,65,
65,65,65,0,0,0,0,0,66,65,0,0,0,0,0,0,0,0,0,0,0,0,0,0,0,65,65,65,65,0,0,0,0,65,0,0,0,65,65,65,
65,65,65,66,0,0,0,0,0,65,0,0,0,0,0,0,0,0,66,0,0,0,0,0,0,0,65,65,65,0,0,0,0,0,0,0,0,65,65,65,
65,65,65,0,0,0,0,0,0,65,0,0,66,0,0,0,0,0,0,0,0,0,0,0,0,0,0,65,65,0,0,0,0,65,0,0,0,65,65,65,
65,65,65,0,0,66,0,0,0,65,0,0,0,0,0,0,0,0,0,0,66,0,0,0,0,0,0,0,65,0,0,0,0,65,0,0,0,65,65,65,
65,65,65,0,0,0,0,0,0,65,0,0,0,0,66,0,0,0,0,0,0,0,0,0,0,0,0,0,65,0,0,0,0,65,0,0,0,65,65,65,
65,65,65,0,0,0,0,66,0,65,0,0,0,0,0,0,0,0,66,0,0,0,66,0,0,0,0,0,65,66,66,66,66,65,66,66,66,65,65,65,
65,65,65,0,0,0,0,0,0,65,0,0,0,0,0,0,0,0,0,0,0,0,0,0,0,0,0,0,0,0,0,0,0,65,0,0,0,65,65,65,
65,65,65,0,0,0,0,0,0,65,0,0,0,0,0,0,0,0,0,0,0,0,0,0,0,0,0,0,0,0,0,0,0,65,0,0,0,65,65,65,
65,65,65,0,0,0,65,65,65,65,69,69,69,69,69,69,69,69,69,65,65,65,65,65,65,65,65,65,65,65,65,65,65,65,0,0,0,65,65,65,
65,65,65,0,66,0,0,0,0,0,0,0,0,0,0,0,0,0,0,65,65,65,65,65,65,65,65,65,65,65,65,65,65,65,0,0,0,65,65,65,
65,65,65,0,0,0,0,0,0,0,0,0,0,0,0,0,0,0,0,65,65,65,65,65,65,65,65,65,65,65,65,65,65,65,0,0,0,65,65,65,
65,65,65,0,0,0,0,0,0,0,0,0,0,0,0,0,0,0,0,65,65,65,65,65,65,65,65,65,65,65,0,0,0,0,0,0,0,65,65,65,
65,65,65,0,66,0,0,0,0,0,0,0,0,0,0,0,0,0,0,0,0,0,0,0,0,0,0,0,0,0,0,0,0,0,0,0,0,65,65,65,
65,65,65,0,0,0,0,0,0,0,0,0,0,0,0,0,0,0,0,0,0,0,0,0,0,0,0,0,0,0,0,0,0,0,0,0,0,65,65,65,
65,65,65,65,65,65,65,65,65,65,69,69,69,69,69,67,67,67,67,67,67,67,67,67,67,67,67,67,67,67,67,67,67,67,68,68,68,65,65,65,
65,65,65,65,65,65,65,65,65,65,65,65,65,65,65,65,65,65,65,65,65,65,65,65,65,65,65,65,65,65,65,65,65,65,65,65,65,65,65,65,
65,65,65,65,65,65,65,65,65,65,65,65,65,65,65,65,65,65,65,65,65,65,65,65,65,65,65,65,65,65,65,65,65,65,65,65,65,65,65,65
</data>
 </layer>
</map>
