<?xml version="1.0" encoding="UTF-8"?>
<map version="1.10" tiledversion="1.12.1" orientation="orthogonal" renderorder="right-down" width="30" height="20" tilewidth="32" tileheight="32" infinite="0" backgroundcolor="#ffffff" nextlayerid="2" nextobjectid="1">
 <tileset firstgid="1" source="../TiledSets/PrototypeTiles.tsx"/>
 <layer id="1" name="Tile Layer 1" width="30" height="20">
  <data encoding="csv">
7,7,7,7,7,7,7,7,7,7,7,1,7,7,7,7,7,7,7,7,1,5,7,1,1,1,7,7,7,7,
7,7,7,7,7,7,7,7,7,7,1,1,1,7,7,1,1,1,7,5,1,7,7,1,7,1,7,7,7,7,
7,7,7,7,7,7,7,7,7,7,7,1,7,7,7,7,7,5,7,7,1,7,7,1,1,1,7,7,7,7,
7,7,7,7,7,7,7,7,7,7,7,7,7,7,7,5,7,7,7,7,7,7,7,7,7,7,7,7,7,7,
7,7,7,7,7,7,7,7,7,7,7,7,7,5,7,7,7,7,7,7,7,7,7,7,7,7,7,7,7,7,
7,7,7,7,7,7,7,7,7,7,7,5,7,7,7,7,7,7,7,7,7,7,7,7,7,7,7,7,7,7,
7,7,7,7,7,7,7,7,7,5,7,7,7,7,7,7,7,7,7,7,7,7,7,7,7,7,7,7,7,7,
7,7,7,7,7,7,7,5,7,7,7,7,7,7,7,7,7,7,7,7,7,7,7,7,7,7,7,7,7,7,
7,7,7,7,7,5,7,7,7,7,7,7,7,7,7,7,7,7,7,7,7,7,7,7,7,7,7,7,7,7,
7,7,7,7,5,7,7,7,7,7,7,7,7,7,7,7,7,7,7,7,7,7,7,7,7,7,7,7,7,7,
7,7,7,5,7,7,7,7,7,7,7,7,7,7,7,7,7,7,7,7,7,7,7,7,7,7,7,7,7,7,
6,6,6,6,6,6,7,7,7,7,7,7,7,7,7,7,7,7,7,7,7,7,7,7,7,7,7,7,7,7,
7,7,7,7,7,7,7,7,7,7,7,7,7,7,7,7,7,7,7,7,7,7,7,7,7,7,7,7,7,7,
7,7,7,7,7,7,7,7,7,7,7,7,7,7,7,7,7,3,4,1,6,6,6,1,1,6,1,1,1,1,
7,7,7,5,1,1,7,7,7,7,7,7,7,7,7,3,4,1,1,1,7,7,7,1,1,7,1,1,1,1,
7,7,5,7,1,1,7,7,7,7,2,1,1,1,1,1,1,1,1,1,7,7,7,1,1,7,1,1,1,1,
7,5,7,7,1,1,7,7,7,2,1,1,1,1,1,1,1,1,1,1,7,7,7,1,1,7,1,1,1,1,
5,7,7,7,1,1,7,7,2,1,1,1,1,1,1,1,1,1,1,1,7,7,7,1,1,7,1,1,1,1,
1,1,1,1,1,1,1,1,1,1,1,1,1,1,1,1,1,1,1,1,7,7,7,1,1,7,1,1,1,1,
1,1,1,1,1,1,1,1,1,1,1,1,1,1,1,1,1,1,1,1,7,7,7,1,1,7,1,1,1,1
</data>
 </layer>
</map>
