<?xml version="1.0" encoding="UTF-8"?>
<map version="1.10" tiledversion="1.11.2" orientation="orthogonal" renderorder="right-down" width="60" height="30" tilewidth="32" tileheight="32" infinite="0" nextlayerid="6" nextobjectid="59">
 <editorsettings>
  <export target="../../src/PolyGone/Maps/Level5-StephenResch.json" format="json"/>
 </editorsettings>
 <tileset firstgid="1" source="../TiledSets/Proto.tsx"/>
 <tileset firstgid="65" source="../TiledSets/CollisionTiles.tsx"/>
 <tileset firstgid="81" source="../TiledSets/TextureSheet.tsx"/>
 <tileset firstgid="145" source="../TiledSets/PlayerSheet.tsx"/>
 <tileset firstgid="149" source="../TiledSets/EnemySheet.tsx"/>
 <imagelayer id="5" name="Background" repeatx="1" repeaty="1">
  <image source="../../src/PolyGone/Content/Textures/Backgrounds/CastleBackground.png" width="256" height="256"/>
 </imagelayer>
 <layer id="1" name="prototype" width="60" height="30">
  <data encoding="csv">
2,2,2,2,2,2,2,2,2,2,2,2,2,2,2,2,2,2,2,2,2,2,2,2,2,2,2,2,2,2,2,2,2,2,2,2,2,2,2,2,2,2,2,2,2,2,2,2,2,2,2,2,2,2,2,2,2,2,2,2,
2,2,2,2,2,2,2,2,2,2,2,2,2,2,2,2,2,2,2,2,2,2,2,2,2,2,2,2,2,2,2,2,2,2,2,2,2,2,2,2,2,2,2,2,2,2,2,2,2,2,2,2,2,2,2,2,2,2,2,2,
2,2,2,2,2,2,2,2,2,2,2,2,2,2,2,2,2,2,2,2,2,2,2,2,2,2,2,2,2,2,2,2,2,2,2,2,2,2,2,2,2,2,2,2,2,2,2,2,2,2,2,2,2,2,2,2,2,2,2,2,
2,2,2,0,0,0,0,0,0,0,0,0,0,0,0,0,0,0,0,2,0,0,0,0,0,0,0,0,0,0,0,0,0,0,0,0,0,0,0,2,0,0,0,0,0,0,0,0,0,0,0,0,0,0,0,0,0,2,2,2,
2,2,2,0,0,0,0,0,0,0,0,0,0,0,0,0,0,0,0,2,0,0,0,0,0,0,0,0,0,0,0,0,0,0,0,0,0,0,0,2,0,0,0,0,0,0,0,0,0,0,0,0,0,0,0,0,3,2,2,2,
2,2,2,0,0,0,0,3,0,0,0,0,0,0,3,0,0,0,0,2,0,0,0,3,0,0,0,0,0,3,0,0,0,0,0,0,3,0,0,2,0,0,0,0,0,0,0,0,0,0,0,0,0,0,0,0,0,2,2,2,
2,2,2,0,0,0,0,0,0,0,0,0,0,0,0,0,0,0,0,2,0,0,0,0,0,0,0,0,0,0,0,0,0,0,0,0,0,0,0,2,0,0,0,0,0,0,0,0,0,2,0,0,0,0,0,0,0,2,2,2,
2,2,2,0,0,0,0,0,0,0,0,0,0,0,0,0,0,0,0,0,0,0,0,0,0,0,0,0,0,0,0,0,0,0,0,0,0,0,0,0,0,0,0,0,0,3,0,0,0,2,0,0,0,0,0,0,0,2,2,2,
2,2,2,0,0,0,0,0,0,0,0,0,0,0,0,0,0,0,0,0,0,0,0,0,0,0,0,0,0,0,0,0,0,0,0,0,0,0,0,0,0,0,0,0,0,0,0,0,0,2,0,0,0,0,0,0,0,2,2,2,
2,2,2,0,0,0,0,0,0,0,0,0,0,0,0,0,0,0,0,0,0,0,0,0,0,0,0,0,0,0,0,0,0,0,0,0,0,0,0,0,0,0,0,0,0,0,0,0,0,2,0,0,0,0,0,0,0,2,2,2,
2,2,2,0,0,0,0,2,2,2,2,2,2,2,2,2,2,2,2,2,2,2,2,2,11,11,11,2,2,2,11,11,11,2,9,9,9,9,9,2,2,2,2,2,2,2,10,10,10,2,2,2,2,2,2,2,2,2,2,2,
2,2,2,0,0,0,0,0,0,0,0,0,0,0,0,0,0,0,0,0,2,0,0,0,0,0,0,0,0,0,0,0,0,0,0,0,0,0,0,2,0,0,0,0,0,0,0,0,0,0,0,0,0,0,0,0,0,2,2,2,
2,2,2,0,0,0,0,0,0,0,0,0,0,0,0,0,0,0,0,0,2,0,0,0,0,0,0,0,0,0,0,0,0,0,0,0,0,0,0,2,0,0,0,0,0,0,0,0,0,0,0,0,0,0,0,0,0,2,2,2,
2,2,2,0,0,0,0,0,3,0,0,0,3,0,0,0,0,3,0,0,2,0,0,0,3,0,0,0,0,3,0,0,0,0,3,0,0,0,0,2,0,0,0,0,3,0,0,0,0,0,0,0,0,0,0,0,0,2,2,2,
2,2,2,0,0,3,0,0,0,0,0,0,0,0,0,0,0,0,0,0,2,0,0,0,0,0,0,0,0,0,0,0,0,0,0,0,0,0,0,2,0,0,0,0,0,0,0,0,0,0,0,3,0,0,0,0,0,2,2,2,
2,2,2,0,0,0,0,0,0,0,0,0,0,0,0,0,0,0,0,0,2,0,0,0,0,0,0,0,0,0,0,0,0,0,0,0,0,0,0,2,0,0,0,0,0,0,0,0,0,0,0,0,0,0,0,0,0,2,2,2,
2,2,2,0,0,0,0,0,0,0,0,0,0,0,0,0,0,0,0,0,2,0,0,0,0,0,0,0,0,0,0,0,0,0,0,0,0,0,0,2,0,0,0,0,0,0,0,0,0,0,0,0,0,0,0,0,0,2,2,2,
2,2,2,0,0,3,0,0,0,0,0,0,0,0,0,0,0,0,0,0,0,0,0,0,0,0,0,0,0,0,0,0,0,0,0,0,0,0,0,0,0,0,0,0,0,0,0,0,0,0,0,0,0,0,0,0,0,2,2,2,
2,2,2,0,0,0,0,0,0,0,0,0,0,0,0,0,0,0,0,0,0,0,0,0,0,0,0,0,0,0,0,0,0,0,0,0,0,0,0,0,0,0,0,0,0,0,0,0,0,0,0,0,0,0,0,0,0,2,2,2,
2,2,2,0,0,0,0,0,0,0,0,0,0,0,0,0,0,0,0,0,0,0,0,0,0,0,0,0,0,0,0,0,0,0,0,0,0,0,0,0,0,0,0,0,0,0,0,0,0,0,0,0,0,0,0,0,0,2,2,2,
2,2,2,11,11,11,2,2,10,10,10,2,2,2,2,2,2,2,2,2,9,9,9,9,9,9,9,9,9,9,9,9,9,9,9,9,9,9,9,2,2,2,2,2,2,2,2,2,2,2,2,0,0,0,0,0,0,2,2,2,
2,2,2,0,0,0,0,0,0,2,0,0,0,0,0,0,0,0,0,2,0,0,0,0,0,0,0,0,0,0,0,0,0,0,0,0,0,0,0,2,0,0,0,0,0,0,0,0,0,0,2,0,0,3,0,0,0,2,2,2,
2,2,2,0,0,0,0,0,0,2,0,3,0,0,0,0,3,0,0,2,3,0,3,0,0,0,0,0,0,0,0,0,0,0,0,0,0,0,3,2,0,0,3,0,0,3,0,0,3,0,2,0,0,0,0,0,0,2,2,2,
2,2,2,0,0,0,0,0,0,2,0,0,0,0,0,0,0,0,0,2,0,0,0,0,0,0,0,0,0,0,0,0,0,0,0,0,0,0,0,2,0,0,0,0,0,0,0,0,0,0,2,0,0,0,0,0,0,2,2,2,
2,2,2,0,0,0,0,0,0,0,0,0,0,0,0,0,0,0,0,0,0,0,0,0,0,3,0,0,0,2,0,0,0,0,0,0,0,0,0,0,0,0,0,0,0,0,0,0,0,0,0,0,0,3,0,0,0,2,2,2,
2,2,2,0,0,0,0,0,0,0,0,0,0,0,0,0,0,0,0,0,0,0,0,0,0,0,0,0,0,2,0,0,0,0,0,0,0,0,0,0,0,0,0,0,0,0,0,0,0,0,0,0,0,0,0,0,0,2,2,2,
2,2,2,0,0,0,0,0,0,0,0,0,0,0,0,0,0,0,0,0,0,0,0,0,0,0,0,0,0,2,0,0,0,0,0,0,0,0,0,0,0,0,0,0,0,0,0,0,0,0,0,0,0,0,0,0,0,2,2,2,
2,2,2,2,2,2,2,2,2,2,2,2,2,2,2,2,2,2,2,2,2,2,2,10,10,2,2,10,10,2,2,2,2,2,2,2,2,2,2,2,2,2,11,11,2,2,2,11,11,2,2,2,2,2,2,2,2,2,2,2,
2,2,2,2,2,2,2,2,2,2,2,2,2,2,2,2,2,2,2,2,2,2,2,2,2,2,2,2,2,2,2,2,2,2,2,2,2,2,2,2,2,2,2,2,2,2,2,2,2,2,2,2,2,2,2,2,2,2,2,2,
2,2,2,2,2,2,2,2,2,2,2,2,2,2,2,2,2,2,2,2,2,2,2,2,2,2,2,2,2,2,2,2,2,2,2,2,2,2,2,2,2,2,2,2,2,2,2,2,2,2,2,2,2,2,2,2,2,2,2,2
</data>
 </layer>
 <layer id="4" name="tiles" width="60" height="30">
  <data encoding="csv">
82,84,84,84,84,84,84,84,84,84,84,84,84,84,84,84,84,84,84,84,84,84,84,84,84,84,84,84,84,84,84,84,84,84,84,84,84,84,84,84,84,84,84,84,84,84,84,84,84,84,84,84,84,84,84,84,84,84,84,82,
82,84,84,84,84,84,84,84,84,84,84,84,84,84,84,84,84,84,84,84,84,84,84,84,84,84,84,84,84,84,84,84,84,84,84,84,84,84,84,84,84,84,84,84,84,84,84,84,84,84,84,84,84,84,84,84,84,84,84,82,
82,84,84,84,84,84,84,84,84,84,84,84,84,84,84,84,84,84,84,84,84,84,84,84,84,84,84,84,84,84,84,84,84,84,84,84,84,84,84,84,84,84,84,84,84,84,84,84,84,84,84,84,84,84,84,84,84,84,84,82,
82,84,85,0,0,0,0,0,0,0,0,0,0,0,0,0,0,0,0,82,0,0,0,0,0,0,0,0,0,0,0,0,0,0,0,0,0,0,0,82,0,0,0,0,0,0,0,0,0,0,0,0,0,0,0,0,0,83,84,82,
82,84,85,0,0,0,0,0,0,0,0,0,0,0,0,0,0,0,0,82,0,0,0,0,0,0,0,0,0,0,0,0,0,0,0,0,0,0,0,82,0,0,0,0,0,0,0,0,0,0,0,0,0,0,0,0,98,83,84,82,
82,84,85,0,0,0,0,97,0,0,0,0,0,0,97,0,0,0,0,82,0,0,0,97,0,0,0,0,0,97,0,0,0,0,0,0,97,0,0,82,0,0,0,0,0,0,0,0,0,0,0,0,0,0,0,0,0,83,84,82,
82,84,85,0,0,0,0,0,0,0,0,0,0,0,0,0,0,0,0,82,0,0,0,0,0,0,0,0,0,0,0,0,0,0,0,0,0,0,0,82,0,0,0,0,0,0,0,0,0,82,0,0,0,0,0,0,0,83,84,82,
82,84,85,0,0,0,0,0,0,0,0,0,0,0,0,0,0,0,0,0,0,0,0,0,0,0,0,0,0,0,0,0,0,0,0,0,0,0,0,0,0,0,0,0,0,97,0,0,0,82,0,0,0,0,0,0,0,83,84,82,
82,84,85,0,0,0,0,0,0,0,0,0,0,0,0,0,0,0,0,0,0,0,0,0,0,0,0,0,0,0,0,0,0,0,0,0,0,0,0,0,0,0,0,0,0,0,0,0,0,82,0,0,0,0,0,0,0,83,84,82,
82,84,85,0,0,0,0,0,0,0,0,0,0,0,0,0,0,0,0,0,0,0,0,0,0,0,0,0,0,0,0,0,0,0,0,0,0,0,0,0,0,0,0,0,0,0,0,0,0,82,0,0,0,0,0,0,0,83,84,82,
82,84,85,0,0,0,0,83,84,84,84,84,84,84,84,84,84,84,84,84,84,84,84,82,122,123,124,82,84,82,122,123,124,82,106,107,107,107,108,82,84,84,84,84,84,82,114,115,116,82,84,84,84,84,84,84,84,84,84,82,
82,84,85,0,0,0,0,0,0,0,0,0,0,0,0,0,0,0,0,0,82,0,0,0,0,0,0,0,0,0,0,0,0,0,0,0,0,0,0,82,0,0,0,0,0,0,0,0,0,0,0,0,0,0,0,0,0,83,84,82,
82,84,85,0,0,0,0,0,0,0,0,0,0,0,0,0,0,0,0,0,82,0,0,0,0,0,0,0,0,0,0,0,0,0,0,0,0,0,0,82,0,0,0,0,0,0,0,0,0,0,0,0,0,0,0,0,0,83,84,82,
82,84,85,0,0,0,0,0,97,0,0,0,97,0,0,0,0,97,0,0,82,0,0,0,97,0,0,0,0,97,0,0,0,0,97,0,0,0,0,82,0,0,0,0,97,0,0,0,0,0,0,0,0,0,0,0,0,83,84,82,
82,84,85,0,0,97,0,0,0,0,0,0,0,0,0,0,0,0,0,0,82,0,0,0,0,0,0,0,0,0,0,0,0,0,0,0,0,0,0,82,0,0,0,0,0,0,0,0,0,0,0,97,0,0,0,0,0,83,84,82,
82,84,85,0,0,0,0,0,0,0,0,0,0,0,0,0,0,0,0,0,82,0,0,0,0,0,0,0,0,0,0,0,0,0,0,0,0,0,0,82,0,0,0,0,0,0,0,0,0,0,0,0,0,0,0,0,0,83,84,82,
82,84,85,0,0,0,0,0,0,0,0,0,0,0,0,0,0,0,0,0,82,0,0,0,0,0,0,0,0,0,0,0,0,0,0,0,0,0,0,82,0,0,0,0,0,0,0,0,0,0,0,0,0,0,0,0,0,83,84,82,
82,84,85,0,0,97,0,0,0,0,0,0,0,0,0,0,0,0,0,0,0,0,0,0,0,0,0,0,0,0,0,0,0,0,0,0,0,0,0,0,0,0,0,0,0,0,0,0,0,0,0,0,0,0,0,0,0,83,84,82,
82,84,85,0,0,0,0,0,0,0,0,0,0,0,0,0,0,0,0,0,0,0,0,0,0,0,0,0,0,0,0,0,0,0,0,0,0,0,0,0,0,0,0,0,0,0,0,0,0,0,0,0,0,0,0,0,0,83,84,82,
82,84,85,0,0,0,0,0,0,0,0,0,0,0,0,0,0,0,0,0,0,0,0,0,0,0,0,0,0,0,0,0,0,0,0,0,0,0,0,0,0,0,0,0,0,0,0,0,0,0,0,0,0,0,0,0,0,83,84,82,
82,84,82,122,123,124,82,82,114,115,116,82,84,84,84,84,84,84,84,82,106,107,107,107,107,107,107,107,107,107,107,107,107,107,107,107,107,107,108,82,84,84,84,84,84,84,84,84,84,84,85,0,0,0,0,0,0,83,84,82,
82,84,85,0,0,0,0,0,0,82,0,0,0,0,0,0,0,0,0,82,0,0,0,0,0,0,0,0,0,0,0,0,0,0,0,0,0,0,0,82,0,0,0,0,0,0,0,0,0,0,82,0,0,97,0,0,0,83,84,82,
82,84,85,0,0,0,0,0,0,82,0,97,0,0,0,0,97,0,0,82,100,0,97,0,0,0,0,0,0,0,0,0,0,0,0,0,0,0,98,82,0,0,97,0,0,97,0,0,97,0,82,0,0,0,0,0,0,83,84,82,
82,84,85,0,0,0,0,0,0,82,0,0,0,0,0,0,0,0,0,82,0,0,0,0,0,0,0,0,0,0,0,0,0,0,0,0,0,0,0,82,0,0,0,0,0,0,0,0,0,0,82,0,0,0,0,0,0,83,84,82,
82,84,85,0,0,0,0,0,0,0,0,0,0,0,0,0,0,0,0,0,0,0,0,0,0,97,0,0,0,82,0,0,0,0,0,0,0,0,0,0,0,0,0,0,0,0,0,0,0,0,0,0,0,97,0,0,0,83,84,82,
82,84,85,0,0,0,0,0,0,0,0,0,0,0,0,0,0,0,0,0,0,0,0,0,0,0,0,0,0,82,0,0,0,0,0,0,0,0,0,0,0,0,0,0,0,0,0,0,0,0,0,0,0,0,0,0,0,83,84,82,
82,84,85,0,0,0,0,0,0,0,0,0,0,0,0,0,0,0,0,0,0,0,0,0,0,0,0,0,0,82,0,0,0,0,0,0,0,0,0,0,0,0,0,0,0,0,0,0,0,0,0,0,0,0,0,0,0,83,84,82,
82,84,84,84,84,84,84,84,84,84,84,84,84,84,84,84,84,84,84,84,84,84,82,114,116,82,82,114,116,82,84,84,84,84,84,84,84,84,84,84,84,82,122,124,82,84,82,122,124,82,84,84,84,84,84,84,84,84,84,82,
82,84,84,84,84,84,84,84,84,84,84,84,84,84,84,84,84,84,84,84,84,84,84,84,84,84,84,84,84,84,84,84,84,84,84,84,84,84,84,84,84,84,84,84,84,84,84,84,84,84,84,84,84,84,84,84,84,84,84,82,
82,84,84,84,84,84,84,84,84,84,84,84,84,84,84,84,84,84,84,84,84,84,84,84,84,84,84,84,84,84,84,84,84,84,84,84,84,84,84,84,84,84,84,84,84,84,84,84,84,84,84,84,84,84,84,84,84,84,84,82
</data>
 </layer>
 <objectgroup id="3" name="Objects">
  <object id="1" gid="145" x="160" y="864" width="32" height="32"/>
  <object id="29" name="Hub" type="Door" x="128" y="864" width="32" height="32">
   <properties>
    <property name="connects" value="Hub"/>
    <property name="loadX" type="int" value="96"/>
    <property name="loadY" type="int" value="608"/>
   </properties>
  </object>
  <object id="30" name="Goal" type="Goal" x="1760" y="320" width="32" height="32"/>
  <object id="31" gid="150" x="1792" y="128" width="32" height="32"/>
  <object id="32" gid="150" x="1152" y="160" width="32" height="32"/>
  <object id="33" gid="150" x="928" y="160" width="32" height="32"/>
  <object id="34" gid="150" x="736" y="160" width="32" height="32"/>
  <object id="35" gid="150" x="448" y="160" width="32" height="32"/>
  <object id="36" gid="150" x="224" y="160" width="32" height="32"/>
  <object id="37" gid="150" x="256" y="416" width="32" height="32"/>
  <object id="38" gid="150" x="384" y="416" width="32" height="32"/>
  <object id="39" gid="150" x="544" y="416" width="32" height="32"/>
  <object id="40" gid="150" x="768" y="416" width="32" height="32"/>
  <object id="41" gid="150" x="928" y="416" width="32" height="32"/>
  <object id="42" gid="150" x="1088" y="416" width="32" height="32"/>
  <object id="43" gid="150" x="1408" y="416" width="32" height="32"/>
  <object id="44" gid="150" x="1632" y="448" width="32" height="32"/>
  <object id="45" gid="150" x="1536" y="704" width="32" height="32"/>
  <object id="46" gid="150" x="1440" y="704" width="32" height="32"/>
  <object id="47" gid="150" x="1344" y="704" width="32" height="32"/>
  <object id="48" gid="150" x="1216" y="704" width="32" height="32"/>
  <object id="49" gid="150" x="704" y="704" width="32" height="32"/>
  <object id="50" gid="150" x="640" y="704" width="32" height="32"/>
  <object id="51" gid="150" x="512" y="704" width="32" height="32"/>
  <object id="52" gid="150" x="352" y="704" width="32" height="32"/>
  <object id="53" gid="153" x="640" y="640" width="32" height="32"/>
  <object id="54" gid="149" x="672" y="640" width="32" height="32"/>
  <object id="55" gid="152" x="512" y="320" width="32" height="32"/>
  <object id="56" gid="152" x="1056" y="320" width="32" height="32"/>
  <object id="57" gid="151" x="1760" y="864" width="32" height="32"/>
  <object id="58" gid="151" x="192" y="640" width="32" height="32"/>
 </objectgroup>
 <layer id="2" name="Collisions" width="60" height="30">
  <data encoding="csv">
65,65,65,65,65,65,65,65,65,65,65,65,65,65,65,65,65,65,65,65,65,65,65,65,65,65,65,65,65,65,65,65,65,65,65,65,65,65,65,65,65,65,65,65,65,65,65,65,65,65,65,65,65,65,65,65,65,65,65,65,
65,65,65,65,65,65,65,65,65,65,65,65,65,65,65,65,65,65,65,65,65,65,65,65,65,65,65,65,65,65,65,65,65,65,65,65,65,65,65,65,65,65,65,65,65,65,65,65,65,65,65,65,65,65,65,65,65,65,65,65,
65,65,65,65,65,65,65,65,65,65,65,65,65,65,65,65,65,65,65,65,65,65,65,65,65,65,65,65,65,65,65,65,65,65,65,65,65,65,65,65,65,65,65,65,65,65,65,65,65,65,65,65,65,65,65,65,65,65,65,65,
65,65,65,0,0,0,0,0,0,0,0,0,0,0,0,0,0,0,0,65,0,0,0,0,0,0,0,0,0,0,0,0,0,0,0,0,0,0,0,65,0,0,0,0,0,0,0,0,0,0,0,0,0,0,0,0,0,65,65,65,
65,65,65,0,0,0,0,0,0,0,0,0,0,0,0,0,0,0,0,65,0,0,0,0,0,0,0,0,0,0,0,0,0,0,0,0,0,0,0,65,0,0,0,0,0,0,0,0,0,0,0,0,0,0,0,0,66,65,65,65,
65,65,65,0,0,0,0,66,0,0,0,0,0,0,66,0,0,0,0,65,0,0,0,66,0,0,0,0,0,66,0,0,0,0,0,0,66,0,0,65,0,0,0,0,0,0,0,0,0,0,0,0,0,0,0,0,0,65,65,65,
65,65,65,0,0,0,0,0,0,0,0,0,0,0,0,0,0,0,0,65,0,0,0,0,0,0,0,0,0,0,0,0,0,0,0,0,0,0,0,65,0,0,0,0,0,0,0,0,0,65,0,0,0,0,0,0,0,65,65,65,
65,65,65,0,0,0,0,0,0,0,0,0,0,0,0,0,0,0,0,0,0,0,0,0,0,0,0,0,0,0,0,0,0,0,0,0,0,0,0,0,0,0,0,0,0,66,0,0,0,65,0,0,0,0,0,0,0,65,65,65,
65,65,65,0,0,0,0,0,0,0,0,0,0,0,0,0,0,0,0,0,0,0,0,0,0,0,0,0,0,0,0,0,0,0,0,0,0,0,0,0,0,0,0,0,0,0,0,0,0,65,0,0,0,0,0,0,0,65,65,65,
65,65,65,0,0,0,0,0,0,0,0,0,0,0,0,0,0,0,0,0,0,0,0,0,0,0,0,0,0,0,0,0,0,0,0,0,0,0,0,0,0,0,0,0,0,0,0,0,0,65,0,0,0,0,0,0,0,65,65,65,
65,65,65,0,0,0,0,65,65,65,65,65,65,65,65,65,65,65,65,65,65,65,65,65,69,69,69,65,65,65,69,69,69,65,67,67,67,67,67,65,65,65,65,65,65,65,68,68,68,65,65,65,65,65,65,65,65,65,65,65,
65,65,65,0,0,0,0,0,0,0,0,0,0,0,0,0,0,0,0,0,65,0,0,0,0,0,0,0,0,0,0,0,0,0,0,0,0,0,0,65,0,0,0,0,0,0,0,0,0,0,0,0,0,0,0,0,0,65,65,65,
65,65,65,0,0,0,0,0,0,0,0,0,0,0,0,0,0,0,0,0,65,0,0,0,0,0,0,0,0,0,0,0,0,0,0,0,0,0,0,65,0,0,0,0,0,0,0,0,0,0,0,0,0,0,0,0,0,65,65,65,
65,65,65,0,0,0,0,0,66,0,0,0,66,0,0,0,0,66,0,0,65,0,0,0,66,0,0,0,0,66,0,0,0,0,66,0,0,0,0,65,0,0,0,0,66,0,0,0,0,0,0,0,0,0,0,0,0,65,65,65,
65,65,65,0,0,66,0,0,0,0,0,0,0,0,0,0,0,0,0,0,65,0,0,0,0,0,0,0,0,0,0,0,0,0,0,0,0,0,0,65,0,0,0,0,0,0,0,0,0,0,0,66,0,0,0,0,0,65,65,65,
65,65,65,0,0,0,0,0,0,0,0,0,0,0,0,0,0,0,0,0,65,0,0,0,0,0,0,0,0,0,0,0,0,0,0,0,0,0,0,65,0,0,0,0,0,0,0,0,0,0,0,0,0,0,0,0,0,65,65,65,
65,65,65,0,0,0,0,0,0,0,0,0,0,0,0,0,0,0,0,0,65,0,0,0,0,0,0,0,0,0,0,0,0,0,0,0,0,0,0,65,0,0,0,0,0,0,0,0,0,0,0,0,0,0,0,0,0,65,65,65,
65,65,65,0,0,66,0,0,0,0,0,0,0,0,0,0,0,0,0,0,0,0,0,0,0,0,0,0,0,0,0,0,0,0,0,0,0,0,0,0,0,0,0,0,0,0,0,0,0,0,0,0,0,0,0,0,0,65,65,65,
65,65,65,0,0,0,0,0,0,0,0,0,0,0,0,0,0,0,0,0,0,0,0,0,0,0,0,0,0,0,0,0,0,0,0,0,0,0,0,0,0,0,0,0,0,0,0,0,0,0,0,0,0,0,0,0,0,65,65,65,
65,65,65,0,0,0,0,0,0,0,0,0,0,0,0,0,0,0,0,0,0,0,0,0,0,0,0,0,0,0,0,0,0,0,0,0,0,0,0,0,0,0,0,0,0,0,0,0,0,0,0,0,0,0,0,0,0,65,65,65,
65,65,65,69,69,69,65,65,68,68,68,65,65,65,65,65,65,65,65,65,67,67,67,67,67,67,67,67,67,67,67,67,67,67,67,67,67,67,67,65,65,65,65,65,65,65,65,65,65,65,65,0,0,0,0,0,0,65,65,65,
65,65,65,0,0,0,0,0,0,65,0,0,0,0,0,0,0,0,0,65,0,0,0,0,0,0,0,0,0,0,0,0,0,0,0,0,0,0,0,65,0,0,0,0,0,0,0,0,0,0,65,0,0,66,0,0,0,65,65,65,
65,65,65,0,0,0,0,0,0,65,0,66,0,0,0,0,66,0,0,65,66,0,66,0,0,0,0,0,0,0,0,0,0,0,0,0,0,0,66,65,0,0,66,0,0,66,0,0,66,0,65,0,0,0,0,0,0,65,65,65,
65,65,65,0,0,0,0,0,0,65,0,0,0,0,0,0,0,0,0,65,0,0,0,0,0,0,0,0,0,0,0,0,0,0,0,0,0,0,0,65,0,0,0,0,0,0,0,0,0,0,65,0,0,0,0,0,0,65,65,65,
65,65,65,0,0,0,0,0,0,0,0,0,0,0,0,0,0,0,0,0,0,0,0,0,0,66,0,0,0,65,0,0,0,0,0,0,0,0,0,0,0,0,0,0,0,0,0,0,0,0,0,0,0,66,0,0,0,65,65,65,
65,65,65,0,0,0,0,0,0,0,0,0,0,0,0,0,0,0,0,0,0,0,0,0,0,0,0,0,0,65,0,0,0,0,0,0,0,0,0,0,0,0,0,0,0,0,0,0,0,0,0,0,0,0,0,0,0,65,65,65,
65,65,65,0,0,0,0,0,0,0,0,0,0,0,0,0,0,0,0,0,0,0,0,0,0,0,0,0,0,65,0,0,0,0,0,0,0,0,0,0,0,0,0,0,0,0,0,0,0,0,0,0,0,0,0,0,0,65,65,65,
65,65,65,65,65,65,65,65,65,65,65,65,65,65,65,65,65,65,65,65,65,65,65,68,68,65,65,68,68,65,65,65,65,65,65,65,65,65,65,65,65,65,69,69,65,65,65,69,69,65,65,65,65,65,65,65,65,65,65,65,
65,65,65,65,65,65,65,65,65,65,65,65,65,65,65,65,65,65,65,65,65,65,65,65,65,65,65,65,65,65,65,65,65,65,65,65,65,65,65,65,65,65,65,65,65,65,65,65,65,65,65,65,65,65,65,65,65,65,65,65,
65,65,65,65,65,65,65,65,65,65,65,65,65,65,65,65,65,65,65,65,65,65,65,65,65,65,65,65,65,65,65,65,65,65,65,65,65,65,65,65,65,65,65,65,65,65,65,65,65,65,65,65,65,65,65,65,65,65,65,65
</data>
 </layer>
</map>
