<?xml version="1.0" encoding="UTF-8"?>
<map version="1.10" tiledversion="1.12.1" orientation="orthogonal" renderorder="right-down" width="75" height="30" tilewidth="32" tileheight="32" infinite="0" nextlayerid="6" nextobjectid="4">
 <editorsettings>
  <export target="../../src/PolyGone/Maps/Level3-Dylan.json" format="json"/>
 </editorsettings>
 <tileset firstgid="1" source="../TiledSets/Proto.tsx"/>
 <tileset firstgid="65" source="../TiledSets/CollisionTiles.tsx"/>
 <tileset firstgid="81" source="../TiledSets/TextureSheet.tsx"/>
 <tileset firstgid="145" source="../TiledSets/PlayerSheet.tsx"/>
 <imagelayer id="5" name="background"/>
 <layer id="1" name="prototype" width="75" height="30">
  <data encoding="csv">
2,2,2,2,2,2,2,2,2,2,2,2,2,2,2,2,2,2,2,2,2,2,2,2,2,2,2,2,2,2,2,2,2,2,2,2,2,2,2,2,2,2,2,2,2,2,2,2,2,2,2,2,2,2,2,2,2,2,2,2,2,2,2,2,2,2,2,2,2,2,2,2,2,2,2,
2,2,2,2,2,2,2,2,2,2,2,2,2,2,2,2,2,2,2,2,2,2,2,2,2,2,2,2,2,2,2,2,2,2,2,2,2,2,2,2,2,2,2,2,2,2,2,2,2,2,2,2,2,2,2,2,2,2,2,2,2,2,2,2,2,2,2,2,2,2,2,2,2,2,2,
2,2,2,2,2,2,2,2,2,2,2,2,2,2,2,2,2,2,2,2,2,2,2,2,2,2,2,2,2,2,2,2,2,2,2,2,2,2,2,2,2,2,2,2,2,2,2,2,2,2,2,2,2,2,2,2,2,2,2,2,2,2,2,2,2,2,2,2,2,2,2,2,2,2,2,
2,2,2,0,0,0,0,0,0,0,0,0,0,0,0,0,0,0,0,0,0,0,0,0,0,0,0,0,0,0,0,0,0,0,0,0,0,0,0,0,0,0,0,0,0,0,0,0,0,0,0,0,0,0,0,0,0,0,0,0,0,0,0,0,0,0,0,0,0,0,0,0,2,2,2,
2,2,2,0,0,0,0,0,0,0,0,0,0,0,0,0,0,0,0,0,0,0,0,0,0,0,0,0,0,0,0,0,0,0,0,0,0,0,0,0,0,0,0,0,0,0,0,0,0,0,0,0,0,0,0,0,0,0,0,0,0,0,0,0,0,0,0,0,0,0,0,0,2,2,2,
2,2,2,0,0,0,0,0,0,0,0,0,0,0,0,0,0,0,0,0,0,0,0,0,0,0,0,0,0,0,0,0,0,0,0,0,0,0,0,0,0,0,0,0,0,0,0,0,0,3,3,0,0,0,0,0,0,0,0,0,0,0,0,0,0,0,0,0,0,0,0,0,2,2,2,
2,2,2,0,0,0,0,0,0,0,0,0,0,0,0,0,0,0,0,0,0,0,0,0,0,0,0,0,0,0,0,0,0,0,0,0,0,0,0,0,0,3,3,2,2,2,2,0,0,0,0,0,0,0,0,0,0,0,0,0,0,0,0,0,0,0,0,0,0,0,0,0,2,2,2,
2,2,2,0,0,0,0,0,0,0,0,0,0,0,0,0,0,0,0,0,0,0,0,0,0,0,0,0,0,0,0,0,0,0,0,0,0,0,0,0,0,3,3,2,2,2,2,0,0,0,0,0,3,3,3,0,0,0,0,0,0,0,0,0,0,0,0,0,0,0,0,0,2,2,2,
2,2,2,0,0,0,0,0,0,0,0,0,0,0,0,0,0,0,0,0,0,0,0,0,0,0,3,3,0,0,0,0,0,0,0,0,0,0,0,0,0,3,3,0,0,0,0,0,0,0,0,0,0,0,0,0,0,0,0,0,0,0,0,0,0,0,0,0,0,0,0,0,2,2,2,
2,2,2,0,0,0,0,0,0,0,0,0,0,0,0,0,0,0,0,0,0,0,0,0,0,0,0,0,0,0,0,0,0,0,0,0,0,0,0,0,0,3,3,0,0,0,0,0,0,0,0,0,0,0,0,3,3,9,9,9,9,9,0,0,0,0,0,0,0,0,0,0,2,2,2,
2,2,2,0,0,0,0,0,0,0,0,0,0,0,0,0,2,2,2,3,3,2,2,2,2,0,0,0,0,0,0,0,0,0,0,0,0,0,0,0,0,3,3,0,0,0,0,0,0,0,0,0,0,0,0,3,3,2,2,2,2,2,3,3,0,0,0,0,0,0,0,0,2,2,2,
2,2,2,0,0,0,0,0,0,0,0,0,0,0,0,0,2,2,2,3,3,2,2,2,2,0,0,0,3,3,0,0,0,0,0,0,0,0,0,0,0,3,3,0,0,0,0,0,0,0,0,0,0,0,0,0,0,2,2,2,2,2,0,0,0,0,0,0,0,0,0,0,2,2,2,
2,2,2,0,0,0,0,0,0,0,0,0,0,0,0,0,2,2,2,3,3,2,2,2,2,0,0,0,0,0,0,0,0,0,0,0,0,0,0,0,0,3,3,0,0,0,0,0,0,0,0,0,0,0,0,0,0,2,2,2,2,2,0,0,0,0,0,0,0,0,0,0,2,2,2,
2,2,2,0,0,0,0,0,0,0,0,0,0,0,0,0,2,2,2,3,3,2,2,2,2,0,0,0,0,0,0,0,0,0,0,0,0,0,0,0,0,3,3,0,0,0,0,0,0,0,0,0,0,0,0,0,0,2,2,2,2,2,3,3,0,0,0,0,0,0,0,0,2,2,2,
2,2,2,0,0,0,0,0,0,0,0,0,0,0,0,0,2,2,2,3,3,2,2,2,2,0,0,0,0,0,0,0,0,0,0,0,0,0,0,0,0,3,3,0,0,0,0,0,0,0,0,0,0,0,0,0,0,2,2,2,2,2,0,0,0,0,0,0,0,0,0,0,2,2,2,
2,2,2,0,0,0,0,0,0,0,0,0,0,0,0,0,2,2,2,3,3,2,2,2,2,10,10,10,0,0,0,0,0,0,0,0,0,0,0,0,0,3,3,0,0,0,0,0,0,0,0,0,0,0,0,0,0,2,2,2,2,2,0,0,0,0,0,0,0,0,0,0,2,2,2,
2,2,2,0,0,0,0,0,0,0,0,0,0,0,0,0,2,2,2,3,3,2,2,2,2,2,2,2,0,0,3,3,0,0,0,0,3,3,2,2,2,2,2,2,2,2,2,0,0,0,0,0,0,0,3,10,10,2,2,2,2,2,3,3,0,0,0,0,0,0,0,0,2,2,2,
2,2,2,0,0,0,0,0,0,0,0,0,0,0,0,0,2,2,2,3,3,2,2,2,2,0,0,0,0,0,3,3,0,0,0,0,0,0,2,2,2,2,2,2,2,2,2,0,0,0,0,0,0,0,0,2,2,2,2,2,2,2,0,0,0,0,0,0,0,0,0,0,2,2,2,
2,2,2,0,0,0,0,0,0,0,0,0,0,0,0,0,3,3,3,3,3,2,2,2,2,0,0,0,0,0,3,3,0,0,0,0,0,0,2,2,2,2,2,2,2,2,2,0,0,0,0,0,0,0,0,2,2,2,2,2,2,2,0,0,0,0,0,0,0,0,0,0,2,2,2,
2,2,2,0,0,0,0,0,0,0,0,0,0,0,0,0,3,3,3,3,3,2,2,2,2,0,0,0,0,0,3,3,0,0,0,0,3,3,2,2,2,2,2,2,2,2,2,0,0,0,0,0,0,0,0,2,2,2,2,2,2,2,0,0,0,0,0,0,0,0,0,0,2,2,2,
2,2,2,0,0,0,0,0,0,0,0,0,0,0,0,0,2,2,2,2,2,2,2,2,2,0,0,0,0,0,3,3,0,0,0,0,0,0,2,2,2,2,2,2,2,2,2,0,0,0,0,0,0,0,0,2,2,2,2,2,2,2,0,0,0,0,0,0,0,0,0,0,2,2,2,
2,2,2,0,0,0,0,0,0,0,0,0,0,0,0,0,2,2,2,2,2,2,2,2,2,0,0,0,0,0,3,3,0,0,0,0,0,0,2,2,2,2,2,2,2,2,2,0,0,0,0,0,0,0,0,2,2,2,2,2,2,2,0,0,10,10,10,0,0,0,0,0,2,2,2,
2,2,2,0,0,0,0,0,0,0,0,0,0,3,3,0,2,2,2,2,2,2,2,2,2,0,0,0,0,0,3,3,0,0,0,0,0,0,2,2,2,2,2,2,2,2,2,0,0,0,10,10,10,0,0,2,2,2,2,2,2,2,0,0,2,2,2,0,0,0,0,0,2,2,2,
2,2,2,0,0,0,0,0,0,2,2,2,0,0,0,0,2,2,2,2,2,2,2,2,2,0,0,0,0,0,0,0,0,0,0,0,10,10,2,2,2,2,2,2,2,2,2,0,0,0,2,2,2,0,0,2,2,2,2,2,2,2,0,0,2,2,2,0,0,0,0,0,2,2,2,
2,2,2,0,0,0,0,0,0,2,2,2,0,0,0,0,2,2,2,2,2,2,2,2,2,0,0,0,0,0,2,2,2,0,0,0,2,2,2,2,2,2,2,2,2,2,2,0,0,0,2,2,2,0,0,2,2,2,2,2,2,2,0,0,2,2,2,0,0,0,0,0,2,2,2,
2,2,2,0,0,0,0,3,3,2,2,2,0,0,0,0,2,2,2,2,2,2,2,2,2,0,0,0,0,0,2,2,2,0,0,0,0,0,2,2,2,2,2,2,2,2,2,0,0,0,2,2,2,0,0,2,2,2,2,2,2,2,0,0,2,2,2,0,0,0,0,0,2,2,2,
2,2,2,0,0,0,0,0,0,2,2,2,0,0,0,0,2,2,2,2,2,2,2,2,2,0,0,0,0,0,2,2,2,0,0,0,0,0,2,2,2,2,2,2,2,2,2,0,0,0,2,2,2,0,0,2,2,2,2,2,2,2,0,0,2,2,2,0,0,0,0,0,2,2,2,
2,2,2,2,2,2,11,11,11,2,2,2,11,11,11,11,2,2,2,2,2,2,2,2,2,11,11,11,11,11,2,2,2,11,11,11,11,11,2,2,2,2,2,2,2,2,2,11,11,11,2,2,2,11,11,2,2,2,2,2,2,2,11,11,2,2,2,11,11,2,2,2,2,2,2,
2,2,2,2,2,2,2,2,2,2,2,2,2,2,2,2,2,2,2,2,2,2,2,2,2,2,2,2,2,2,2,2,2,2,2,2,2,2,2,2,2,2,2,2,2,2,2,2,2,2,2,2,2,2,2,2,2,2,2,2,2,2,2,2,2,2,2,2,2,2,2,2,2,2,2,
2,2,2,2,2,2,2,2,2,2,2,2,2,2,2,2,2,2,2,2,2,2,2,2,2,2,2,2,2,2,2,2,2,2,2,2,2,2,2,2,2,2,2,2,2,2,2,2,2,2,2,2,2,2,2,2,2,2,2,2,2,2,2,2,2,2,2,2,2,2,2,2,2,2,2
</data>
 </layer>
 <layer id="2" name="tiles" width="75" height="30">
  <data encoding="csv">
82,84,84,84,84,84,84,84,84,84,84,84,84,84,84,84,84,84,84,84,84,84,84,84,84,84,84,84,84,84,84,84,84,84,84,84,84,84,84,84,84,84,84,84,84,84,84,84,84,84,84,84,84,84,84,84,84,84,84,84,84,84,84,84,84,84,84,84,84,84,84,84,84,84,82,
82,84,84,84,84,84,84,84,84,84,84,84,84,84,84,84,84,84,84,84,84,84,84,84,84,84,84,84,84,84,84,84,84,84,84,84,84,84,84,84,84,84,84,84,84,84,84,84,84,84,84,84,84,84,84,84,84,84,84,84,84,84,84,84,84,84,84,84,84,84,84,84,84,84,82,
82,84,84,84,84,84,84,84,84,84,84,84,84,84,84,84,84,84,84,84,84,84,84,84,84,84,84,84,84,84,84,84,84,84,84,84,84,84,84,84,84,84,84,84,84,84,84,84,84,84,84,84,84,84,84,84,84,84,84,84,84,84,84,84,84,84,84,84,84,84,84,84,84,84,82,
82,84,85,0,0,0,0,0,0,0,0,0,0,0,0,0,0,0,0,0,0,0,0,0,0,0,0,0,0,0,0,0,0,0,0,0,0,0,0,0,0,0,0,0,0,0,0,0,0,0,0,0,0,0,0,0,0,0,0,0,0,0,0,0,0,0,0,0,0,0,0,0,83,84,82,
82,84,85,0,0,0,0,0,0,0,0,0,0,0,0,0,0,0,0,0,0,0,0,0,0,0,0,0,0,0,0,0,0,0,0,0,0,0,0,0,0,0,0,0,0,0,0,0,0,0,0,0,0,0,0,0,0,0,0,0,0,0,0,0,0,0,0,0,0,0,0,0,83,84,82,
82,84,85,0,0,0,0,0,0,0,0,0,0,0,0,0,0,0,0,0,0,0,0,0,0,0,0,0,0,0,0,0,0,0,0,0,0,0,0,0,0,0,0,0,0,0,0,0,0,98,100,0,0,0,0,0,0,0,0,0,0,0,0,0,0,0,0,0,0,0,0,0,83,84,82,
82,84,85,0,0,0,0,0,0,0,0,0,0,0,0,0,0,0,0,0,0,0,0,0,0,0,0,0,0,0,0,0,0,0,0,0,0,0,0,0,0,98,100,83,84,84,85,0,0,0,0,0,0,0,0,0,0,0,0,0,0,0,0,0,0,0,0,0,0,0,0,0,83,84,82,
82,84,85,0,0,0,0,0,0,0,0,0,0,0,0,0,0,0,0,0,0,0,0,0,0,0,0,0,0,0,0,0,0,0,0,0,0,0,0,0,0,98,100,83,84,84,85,0,0,0,0,0,98,99,100,0,0,0,0,0,0,0,0,0,0,0,0,0,0,0,0,0,83,84,82,
82,84,85,0,0,0,0,0,0,0,0,0,0,0,0,0,0,0,0,0,0,0,0,0,0,0,98,100,0,0,0,0,0,0,0,0,0,0,0,0,0,98,100,0,0,0,0,0,0,0,0,0,0,0,0,0,0,0,0,0,0,0,0,0,0,0,0,0,0,0,0,0,83,84,82,
82,84,85,0,0,0,0,0,0,0,0,0,0,0,0,0,0,0,0,0,0,0,0,0,0,0,0,0,0,0,0,0,0,0,0,0,0,0,0,0,0,98,100,0,0,0,0,0,0,0,0,0,0,0,0,98,100,106,107,107,107,108,0,0,0,0,0,0,0,0,0,0,83,84,82,
82,84,85,0,0,0,0,0,0,0,0,0,0,0,0,0,83,84,85,98,100,83,84,84,85,0,0,0,0,0,0,0,0,0,0,0,0,0,0,0,0,98,100,0,0,0,0,0,0,0,0,0,0,0,0,98,100,83,84,84,84,85,98,100,0,0,0,0,0,0,0,0,83,84,82,
82,84,85,0,0,0,0,0,0,0,0,0,0,0,0,0,83,84,85,98,100,83,84,84,85,0,0,0,98,100,0,0,0,0,0,0,0,0,0,0,0,98,100,0,0,0,0,0,0,0,0,0,0,0,0,0,0,83,84,84,84,85,0,0,0,0,0,0,0,0,0,0,83,84,82,
82,84,85,0,0,0,0,0,0,0,0,0,0,0,0,0,83,84,85,98,100,83,84,84,85,0,0,0,0,0,0,0,0,0,0,0,0,0,0,0,0,98,100,0,0,0,0,0,0,0,0,0,0,0,0,0,0,83,84,84,84,85,0,0,0,0,0,0,0,0,0,0,83,84,82,
82,84,85,0,0,0,0,0,0,0,0,0,0,0,0,0,83,84,85,98,100,83,84,84,85,0,0,0,0,0,0,0,0,0,0,0,0,0,0,0,0,98,100,0,0,0,0,0,0,0,0,0,0,0,0,0,0,83,84,84,84,85,98,100,0,0,0,0,0,0,0,0,83,84,82,
82,84,85,0,0,0,0,0,0,0,0,0,0,0,0,0,83,84,85,98,100,83,84,84,85,0,0,0,0,0,0,0,0,0,0,0,0,0,0,0,0,98,100,0,0,0,0,0,0,0,0,0,0,0,0,0,0,83,84,84,84,85,0,0,0,0,0,0,0,0,0,0,83,84,82,
82,84,85,0,0,0,0,0,0,0,0,0,0,0,0,0,83,84,85,98,100,83,84,84,82,114,115,116,0,0,0,0,0,0,0,0,0,0,0,0,0,98,100,0,0,0,0,0,0,0,0,0,0,0,0,0,0,83,84,84,84,85,0,0,0,0,0,0,0,0,0,0,83,84,82,
82,84,85,0,0,0,0,0,0,0,0,0,0,0,0,0,83,84,85,98,100,83,84,84,84,84,84,85,0,0,98,100,0,0,0,0,98,100,83,84,84,84,84,84,84,0,0,0,0,0,0,0,0,0,98,114,116,82,84,84,84,85,98,100,0,0,0,0,0,0,0,0,83,84,82,
82,84,85,0,0,0,0,0,0,0,0,0,0,0,0,0,83,84,85,98,100,83,84,84,85,0,0,0,0,0,98,100,0,0,0,0,0,0,83,84,84,84,84,84,84,84,0,0,0,0,0,0,0,0,0,83,84,84,84,84,84,85,0,0,0,0,0,0,0,0,0,0,83,84,82,
82,84,85,0,0,0,0,0,0,0,0,0,0,0,0,0,98,99,99,99,100,83,84,84,85,0,0,0,0,0,98,100,0,0,0,0,0,0,83,84,84,84,84,84,84,84,85,0,0,0,0,0,0,0,0,83,84,84,84,84,84,85,0,0,0,0,0,0,0,0,0,0,83,84,82,
82,84,85,0,0,0,0,0,0,0,0,0,0,0,0,0,98,99,99,99,100,83,84,84,85,0,0,0,0,0,98,100,0,0,0,0,98,100,83,84,84,84,84,84,84,84,85,0,0,0,0,0,0,0,0,83,84,84,84,84,84,85,0,0,0,0,0,0,0,0,0,0,83,84,82,
82,84,85,0,0,0,0,0,0,0,0,0,0,0,0,0,83,84,84,84,84,84,84,84,85,0,0,0,0,0,98,100,0,0,0,0,0,0,83,84,84,84,84,84,84,84,85,0,0,0,0,0,0,0,0,83,84,84,84,84,84,85,0,0,0,0,0,0,0,0,0,0,83,84,82,
82,84,85,0,0,0,0,0,0,0,0,0,0,0,0,0,83,84,84,84,84,84,84,84,85,0,0,0,0,0,98,100,0,0,0,0,0,0,83,84,84,84,84,84,84,84,85,0,0,0,0,0,0,0,0,83,84,84,84,84,84,85,0,0,114,115,116,0,0,0,0,0,83,84,82,
82,84,85,0,0,0,0,0,0,0,0,0,0,98,100,0,83,84,84,84,84,84,84,84,85,0,0,0,0,0,98,100,0,0,0,0,0,0,83,84,84,84,84,84,84,84,85,0,0,0,114,115,116,0,0,83,84,84,84,84,84,85,0,0,83,84,85,0,0,0,0,0,83,84,82,
82,84,85,0,0,0,0,0,0,83,84,85,0,0,0,0,83,84,84,84,84,84,84,84,85,0,0,0,0,0,0,0,0,0,0,0,114,116,82,84,84,84,84,84,84,84,85,0,0,0,83,84,85,0,0,83,84,84,84,84,84,85,0,0,83,84,85,0,0,0,0,0,83,84,82,
82,84,85,0,0,0,0,0,0,83,84,85,0,0,0,0,83,84,84,84,84,84,84,84,85,0,0,0,0,0,83,84,85,0,0,0,83,84,84,84,84,84,84,84,84,84,85,0,0,0,83,84,85,0,0,83,84,84,84,84,84,85,0,0,83,84,85,0,0,0,0,0,83,84,82,
82,84,85,0,0,0,0,98,100,83,84,85,0,0,0,0,83,84,84,84,84,84,84,84,85,0,0,0,0,0,83,84,85,0,0,0,0,0,83,84,84,84,84,84,84,84,85,0,0,0,83,84,85,0,0,83,84,84,84,84,84,85,0,0,83,84,85,0,0,0,0,0,83,84,82,
82,84,85,0,0,0,0,0,0,83,84,85,0,0,0,0,83,84,84,84,84,84,84,84,85,0,0,0,0,0,83,84,85,0,0,0,0,0,83,84,84,84,84,84,84,84,85,0,0,0,83,84,85,0,0,83,84,84,84,84,84,85,0,0,83,84,85,0,0,0,0,0,83,84,82,
82,84,84,84,84,82,122,123,124,82,84,82,122,123,123,124,82,84,84,84,84,84,84,84,82,122,123,123,123,124,82,84,82,122,123,123,123,124,82,84,84,84,84,84,84,84,82,122,123,124,82,84,82,122,124,82,84,84,84,84,84,82,122,124,82,84,82,122,124,82,84,84,84,84,82,
82,84,84,84,84,84,84,84,84,84,84,84,84,84,84,84,84,84,84,84,84,84,84,84,84,84,84,84,84,84,84,84,84,84,84,84,84,84,84,84,84,84,84,84,84,84,84,84,84,84,84,84,84,84,84,84,84,84,84,84,84,84,84,84,84,84,84,84,84,84,84,84,84,84,82,
82,84,84,84,84,84,84,84,84,84,84,84,84,84,84,84,84,84,84,84,84,84,84,84,84,84,84,84,84,84,84,84,84,84,84,84,84,84,84,84,84,84,84,84,84,84,84,84,84,84,84,84,84,84,84,84,84,84,84,84,84,84,84,84,84,84,84,84,84,84,84,84,84,84,82
</data>
 </layer>
 <objectgroup id="4" name="objects">
  <object id="1" type="Player" gid="145" x="128" y="864" width="32" height="32"/>
  <object id="2" name="Hub" type="Door" x="96" y="864" width="32" height="32">
   <properties>
    <property name="connects" value="Hub"/>
    <property name="loadX" type="int" value="96"/>
    <property name="loadY" type="int" value="480"/>
   </properties>
  </object>
  <object id="3" name="Goal" type="Goal" x="2240" y="864" width="32" height="32"/>
 </objectgroup>
 <layer id="3" name="collisions" width="75" height="30">
  <data encoding="csv">
65,65,65,65,65,65,65,65,65,65,65,65,65,65,65,65,65,65,65,65,65,65,65,65,65,65,65,65,65,65,65,65,65,65,65,65,65,65,65,65,65,65,65,65,65,65,65,65,65,65,65,65,65,65,65,65,65,65,65,65,65,65,65,65,65,65,65,65,65,65,65,65,65,65,65,
65,65,65,65,65,65,65,65,65,65,65,65,65,65,65,65,65,65,65,65,65,65,65,65,65,65,65,65,65,65,65,65,65,65,65,65,65,65,65,65,65,65,65,65,65,65,65,65,65,65,65,65,65,65,65,65,65,65,65,65,65,65,65,65,65,65,65,65,65,65,65,65,65,65,65,
65,65,65,65,65,65,65,65,65,65,65,65,65,65,65,65,65,65,65,65,65,65,65,65,65,65,65,65,65,65,65,65,65,65,65,65,65,65,65,65,65,65,65,65,65,65,65,65,65,65,65,65,65,65,65,65,65,65,65,65,65,65,65,65,65,65,65,65,65,65,65,65,65,65,65,
65,65,65,0,0,0,0,0,0,0,0,0,0,0,0,0,0,0,0,0,0,0,0,0,0,0,0,0,0,0,0,0,0,0,0,0,0,0,0,0,0,0,0,0,0,0,0,0,0,0,0,0,0,0,0,0,0,0,0,0,0,0,0,0,0,0,0,0,0,0,0,0,65,65,65,
65,65,65,0,0,0,0,0,0,0,0,0,0,0,0,0,0,0,0,0,0,0,0,0,0,0,0,0,0,0,0,0,0,0,0,0,0,0,0,0,0,0,0,0,0,0,0,0,0,0,0,0,0,0,0,0,0,0,0,0,0,0,0,0,0,0,0,0,0,0,0,0,65,65,65,
65,65,65,0,0,0,0,0,0,0,0,0,0,0,0,0,0,0,0,0,0,0,0,0,0,0,0,0,0,0,0,0,0,0,0,0,0,0,0,0,0,0,0,0,0,0,0,0,0,66,66,0,0,0,0,0,0,0,0,0,0,0,0,0,0,0,0,0,0,0,0,0,65,65,65,
65,65,65,0,0,0,0,0,0,0,0,0,0,0,0,0,0,0,0,0,0,0,0,0,0,0,0,0,0,0,0,0,0,0,0,0,0,0,0,0,0,66,66,65,65,65,65,0,0,0,0,0,0,0,0,0,0,0,0,0,0,0,0,0,0,0,0,0,0,0,0,0,65,65,65,
65,65,65,0,0,0,0,0,0,0,0,0,0,0,0,0,0,0,0,0,0,0,0,0,0,0,0,0,0,0,0,0,0,0,0,0,0,0,0,0,0,66,66,65,65,65,65,0,0,0,0,0,66,66,66,0,0,0,0,0,0,0,0,0,0,0,0,0,0,0,0,0,65,65,65,
65,65,65,0,0,0,0,0,0,0,0,0,0,0,0,0,0,0,0,0,0,0,0,0,0,0,66,66,0,0,0,0,0,0,0,0,0,0,0,0,0,66,66,0,0,0,0,0,0,0,0,0,0,0,0,0,0,0,0,0,0,0,0,0,0,0,0,0,0,0,0,0,65,65,65,
65,65,65,0,0,0,0,0,0,0,0,0,0,0,0,0,0,0,0,0,0,0,0,0,0,0,0,0,0,0,0,0,0,0,0,0,0,0,0,0,0,66,66,0,0,0,0,0,0,0,0,0,0,0,0,66,66,67,67,67,67,67,0,0,0,0,0,0,0,0,0,0,65,65,65,
65,65,65,0,0,0,0,0,0,0,0,0,0,0,0,0,65,65,65,66,66,65,65,65,65,0,0,0,0,0,0,0,0,0,0,0,0,0,0,0,0,66,66,0,0,0,0,0,0,0,0,0,0,0,0,66,66,65,65,65,65,65,66,66,0,0,0,0,0,0,0,0,65,65,65,
65,65,65,0,0,0,0,0,0,0,0,0,0,0,0,0,65,65,65,66,66,65,65,65,65,0,0,0,66,66,0,0,0,0,0,0,0,0,0,0,0,66,66,0,0,0,0,0,0,0,0,0,0,0,0,0,0,65,65,65,65,65,0,0,0,0,0,0,0,0,0,0,65,65,65,
65,65,65,0,0,0,0,0,0,0,0,0,0,0,0,0,65,65,65,66,66,65,65,65,65,0,0,0,0,0,0,0,0,0,0,0,0,0,0,0,0,66,66,0,0,0,0,0,0,0,0,0,0,0,0,0,0,65,65,65,65,65,0,0,0,0,0,0,0,0,0,0,65,65,65,
65,65,65,0,0,0,0,0,0,0,0,0,0,0,0,0,65,65,65,66,66,65,65,65,65,0,0,0,0,0,0,0,0,0,0,0,0,0,0,0,0,66,66,0,0,0,0,0,0,0,0,0,0,0,0,0,0,65,65,65,65,65,66,66,0,0,0,0,0,0,0,0,65,65,65,
65,65,65,0,0,0,0,0,0,0,0,0,0,0,0,0,65,65,65,66,66,65,65,65,65,0,0,0,0,0,0,0,0,0,0,0,0,0,0,0,0,66,66,0,0,0,0,0,0,0,0,0,0,0,0,0,0,65,65,65,65,65,0,0,0,0,0,0,0,0,0,0,65,65,65,
65,65,65,0,0,0,0,0,0,0,0,0,0,0,0,0,65,65,65,66,66,65,65,65,65,68,68,68,0,0,0,0,0,0,0,0,0,0,0,0,0,66,66,0,0,0,0,0,0,0,0,0,0,0,0,0,0,65,65,65,65,65,0,0,0,0,0,0,0,0,0,0,65,65,65,
65,65,65,0,0,0,0,0,0,0,0,0,0,0,0,0,65,65,65,66,66,65,65,65,65,65,65,65,0,0,66,66,0,0,0,0,66,66,65,65,65,65,65,65,65,65,65,0,0,0,0,0,0,0,66,68,68,65,65,65,65,65,66,66,0,0,0,0,0,0,0,0,65,65,65,
65,65,65,0,0,0,0,0,0,0,0,0,0,0,0,0,65,65,65,66,66,65,65,65,65,0,0,0,0,0,66,66,0,0,0,0,0,0,65,65,65,65,65,65,65,65,65,0,0,0,0,0,0,0,0,65,65,65,65,65,65,65,0,0,0,0,0,0,0,0,0,0,65,65,65,
65,65,65,0,0,0,0,0,0,0,0,0,0,0,0,0,66,66,66,66,66,65,65,65,65,0,0,0,0,0,66,66,0,0,0,0,0,0,65,65,65,65,65,65,65,65,65,0,0,0,0,0,0,0,0,65,65,65,65,65,65,65,0,0,0,0,0,0,0,0,0,0,65,65,65,
65,65,65,0,0,0,0,0,0,0,0,0,0,0,0,0,66,66,66,66,66,65,65,65,65,0,0,0,0,0,66,66,0,0,0,0,66,66,65,65,65,65,65,65,65,65,65,0,0,0,0,0,0,0,0,65,65,65,65,65,65,65,0,0,0,0,0,0,0,0,0,0,65,65,65,
65,65,65,0,0,0,0,0,0,0,0,0,0,0,0,0,65,65,65,65,65,65,65,65,65,0,0,0,0,0,66,66,0,0,0,0,0,0,65,65,65,65,65,65,65,65,65,0,0,0,0,0,0,0,0,65,65,65,65,65,65,65,0,0,0,0,0,0,0,0,0,0,65,65,65,
65,65,65,0,0,0,0,0,0,0,0,0,0,0,0,0,65,65,65,65,65,65,65,65,65,0,0,0,0,0,66,66,0,0,0,0,0,0,65,65,65,65,65,65,65,65,65,0,0,0,0,0,0,0,0,65,65,65,65,65,65,65,0,0,68,68,68,0,0,0,0,0,65,65,65,
65,65,65,0,0,0,0,0,0,0,0,0,0,66,66,0,65,65,65,65,65,65,65,65,65,0,0,0,0,0,66,66,0,0,0,0,0,0,65,65,65,65,65,65,65,65,65,0,0,0,68,68,68,0,0,65,65,65,65,65,65,65,0,0,65,65,65,0,0,0,0,0,65,65,65,
65,65,65,0,0,0,0,0,0,65,65,65,0,0,0,0,65,65,65,65,65,65,65,65,65,0,0,0,0,0,0,0,0,0,0,0,68,68,65,65,65,65,65,65,65,65,65,0,0,0,65,65,65,0,0,65,65,65,65,65,65,65,0,0,65,65,65,0,0,0,0,0,65,65,65,
65,65,65,0,0,0,0,0,0,65,65,65,0,0,0,0,65,65,65,65,65,65,65,65,65,0,0,0,0,0,65,65,65,0,0,0,65,65,65,65,65,65,65,65,65,65,65,0,0,0,65,65,65,0,0,65,65,65,65,65,65,65,0,0,65,65,65,0,0,0,0,0,65,65,65,
65,65,65,0,0,0,0,66,66,65,65,65,0,0,0,0,65,65,65,65,65,65,65,65,65,0,0,0,0,0,65,65,65,0,0,0,0,0,65,65,65,65,65,65,65,65,65,0,0,0,65,65,65,0,0,65,65,65,65,65,65,65,0,0,65,65,65,0,0,0,0,0,65,65,65,
65,65,65,0,0,0,0,0,0,65,65,65,0,0,0,0,65,65,65,65,65,65,65,65,65,0,0,0,0,0,65,65,65,0,0,0,0,0,65,65,65,65,65,65,65,65,65,0,0,0,65,65,65,0,0,65,65,65,65,65,65,65,0,0,65,65,65,0,0,0,0,0,65,65,65,
65,65,65,65,65,65,69,69,69,65,65,65,69,69,69,69,65,65,65,65,65,65,65,65,65,69,69,69,69,69,65,65,65,69,69,69,69,69,65,65,65,65,65,65,65,65,65,69,69,69,65,65,65,69,69,65,65,65,65,65,65,65,69,69,65,65,65,69,69,65,65,65,65,65,65,
65,65,65,65,65,65,65,65,65,65,65,65,65,65,65,65,65,65,65,65,65,65,65,65,65,65,65,65,65,65,65,65,65,65,65,65,65,65,65,65,65,65,65,65,65,65,65,65,65,65,65,65,65,65,65,65,65,65,65,65,65,65,65,65,65,65,65,65,65,65,65,65,65,65,65,
65,65,65,65,65,65,65,65,65,65,65,65,65,65,65,65,65,65,65,65,65,65,65,65,65,65,65,65,65,65,65,65,65,65,65,65,65,65,65,65,65,65,65,65,65,65,65,65,65,65,65,65,65,65,65,65,65,65,65,65,65,65,65,65,65,65,65,65,65,65,65,65,65,65,65
</data>
 </layer>
</map>
