<?xml version="1.0" encoding="UTF-8"?>
<map version="1.10" tiledversion="1.12.1" orientation="orthogonal" renderorder="right-down" width="30" height="120" tilewidth="32" tileheight="32" infinite="0" backgroundcolor="#ffffff" nextlayerid="7" nextobjectid="153">
 <editorsettings>
  <export target="../../src/PolyGone/Maps/Level8.json" format="json"/>
 </editorsettings>
 <tileset firstgid="1" source="../TiledSets/CollisionTiles.tsx"/>
 <tileset firstgid="17" source="../TiledSets/TextureSheet.tsx"/>
 <tileset firstgid="81" source="../TiledSets/EnemySheet.tsx"/>
 <tileset firstgid="97" source="../TiledSets/PlayerSheet.tsx"/>
 <tileset firstgid="101" source="../TiledSets/Proto.tsx"/>
 <imagelayer id="5" name="background" visible="0" parallaxx="0.8" parallaxy="0.9" repeatx="1" repeaty="1">
  <image source="../../src/PolyGone/Content/Textures/Backgrounds/CastleBackground.png" width="256" height="256"/>
 </imagelayer>
 <layer id="6" name="prototype" width="30" height="120">
  <data encoding="csv">
102,102,102,102,102,102,102,102,102,102,102,102,102,102,102,102,102,102,102,102,102,102,102,102,102,102,102,102,102,102,
102,102,102,102,102,102,102,102,102,102,102,102,102,102,102,102,102,102,102,102,102,102,102,102,102,102,102,102,102,102,
102,102,102,102,102,102,102,102,102,102,102,102,102,102,102,102,102,102,102,102,102,102,102,102,102,102,102,102,102,102,
102,102,0,0,0,102,102,0,0,0,0,0,0,0,0,0,0,0,0,0,0,0,0,0,0,0,0,0,102,102,
102,102,0,0,0,102,102,0,0,0,0,0,0,0,0,0,0,0,0,0,0,0,0,0,0,0,0,102,102,102,
102,102,0,0,0,102,102,0,0,103,102,102,102,102,102,102,102,102,102,102,102,102,102,102,102,102,102,102,102,102,
102,102,0,0,0,102,102,0,0,102,102,102,102,102,102,102,102,102,102,102,102,102,102,102,102,102,102,102,102,102,
102,102,0,0,0,102,102,0,0,0,0,0,0,0,0,0,0,0,0,0,0,0,0,0,0,0,0,102,102,102,
102,102,0,0,0,102,102,0,0,0,0,0,0,0,0,0,0,0,0,0,0,0,0,0,0,0,0,102,102,102,
102,102,0,0,0,102,102,102,102,102,102,102,102,102,102,102,102,102,102,102,102,102,102,102,103,0,0,102,102,102,
102,102,0,0,0,102,102,102,102,102,102,102,102,102,102,102,102,102,102,102,102,102,102,102,102,0,0,102,102,102,
102,102,0,0,0,102,102,0,0,0,0,0,0,0,0,0,0,0,0,0,0,0,0,0,0,0,0,102,102,102,
102,102,0,0,0,102,102,0,0,0,0,0,0,0,0,0,0,0,0,0,0,0,0,0,0,0,0,102,102,102,
102,102,0,0,0,102,102,0,0,103,109,109,109,109,109,109,109,109,109,109,109,109,109,109,109,109,109,102,102,102,
102,102,0,0,0,102,102,0,0,102,102,102,102,102,102,102,102,102,102,102,102,102,102,102,102,102,102,102,102,102,
102,102,0,0,0,102,102,0,0,0,0,0,0,0,0,0,0,0,0,0,0,0,0,0,0,0,0,102,102,102,
102,102,0,0,0,102,102,0,0,0,0,0,0,0,0,0,0,0,0,0,0,0,0,0,0,0,0,102,102,102,
102,102,0,0,0,102,102,109,109,109,109,109,109,109,109,109,109,109,109,109,109,109,109,109,103,0,0,102,102,102,
102,102,0,0,0,102,102,102,102,102,102,102,102,102,102,102,102,102,102,102,102,102,102,102,102,0,0,102,102,102,
102,102,0,0,0,102,102,0,0,0,0,0,0,0,0,0,0,0,0,0,0,0,0,0,0,0,0,102,102,102,
102,102,0,0,0,102,102,0,0,0,0,0,0,0,0,0,0,0,0,0,0,0,0,0,0,0,0,102,102,102,
102,102,0,0,0,102,102,0,0,103,109,109,109,109,109,109,109,109,109,109,109,109,109,109,109,109,109,102,102,102,
102,102,0,0,0,102,102,0,0,102,102,102,102,102,102,102,102,102,102,102,102,102,102,102,102,102,102,102,102,102,
102,102,0,0,0,102,102,0,0,0,0,0,0,0,0,0,0,0,0,0,0,0,0,0,0,0,0,102,102,102,
102,102,0,0,0,102,102,0,0,0,0,0,0,0,0,0,0,0,0,0,0,0,0,0,0,0,0,102,102,102,
102,102,0,0,0,102,102,109,109,109,109,109,109,109,109,109,109,109,109,109,109,109,109,109,103,0,0,102,102,102,
102,102,0,0,0,102,102,102,102,102,102,102,102,102,102,102,102,102,102,102,102,102,102,102,102,0,0,102,102,102,
102,102,0,0,0,102,102,0,0,0,0,0,0,0,0,0,0,0,0,0,0,0,0,0,0,0,0,102,102,102,
102,102,0,0,0,102,102,0,0,0,0,0,0,0,0,0,0,0,0,0,0,0,0,0,0,0,0,102,102,102,
102,102,0,0,0,102,102,0,0,103,109,109,109,109,109,109,109,109,109,109,109,109,109,109,109,109,109,102,102,102,
102,102,0,0,0,102,102,0,0,102,102,102,102,102,102,102,102,102,102,102,102,102,102,102,102,102,102,102,102,102,
102,102,0,0,0,102,102,0,0,0,0,0,0,0,0,0,0,0,0,0,0,0,0,0,0,0,0,102,102,102,
102,102,0,0,0,102,102,0,0,0,0,0,0,0,0,0,0,0,0,0,0,0,0,0,0,0,0,102,102,102,
102,102,0,0,0,102,102,109,109,109,109,109,109,109,109,109,109,109,109,109,109,109,109,109,103,0,0,102,102,102,
102,102,0,0,0,102,102,102,102,102,102,102,102,102,102,102,102,102,102,102,102,102,102,102,102,0,0,102,102,102,
102,102,0,0,0,102,102,0,0,0,0,0,0,0,0,0,0,0,0,0,0,0,0,0,0,0,0,102,102,102,
102,102,0,0,0,102,102,0,0,0,0,0,0,0,0,0,0,0,0,0,0,0,0,0,0,0,0,102,102,102,
102,102,0,0,0,102,102,0,0,103,109,109,109,109,109,109,109,109,109,109,109,109,109,109,109,109,109,102,102,102,
102,102,0,0,0,102,102,0,0,102,102,102,102,102,102,102,102,102,102,102,102,102,102,102,102,102,102,102,102,102,
102,102,0,0,0,102,102,0,0,0,0,0,0,0,0,0,0,0,0,0,0,0,0,0,0,0,0,102,102,102,
102,102,0,0,0,102,102,0,0,0,0,0,0,0,0,0,0,0,0,0,0,0,0,0,0,0,0,102,102,102,
102,102,0,0,0,102,102,109,109,109,109,109,109,109,109,109,109,109,109,109,109,109,109,109,103,0,0,102,102,102,
102,102,0,0,0,102,102,102,102,102,102,102,102,102,102,102,102,102,102,102,102,102,102,102,102,0,0,102,102,102,
102,102,0,0,0,102,102,0,0,0,0,0,0,0,0,0,0,0,0,0,0,0,0,0,0,0,0,102,102,102,
102,102,0,0,0,102,102,0,0,0,0,0,0,0,0,0,0,0,0,0,0,0,0,0,0,0,0,102,102,102,
102,102,0,0,0,102,102,0,0,103,109,109,109,109,109,109,109,109,109,109,109,109,109,109,109,109,109,102,102,102,
102,102,0,0,0,102,102,0,0,102,102,102,102,102,102,102,102,102,102,102,102,102,102,102,102,102,102,102,102,102,
102,102,0,0,0,102,102,0,0,0,0,0,0,0,0,0,0,0,0,0,0,0,0,0,0,0,0,102,102,102,
102,102,0,0,0,102,102,0,0,0,0,0,0,0,0,0,0,0,0,0,0,0,0,0,0,0,0,102,102,102,
102,102,0,0,0,102,102,109,109,109,109,109,109,109,109,109,109,109,109,109,109,109,109,109,103,0,0,102,102,102,
102,102,0,0,0,102,102,102,102,102,102,102,102,102,102,102,102,102,102,102,102,102,102,102,102,0,0,102,102,102,
102,102,0,0,0,102,102,0,0,0,0,0,0,0,0,0,0,0,0,0,0,0,0,0,0,0,0,102,102,102,
102,102,0,0,0,102,102,0,0,0,0,0,0,0,0,0,0,0,0,0,0,0,0,0,0,0,0,102,102,102,
102,102,0,0,0,102,102,0,0,103,109,109,109,109,109,109,109,109,109,109,109,109,109,109,109,109,109,102,102,102,
102,102,0,0,0,102,102,0,0,102,102,102,102,102,102,102,102,102,102,102,102,102,102,102,102,102,102,102,102,102,
102,102,0,0,0,102,102,0,0,0,0,0,0,0,0,0,0,0,0,0,0,0,0,0,0,0,0,102,102,102,
102,102,0,0,0,102,102,0,0,0,0,0,0,0,0,0,0,0,0,0,0,0,0,0,0,0,0,102,102,102,
102,102,0,0,0,102,102,109,109,109,109,109,109,109,109,109,109,109,109,109,109,109,109,109,103,0,0,102,102,102,
102,102,0,0,0,102,102,102,102,102,102,102,102,102,102,102,102,102,102,102,102,102,102,102,102,0,0,102,102,102,
102,102,0,0,0,102,102,0,0,0,0,0,0,0,0,0,0,0,0,0,0,0,0,0,0,0,0,102,102,102,
102,102,0,0,0,102,102,0,0,0,0,0,0,0,0,0,0,0,0,0,0,0,0,0,0,0,0,102,102,102,
102,102,0,0,0,102,102,0,0,103,109,109,109,109,109,109,109,109,109,109,109,109,109,109,109,109,109,102,102,102,
102,102,0,0,0,102,102,0,0,102,102,102,102,102,102,102,102,102,102,102,102,102,102,102,102,102,102,102,102,102,
102,102,0,0,0,102,102,0,0,0,0,0,0,0,0,0,0,0,0,0,0,0,0,0,0,0,0,102,102,102,
102,102,0,0,0,102,102,0,0,0,0,0,0,0,0,0,0,0,0,0,0,0,0,0,0,0,0,102,102,102,
102,102,0,0,0,102,102,109,109,109,109,109,109,109,109,109,109,109,109,109,109,109,109,109,103,0,0,102,102,102,
102,102,0,0,0,102,102,102,102,102,102,102,102,102,102,102,102,102,102,102,102,102,102,102,102,0,0,102,102,102,
102,102,0,0,0,102,102,0,0,0,0,0,0,0,0,0,0,0,0,0,0,0,0,0,0,0,0,102,102,102,
102,102,0,0,0,102,102,0,0,0,0,0,0,0,0,0,0,0,0,0,0,0,0,0,0,0,0,102,102,102,
102,102,0,0,0,102,102,0,0,103,109,109,109,109,109,109,109,109,109,109,109,109,109,109,109,109,109,102,102,102,
102,102,0,0,0,102,102,0,0,102,102,102,102,102,102,102,102,102,102,102,102,102,102,102,102,102,102,102,102,102,
102,102,0,0,0,102,102,0,0,0,0,0,0,0,0,0,0,0,0,0,0,0,0,0,0,0,0,102,102,102,
102,102,0,0,0,102,102,0,0,0,0,0,0,0,0,0,0,0,0,0,0,0,0,0,0,0,0,102,102,102,
102,102,0,0,0,102,102,109,109,109,109,109,109,109,109,109,109,109,109,109,109,109,109,109,103,0,0,102,102,102,
102,102,0,0,0,102,102,102,102,102,102,102,102,102,102,102,102,102,102,102,102,102,102,102,102,0,0,102,102,102,
102,102,0,0,0,102,102,0,0,0,0,0,0,0,0,0,0,0,0,0,0,0,0,0,0,0,0,102,102,102,
102,102,0,0,0,102,102,0,0,0,0,0,0,0,0,0,0,0,0,0,0,0,0,0,0,0,0,102,102,102,
102,102,0,0,0,102,102,0,0,103,109,109,109,109,109,109,109,109,109,109,109,109,109,109,109,109,109,102,102,102,
102,102,0,0,0,102,102,0,0,102,102,102,102,102,102,102,102,102,102,102,102,102,102,102,102,102,102,102,102,102,
102,102,0,0,0,102,102,0,0,0,0,0,0,0,0,0,0,0,0,0,0,0,0,0,0,0,0,102,102,102,
102,102,0,0,0,102,102,0,0,0,0,0,0,0,0,0,0,0,0,0,0,0,0,0,0,0,0,102,102,102,
102,102,0,0,0,102,102,109,109,109,109,109,109,109,109,109,109,109,109,109,109,109,109,109,103,0,0,102,102,102,
102,102,0,0,0,102,102,102,102,102,102,102,102,102,102,102,102,102,102,102,102,102,102,102,102,0,0,102,102,102,
102,102,0,0,0,102,102,0,0,0,0,0,0,0,0,0,0,0,0,0,0,0,0,0,0,0,0,102,102,102,
102,102,0,0,0,102,102,0,0,0,0,0,0,0,0,0,0,0,0,0,0,0,0,0,0,0,0,102,102,102,
102,102,0,0,0,102,102,0,0,103,109,109,109,109,109,109,109,109,109,109,109,109,109,109,109,109,109,102,102,102,
102,102,0,0,0,102,102,0,0,102,102,102,102,102,102,102,102,102,102,102,102,102,102,102,102,102,102,102,102,102,
102,102,0,0,0,102,102,0,0,0,0,0,0,0,0,0,0,0,0,0,0,0,0,0,0,0,0,102,102,102,
102,102,0,0,0,102,102,0,0,0,0,0,0,0,0,0,0,0,0,0,0,0,0,0,0,0,0,102,102,102,
102,102,0,0,0,102,102,109,109,109,109,109,109,109,109,109,109,109,109,109,109,109,109,109,103,0,0,102,102,102,
102,102,0,0,0,102,102,102,102,102,102,102,102,102,102,102,102,102,102,102,102,102,102,102,102,0,0,102,102,102,
102,102,0,0,0,102,102,0,0,0,0,0,0,0,0,0,0,0,0,0,0,0,0,0,0,0,0,102,102,102,
102,102,0,0,0,102,102,0,0,0,0,0,0,0,0,0,0,0,0,0,0,0,0,0,0,0,0,102,102,102,
102,102,0,0,0,102,102,0,0,103,109,109,109,109,109,109,109,109,109,109,109,109,109,109,109,109,109,102,102,102,
102,102,0,0,0,102,102,0,0,102,102,102,102,102,102,102,102,102,102,102,102,102,102,102,102,102,102,102,102,102,
102,102,0,0,0,102,102,0,0,0,0,0,0,0,0,0,0,0,0,0,0,0,0,0,0,0,0,102,102,102,
102,102,0,0,0,102,102,0,0,0,0,0,0,0,0,0,0,0,0,0,0,0,0,0,0,0,0,102,102,102,
102,102,0,0,0,102,102,109,109,109,109,109,109,109,109,109,109,109,109,109,109,109,109,109,103,0,0,102,102,102,
102,102,0,0,0,102,102,102,102,102,102,102,102,102,102,102,102,102,102,102,102,102,102,102,102,0,0,102,102,102,
102,102,0,0,0,102,102,0,0,0,0,0,0,0,0,0,0,0,0,0,0,0,0,0,0,0,0,102,102,102,
102,102,0,0,0,102,102,0,0,0,0,0,0,0,0,0,0,0,0,0,0,0,0,0,0,0,0,102,102,102,
102,102,0,0,0,102,102,0,0,103,109,109,109,109,109,109,109,109,109,109,109,109,109,109,109,109,109,102,102,102,
102,102,0,0,0,102,102,0,0,102,102,102,102,102,102,102,102,102,102,102,102,102,102,102,102,102,102,102,102,102,
102,102,0,0,0,102,102,0,0,0,0,0,0,0,0,0,0,0,0,0,0,0,0,0,0,0,0,102,102,102,
102,102,0,0,0,102,102,0,0,0,0,0,0,0,0,0,0,0,0,0,0,0,0,0,0,0,0,102,102,102,
102,102,0,0,0,102,102,109,109,109,109,109,109,109,109,109,109,109,109,109,109,109,109,109,103,0,0,102,102,102,
102,102,0,0,0,102,102,102,102,102,102,102,102,102,102,102,102,102,102,102,102,102,102,102,102,0,0,102,102,102,
102,102,0,0,0,102,102,0,0,0,0,0,0,0,0,0,0,0,0,0,0,0,0,0,0,0,0,102,102,102,
102,102,0,0,0,102,102,0,0,0,0,0,0,0,0,0,0,0,0,0,0,0,0,0,0,0,0,102,102,102,
102,102,0,0,0,102,102,0,0,103,109,109,109,109,109,109,109,109,109,109,109,109,109,109,109,109,109,102,102,102,
102,102,0,0,0,102,102,0,0,102,102,102,102,102,102,102,102,102,102,102,102,102,102,102,102,102,102,102,102,102,
102,102,0,0,0,102,102,0,0,0,0,0,0,0,0,0,0,0,0,0,0,0,0,0,0,0,0,102,102,102,
102,102,0,0,0,102,102,0,0,0,0,0,0,0,0,0,0,0,0,0,0,0,0,0,0,0,0,102,102,102,
102,102,0,0,0,102,102,109,109,109,109,109,109,109,109,109,109,109,109,109,109,109,109,109,103,0,0,102,102,102,
102,102,0,0,0,102,102,102,102,102,102,102,102,102,102,102,102,102,102,102,102,102,102,102,102,0,0,102,102,102,
102,102,0,0,0,0,0,0,0,0,0,0,0,0,0,0,0,0,0,0,0,0,0,0,0,0,0,102,102,102,
102,102,0,0,0,0,0,0,0,0,0,0,0,0,0,0,0,0,0,0,0,0,0,0,0,0,0,102,102,102,
102,102,102,102,102,102,102,102,102,102,102,102,102,102,102,102,102,102,102,102,102,102,102,102,102,102,102,102,102,102,
102,102,102,102,102,102,102,102,102,102,102,102,102,102,102,102,102,102,102,102,102,102,102,102,102,102,102,102,102,102,
102,102,102,102,102,102,102,102,102,102,102,102,102,102,102,102,102,102,102,102,102,102,102,102,102,102,102,102,102,102
</data>
 </layer>
 <layer id="1" name="tiles" width="30" height="120" opacity="0.9">
  <data encoding="csv">
18,20,20,20,20,20,20,20,20,20,20,20,20,20,20,20,20,20,20,20,20,20,20,20,20,20,20,20,20,18,
18,20,20,20,20,20,20,20,20,20,20,20,20,20,20,20,20,20,20,20,20,20,20,20,20,20,20,20,20,18,
18,20,20,20,20,20,20,20,20,20,20,20,20,20,20,20,20,20,20,20,20,20,20,20,20,20,20,20,20,18,
18,20,0,0,0,19,21,0,0,0,0,0,0,0,0,0,0,0,0,0,0,0,0,0,0,0,0,0,19,18,
18,20,0,0,0,19,21,0,0,0,0,0,0,0,0,0,0,0,0,0,0,0,0,0,0,0,0,19,20,18,
18,20,0,0,0,19,21,0,0,34,19,20,20,20,20,20,20,20,20,20,20,20,20,20,20,20,20,20,20,18,
18,20,0,0,0,19,21,0,0,19,20,20,20,20,20,20,20,20,20,20,20,20,20,20,20,20,20,20,20,18,
18,20,0,0,0,19,21,0,0,0,0,0,0,0,0,0,0,0,0,0,0,0,0,0,0,0,0,19,20,18,
18,20,0,0,0,19,21,0,0,0,0,0,0,0,0,0,0,0,0,0,0,0,0,0,0,0,0,19,20,18,
18,20,0,0,0,19,20,20,20,20,20,20,20,20,20,20,20,20,20,20,20,20,20,21,36,0,0,19,20,18,
18,20,0,0,0,19,20,20,20,20,20,20,20,20,20,20,20,20,20,20,20,20,20,20,21,0,0,19,20,18,
18,20,0,0,0,19,21,0,0,0,0,0,0,0,0,0,0,0,0,0,0,0,0,0,0,0,0,19,20,18,
18,20,0,0,0,19,21,0,0,0,0,0,0,0,0,0,0,0,0,0,0,0,0,0,0,0,0,19,20,18,
18,20,0,0,0,19,21,0,0,34,42,43,43,43,43,43,43,43,43,43,43,43,43,43,43,43,44,18,20,18,
18,20,0,0,0,19,21,0,0,19,20,20,20,20,20,20,20,20,20,20,20,20,20,20,20,20,20,20,20,18,
18,20,0,0,0,19,21,0,0,0,0,0,0,0,0,0,0,0,0,0,0,0,0,0,0,0,0,19,20,18,
18,20,0,0,0,19,21,0,0,0,0,0,0,0,0,0,0,0,0,0,0,0,0,0,0,0,0,19,20,18,
18,20,0,0,0,19,18,42,43,43,43,43,43,43,43,43,43,43,43,43,43,43,43,44,36,0,0,19,20,18,
18,20,0,0,0,19,20,20,20,20,20,20,20,20,20,20,20,20,20,20,20,20,20,20,21,0,0,19,20,18,
18,20,0,0,0,19,21,0,0,0,0,0,0,0,0,0,0,0,0,0,0,0,0,0,0,0,0,19,20,18,
18,20,0,0,0,19,21,0,0,0,0,0,0,0,0,0,0,0,0,0,0,0,0,0,0,0,0,19,20,18,
18,20,0,0,0,19,21,0,0,34,42,43,43,43,43,43,43,43,43,43,43,43,43,43,43,43,44,18,20,18,
18,20,0,0,0,19,21,0,0,19,20,20,20,20,20,20,20,20,20,20,20,20,20,20,20,20,20,20,20,18,
18,20,0,0,0,19,21,0,0,0,0,0,0,0,0,0,0,0,0,0,0,0,0,0,0,0,0,19,20,18,
18,20,0,0,0,19,21,0,0,0,0,0,0,0,0,0,0,0,0,0,0,0,0,0,0,0,0,19,20,18,
18,20,0,0,0,19,18,42,43,43,43,43,43,43,43,43,43,43,43,43,43,43,43,44,36,0,0,19,20,18,
18,20,0,0,0,19,20,20,20,20,20,20,20,20,20,20,20,20,20,20,20,20,20,20,21,0,0,19,20,18,
18,20,0,0,0,19,21,0,0,0,0,0,0,0,0,0,0,0,0,0,0,0,0,0,0,0,0,19,20,18,
18,20,0,0,0,19,21,0,0,0,0,0,0,0,0,0,0,0,0,0,0,0,0,0,0,0,0,19,20,18,
18,20,0,0,0,19,21,0,0,34,42,43,43,43,43,43,43,43,43,43,43,43,43,43,43,43,44,18,20,18,
18,20,0,0,0,19,21,0,0,19,20,20,20,20,20,20,20,20,20,20,20,20,20,20,20,20,20,20,20,18,
18,20,0,0,0,19,21,0,0,0,0,0,0,0,0,0,0,0,0,0,0,0,0,0,0,0,0,19,20,18,
18,20,0,0,0,19,21,0,0,0,0,0,0,0,0,0,0,0,0,0,0,0,0,0,0,0,0,19,20,18,
18,20,0,0,0,19,18,42,43,43,43,43,43,43,43,43,43,43,43,43,43,43,43,44,36,0,0,19,20,18,
18,20,0,0,0,19,20,20,20,20,20,20,20,20,20,20,20,20,20,20,20,20,20,20,21,0,0,19,20,18,
18,20,0,0,0,19,21,0,0,0,0,0,0,0,0,0,0,0,0,0,0,0,0,0,0,0,0,19,20,18,
18,20,0,0,0,19,21,0,0,0,0,0,0,0,0,0,0,0,0,0,0,0,0,0,0,0,0,19,20,18,
18,20,0,0,0,19,21,0,0,34,42,43,43,43,43,43,43,43,43,43,43,43,43,43,43,43,44,18,20,18,
18,20,0,0,0,19,21,0,0,19,20,20,20,20,20,20,20,20,20,20,20,20,20,20,20,20,20,20,20,18,
18,20,0,0,0,19,21,0,0,0,0,0,0,0,0,0,0,0,0,0,0,0,0,0,0,0,0,19,20,18,
18,20,0,0,0,19,21,0,0,0,0,0,0,0,0,0,0,0,0,0,0,0,0,0,0,0,0,19,20,18,
18,20,0,0,0,19,18,42,43,43,43,43,43,43,43,43,43,43,43,43,43,43,43,44,36,0,0,19,20,18,
18,20,0,0,0,19,20,20,20,20,20,20,20,20,20,20,20,20,20,20,20,20,20,20,21,0,0,19,20,18,
18,20,0,0,0,19,21,0,0,0,0,0,0,0,0,0,0,0,0,0,0,0,0,0,0,0,0,19,20,18,
18,20,0,0,0,19,21,0,0,0,0,0,0,0,0,0,0,0,0,0,0,0,0,0,0,0,0,19,20,18,
18,20,0,0,0,19,21,0,0,34,42,43,43,43,43,43,43,43,43,43,43,43,43,43,43,43,44,18,20,18,
18,20,0,0,0,19,21,0,0,19,20,20,20,20,20,20,20,20,20,20,20,20,20,20,20,20,20,20,20,18,
18,20,0,0,0,19,21,0,0,0,0,0,0,0,0,0,0,0,0,0,0,0,0,0,0,0,0,19,20,18,
18,20,0,0,0,19,21,0,0,0,0,0,0,0,0,0,0,0,0,0,0,0,0,0,0,0,0,19,20,18,
18,20,0,0,0,19,18,42,43,43,43,43,43,43,43,43,43,43,43,43,43,43,43,44,36,0,0,19,20,18,
18,20,0,0,0,19,20,20,20,20,20,20,20,20,20,20,20,20,20,20,20,20,20,20,21,0,0,19,20,18,
18,20,0,0,0,19,21,0,0,0,0,0,0,0,0,0,0,0,0,0,0,0,0,0,0,0,0,19,20,18,
18,20,0,0,0,19,21,0,0,0,0,0,0,0,0,0,0,0,0,0,0,0,0,0,0,0,0,19,20,18,
18,20,0,0,0,19,21,0,0,34,42,43,43,43,43,43,43,43,43,43,43,43,43,43,43,43,44,18,20,18,
18,20,0,0,0,19,21,0,0,19,20,20,20,20,20,20,20,20,20,20,20,20,20,20,20,20,20,20,20,18,
18,20,0,0,0,19,21,0,0,0,0,0,0,0,0,0,0,0,0,0,0,0,0,0,0,0,0,19,20,18,
18,20,0,0,0,19,21,0,0,0,0,0,0,0,0,0,0,0,0,0,0,0,0,0,0,0,0,19,20,18,
18,20,0,0,0,19,18,42,43,43,43,43,43,43,43,43,43,43,43,43,43,43,43,44,36,0,0,19,20,18,
18,20,0,0,0,19,20,20,20,20,20,20,20,20,20,20,20,20,20,20,20,20,20,20,21,0,0,19,20,18,
18,20,0,0,0,19,21,0,0,0,0,0,0,0,0,0,0,0,0,0,0,0,0,0,0,0,0,19,20,18,
18,20,0,0,0,19,21,0,0,0,0,0,0,0,0,0,0,0,0,0,0,0,0,0,0,0,0,19,20,18,
18,20,0,0,0,19,21,0,0,34,42,43,43,43,43,43,43,43,43,43,43,43,43,43,43,43,44,18,20,18,
18,20,0,0,0,19,21,0,0,19,20,20,20,20,20,20,20,20,20,20,20,20,20,20,20,20,20,20,20,18,
18,20,0,0,0,19,21,0,0,0,0,0,0,0,0,0,0,0,0,0,0,0,0,0,0,0,0,19,20,18,
18,20,0,0,0,19,21,0,0,0,0,0,0,0,0,0,0,0,0,0,0,0,0,0,0,0,0,19,20,18,
18,20,0,0,0,19,18,42,43,43,43,43,43,43,43,43,43,43,43,43,43,43,43,44,36,0,0,19,20,18,
18,20,0,0,0,19,20,20,20,20,20,20,20,20,20,20,20,20,20,20,20,20,20,20,21,0,0,19,20,18,
18,20,0,0,0,19,21,0,0,0,0,0,0,0,0,0,0,0,0,0,0,0,0,0,0,0,0,19,20,18,
18,20,0,0,0,19,21,0,0,0,0,0,0,0,0,0,0,0,0,0,0,0,0,0,0,0,0,19,20,18,
18,20,0,0,0,19,21,0,0,34,42,43,43,43,43,43,43,43,43,43,43,43,43,43,43,43,44,18,20,18,
18,20,0,0,0,19,21,0,0,19,20,20,20,20,20,20,20,20,20,20,20,20,20,20,20,20,20,20,20,18,
18,20,0,0,0,19,21,0,0,0,0,0,0,0,0,0,0,0,0,0,0,0,0,0,0,0,0,19,20,18,
18,20,0,0,0,19,21,0,0,0,0,0,0,0,0,0,0,0,0,0,0,0,0,0,0,0,0,19,20,18,
18,20,0,0,0,19,18,42,43,43,43,43,43,43,43,43,43,43,43,43,43,43,43,44,36,0,0,19,20,18,
18,20,0,0,0,19,20,20,20,20,20,20,20,20,20,20,20,20,20,20,20,20,20,20,21,0,0,19,20,18,
18,20,0,0,0,19,21,0,0,0,0,0,0,0,0,0,0,0,0,0,0,0,0,0,0,0,0,19,20,18,
18,20,0,0,0,19,21,0,0,0,0,0,0,0,0,0,0,0,0,0,0,0,0,0,0,0,0,19,20,18,
18,20,0,0,0,19,21,0,0,34,42,43,43,43,43,43,43,43,43,43,43,43,43,43,43,43,44,18,20,18,
18,20,0,0,0,19,21,0,0,19,20,20,20,20,20,20,20,20,20,20,20,20,20,20,20,20,20,20,20,18,
18,20,0,0,0,19,21,0,0,0,0,0,0,0,0,0,0,0,0,0,0,0,0,0,0,0,0,19,20,18,
18,20,0,0,0,19,21,0,0,0,0,0,0,0,0,0,0,0,0,0,0,0,0,0,0,0,0,19,20,18,
18,20,0,0,0,19,18,42,43,43,43,43,43,43,43,43,43,43,43,43,43,43,43,44,36,0,0,19,20,18,
18,20,0,0,0,19,20,20,20,20,20,20,20,20,20,20,20,20,20,20,20,20,20,20,21,0,0,19,20,18,
18,20,0,0,0,19,21,0,0,0,0,0,0,0,0,0,0,0,0,0,0,0,0,0,0,0,0,19,20,18,
18,20,0,0,0,19,21,0,0,0,0,0,0,0,0,0,0,0,0,0,0,0,0,0,0,0,0,19,20,18,
18,20,0,0,0,19,21,0,0,34,42,43,43,43,43,43,43,43,43,43,43,43,43,43,43,43,44,18,20,18,
18,20,0,0,0,19,21,0,0,19,20,20,20,20,20,20,20,20,20,20,20,20,20,20,20,20,20,20,20,18,
18,20,0,0,0,19,21,0,0,0,0,0,0,0,0,0,0,0,0,0,0,0,0,0,0,0,0,19,20,18,
18,20,0,0,0,19,21,0,0,0,0,0,0,0,0,0,0,0,0,0,0,0,0,0,0,0,0,19,20,18,
18,20,0,0,0,19,18,42,43,43,43,43,43,43,43,43,43,43,43,43,43,43,43,44,36,0,0,19,20,18,
18,20,0,0,0,19,20,20,20,20,20,20,20,20,20,20,20,20,20,20,20,20,20,20,21,0,0,19,20,18,
18,20,0,0,0,19,21,0,0,0,0,0,0,0,0,0,0,0,0,0,0,0,0,0,0,0,0,19,20,18,
18,20,0,0,0,19,21,0,0,0,0,0,0,0,0,0,0,0,0,0,0,0,0,0,0,0,0,19,20,18,
18,20,0,0,0,19,21,0,0,34,42,43,43,43,43,43,43,43,43,43,43,43,43,43,43,43,44,18,20,18,
18,20,0,0,0,19,21,0,0,19,20,20,20,20,20,20,20,20,20,20,20,20,20,20,20,20,20,20,20,18,
18,20,0,0,0,19,21,0,0,0,0,0,0,0,0,0,0,0,0,0,0,0,0,0,0,0,0,19,20,18,
18,20,0,0,0,19,21,0,0,0,0,0,0,0,0,0,0,0,0,0,0,0,0,0,0,0,0,19,20,18,
18,20,0,0,0,19,18,42,43,43,43,43,43,43,43,43,43,43,43,43,43,43,43,44,36,0,0,19,20,18,
18,20,0,0,0,19,20,20,20,20,20,20,20,20,20,20,20,20,20,20,20,20,20,20,21,0,0,19,20,18,
18,20,0,0,0,19,21,0,0,0,0,0,0,0,0,0,0,0,0,0,0,0,0,0,0,0,0,19,20,18,
18,20,0,0,0,19,21,0,0,0,0,0,0,0,0,0,0,0,0,0,0,0,0,0,0,0,0,19,20,18,
18,20,0,0,0,19,21,0,0,34,42,43,43,43,43,43,43,43,43,43,43,43,43,43,43,43,44,18,20,18,
18,20,0,0,0,19,21,0,0,19,20,20,20,20,20,20,20,20,20,20,20,20,20,20,20,20,20,20,20,18,
18,20,0,0,0,19,21,0,0,0,0,0,0,0,0,0,0,0,0,0,0,0,0,0,0,0,0,19,20,18,
18,20,0,0,0,19,21,0,0,0,0,0,0,0,0,0,0,0,0,0,0,0,0,0,0,0,0,19,20,18,
18,20,0,0,0,19,18,42,43,43,43,43,43,43,43,43,43,43,43,43,43,43,43,44,36,0,0,19,20,18,
18,20,0,0,0,19,20,20,20,20,20,20,20,20,20,20,20,20,20,20,20,20,20,20,21,0,0,19,20,18,
18,20,0,0,0,19,21,0,0,0,0,0,0,0,0,0,0,0,0,0,0,0,0,0,0,0,0,19,20,18,
18,20,0,0,0,19,21,0,0,0,0,0,0,0,0,0,0,0,0,0,0,0,0,0,0,0,0,19,20,18,
18,20,0,0,0,19,21,0,0,34,42,43,43,43,43,43,43,43,43,43,43,43,43,43,43,43,44,18,20,18,
18,20,0,0,0,19,21,0,0,19,20,20,20,20,20,20,20,20,20,20,20,20,20,20,20,20,20,20,20,18,
18,20,0,0,0,19,21,0,0,0,0,0,0,0,0,0,0,0,0,0,0,0,0,0,0,0,0,19,20,18,
18,20,0,0,0,19,21,0,0,0,0,0,0,0,0,0,0,0,0,0,0,0,0,0,0,0,0,19,20,18,
18,20,0,0,0,19,18,42,43,43,43,43,43,43,43,43,43,43,43,43,43,43,43,44,36,0,0,19,20,18,
18,20,0,0,0,19,20,20,20,20,20,20,20,20,20,20,20,20,20,20,20,20,20,20,21,0,0,19,20,18,
18,20,0,0,0,0,0,0,0,0,0,0,0,0,0,0,0,0,0,0,0,0,0,0,0,0,0,19,20,18,
18,20,0,0,0,0,0,0,0,0,0,0,0,0,0,0,0,0,0,0,0,0,0,0,0,0,0,19,20,18,
18,20,20,20,20,20,20,20,20,20,20,20,20,20,20,20,20,20,20,20,20,20,20,20,20,20,20,20,20,18,
18,20,20,20,20,20,20,20,20,20,20,20,20,20,20,20,20,20,20,20,20,20,20,20,20,20,20,20,20,18,
18,20,20,20,20,20,20,20,20,20,20,20,20,20,20,20,20,20,20,20,20,20,20,20,20,20,20,20,20,18
</data>
 </layer>
 <objectgroup id="4" name="objects" class="BerserkEnemy">
  <object id="12" name="Goal" type="Goal" x="832" y="160" width="32" height="32"/>
  <object id="113" type="Player" gid="97" x="96" y="128" width="32" height="32"/>
  <object id="129" type="Enemy" gid="81" x="320" y="2208" width="32" height="32"/>
  <object id="130" type="Enemy" gid="81" x="384" y="2176" width="32" height="32"/>
  <object id="131" type="Enemy" gid="81" x="448" y="2208" width="32" height="32"/>
  <object id="132" type="Enemy" gid="81" x="512" y="2176" width="32" height="32"/>
  <object id="133" type="Enemy" gid="81" x="576" y="2208" width="32" height="32"/>
  <object id="134" type="Enemy" gid="81" x="640" y="2176" width="32" height="32"/>
  <object id="135" type="Enemy" gid="81" x="704" y="2208" width="32" height="32"/>
  <object id="136" type="Enemy" gid="81" x="768" y="2176" width="32" height="32"/>
  <object id="137" type="Enemy" gid="81" x="832" y="2208" width="32" height="32"/>
  <object id="138" type="Berserk" gid="84" x="512" y="3744" width="32" height="32"/>
  <object id="139" type="Berserk" gid="84" x="576" y="3744" width="32" height="32"/>
  <object id="141" type="Turret" gid="82" x="736" y="3744" width="32" height="32"/>
  <object id="142" type="Turret" gid="82" x="768" y="3712" width="32" height="32"/>
  <object id="143" type="Turret" gid="82" x="800" y="3744" width="32" height="32"/>
  <object id="144" type="Frog" gid="83" x="512" y="2720" width="32" height="32"/>
  <object id="148" type="Berserk" gid="84" x="320" y="160" width="32" height="32"/>
  <object id="149" type="Berserk" gid="84" x="768" y="160" width="32" height="32"/>
  <object id="150" type="Factory" gid="85" x="800" y="160" width="32" height="32"/>
  <object id="151" type="Turret" gid="82" x="864" y="128" width="32" height="32"/>
  <object id="152" type="Frog" gid="83" x="832" y="3488" width="32" height="32"/>
 </objectgroup>
 <layer id="3" name="collisions" width="30" height="120" opacity="0.5">
  <data encoding="csv">
1,1,1,1,1,1,1,1,1,1,1,1,1,1,1,1,1,1,1,1,1,1,1,1,1,1,1,1,1,1,
1,1,1,1,1,1,1,1,1,1,1,1,1,1,1,1,1,1,1,1,1,1,1,1,1,1,1,1,1,1,
1,1,1,1,1,1,1,1,1,1,1,1,1,1,1,1,1,1,1,1,1,1,1,1,1,1,1,1,1,1,
1,1,0,0,0,1,1,0,0,0,0,0,0,0,0,0,0,0,0,0,0,0,0,0,0,0,0,0,1,1,
1,1,0,0,0,1,1,0,0,0,0,0,0,0,0,0,0,0,0,0,0,0,0,0,0,0,0,1,1,1,
1,1,0,0,0,1,1,0,0,2,1,1,1,1,1,1,1,1,1,1,1,1,1,1,1,1,1,1,1,1,
1,1,0,0,0,1,1,0,0,1,1,1,1,1,1,1,1,1,1,1,1,1,1,1,1,1,1,1,1,1,
1,1,0,0,0,1,1,0,0,0,0,0,0,0,0,0,0,0,0,0,0,0,0,0,0,0,0,1,1,1,
1,1,0,0,0,1,1,0,0,0,0,0,0,0,0,0,0,0,0,0,0,0,0,0,0,0,0,1,1,1,
1,1,0,0,0,1,1,1,1,1,1,1,1,1,1,1,1,1,1,1,1,1,1,1,2,0,0,1,1,1,
1,1,0,0,0,1,1,1,1,1,1,1,1,1,1,1,1,1,1,1,1,1,1,1,1,0,0,1,1,1,
1,1,0,0,0,1,1,0,0,0,0,0,0,0,0,0,0,0,0,0,0,0,0,0,0,0,0,1,1,1,
1,1,0,0,0,1,1,0,0,0,0,0,0,0,0,0,0,0,0,0,0,0,0,0,0,0,0,1,1,1,
1,1,0,0,0,1,1,0,0,2,3,3,3,3,3,3,3,3,3,3,3,3,3,3,3,3,3,1,1,1,
1,1,0,0,0,1,1,0,0,1,1,1,1,1,1,1,1,1,1,1,1,1,1,1,1,1,1,1,1,1,
1,1,0,0,0,1,1,0,0,0,0,0,0,0,0,0,0,0,0,0,0,0,0,0,0,0,0,1,1,1,
1,1,0,0,0,1,1,0,0,0,0,0,0,0,0,0,0,0,0,0,0,0,0,0,0,0,0,1,1,1,
1,1,0,0,0,1,1,3,3,3,3,3,3,3,3,3,3,3,3,3,3,3,3,3,2,0,0,1,1,1,
1,1,0,0,0,1,1,1,1,1,1,1,1,1,1,1,1,1,1,1,1,1,1,1,1,0,0,1,1,1,
1,1,0,0,0,1,1,0,0,0,0,0,0,0,0,0,0,0,0,0,0,0,0,0,0,0,0,1,1,1,
1,1,0,0,0,1,1,0,0,0,0,0,0,0,0,0,0,0,0,0,0,0,0,0,0,0,0,1,1,1,
1,1,0,0,0,1,1,0,0,2,3,3,3,3,3,3,3,3,3,3,3,3,3,3,3,3,3,1,1,1,
1,1,0,0,0,1,1,0,0,1,1,1,1,1,1,1,1,1,1,1,1,1,1,1,1,1,1,1,1,1,
1,1,0,0,0,1,1,0,0,0,0,0,0,0,0,0,0,0,0,0,0,0,0,0,0,0,0,1,1,1,
1,1,0,0,0,1,1,0,0,0,0,0,0,0,0,0,0,0,0,0,0,0,0,0,0,0,0,1,1,1,
1,1,0,0,0,1,1,3,3,3,3,3,3,3,3,3,3,3,3,3,3,3,3,3,2,0,0,1,1,1,
1,1,0,0,0,1,1,1,1,1,1,1,1,1,1,1,1,1,1,1,1,1,1,1,1,0,0,1,1,1,
1,1,0,0,0,1,1,0,0,0,0,0,0,0,0,0,0,0,0,0,0,0,0,0,0,0,0,1,1,1,
1,1,0,0,0,1,1,0,0,0,0,0,0,0,0,0,0,0,0,0,0,0,0,0,0,0,0,1,1,1,
1,1,0,0,0,1,1,0,0,2,3,3,3,3,3,3,3,3,3,3,3,3,3,3,3,3,3,1,1,1,
1,1,0,0,0,1,1,0,0,1,1,1,1,1,1,1,1,1,1,1,1,1,1,1,1,1,1,1,1,1,
1,1,0,0,0,1,1,0,0,0,0,0,0,0,0,0,0,0,0,0,0,0,0,0,0,0,0,1,1,1,
1,1,0,0,0,1,1,0,0,0,0,0,0,0,0,0,0,0,0,0,0,0,0,0,0,0,0,1,1,1,
1,1,0,0,0,1,1,3,3,3,3,3,3,3,3,3,3,3,3,3,3,3,3,3,2,0,0,1,1,1,
1,1,0,0,0,1,1,1,1,1,1,1,1,1,1,1,1,1,1,1,1,1,1,1,1,0,0,1,1,1,
1,1,0,0,0,1,1,0,0,0,0,0,0,0,0,0,0,0,0,0,0,0,0,0,0,0,0,1,1,1,
1,1,0,0,0,1,1,0,0,0,0,0,0,0,0,0,0,0,0,0,0,0,0,0,0,0,0,1,1,1,
1,1,0,0,0,1,1,0,0,2,3,3,3,3,3,3,3,3,3,3,3,3,3,3,3,3,3,1,1,1,
1,1,0,0,0,1,1,0,0,1,1,1,1,1,1,1,1,1,1,1,1,1,1,1,1,1,1,1,1,1,
1,1,0,0,0,1,1,0,0,0,0,0,0,0,0,0,0,0,0,0,0,0,0,0,0,0,0,1,1,1,
1,1,0,0,0,1,1,0,0,0,0,0,0,0,0,0,0,0,0,0,0,0,0,0,0,0,0,1,1,1,
1,1,0,0,0,1,1,3,3,3,3,3,3,3,3,3,3,3,3,3,3,3,3,3,2,0,0,1,1,1,
1,1,0,0,0,1,1,1,1,1,1,1,1,1,1,1,1,1,1,1,1,1,1,1,1,0,0,1,1,1,
1,1,0,0,0,1,1,0,0,0,0,0,0,0,0,0,0,0,0,0,0,0,0,0,0,0,0,1,1,1,
1,1,0,0,0,1,1,0,0,0,0,0,0,0,0,0,0,0,0,0,0,0,0,0,0,0,0,1,1,1,
1,1,0,0,0,1,1,0,0,2,3,3,3,3,3,3,3,3,3,3,3,3,3,3,3,3,3,1,1,1,
1,1,0,0,0,1,1,0,0,1,1,1,1,1,1,1,1,1,1,1,1,1,1,1,1,1,1,1,1,1,
1,1,0,0,0,1,1,0,0,0,0,0,0,0,0,0,0,0,0,0,0,0,0,0,0,0,0,1,1,1,
1,1,0,0,0,1,1,0,0,0,0,0,0,0,0,0,0,0,0,0,0,0,0,0,0,0,0,1,1,1,
1,1,0,0,0,1,1,3,3,3,3,3,3,3,3,3,3,3,3,3,3,3,3,3,2,0,0,1,1,1,
1,1,0,0,0,1,1,1,1,1,1,1,1,1,1,1,1,1,1,1,1,1,1,1,1,0,0,1,1,1,
1,1,0,0,0,1,1,0,0,0,0,0,0,0,0,0,0,0,0,0,0,0,0,0,0,0,0,1,1,1,
1,1,0,0,0,1,1,0,0,0,0,0,0,0,0,0,0,0,0,0,0,0,0,0,0,0,0,1,1,1,
1,1,0,0,0,1,1,0,0,2,3,3,3,3,3,3,3,3,3,3,3,3,3,3,3,3,3,1,1,1,
1,1,0,0,0,1,1,0,0,1,1,1,1,1,1,1,1,1,1,1,1,1,1,1,1,1,1,1,1,1,
1,1,0,0,0,1,1,0,0,0,0,0,0,0,0,0,0,0,0,0,0,0,0,0,0,0,0,1,1,1,
1,1,0,0,0,1,1,0,0,0,0,0,0,0,0,0,0,0,0,0,0,0,0,0,0,0,0,1,1,1,
1,1,0,0,0,1,1,3,3,3,3,3,3,3,3,3,3,3,3,3,3,3,3,3,2,0,0,1,1,1,
1,1,0,0,0,1,1,1,1,1,1,1,1,1,1,1,1,1,1,1,1,1,1,1,1,0,0,1,1,1,
1,1,0,0,0,1,1,0,0,0,0,0,0,0,0,0,0,0,0,0,0,0,0,0,0,0,0,1,1,1,
1,1,0,0,0,1,1,0,0,0,0,0,0,0,0,0,0,0,0,0,0,0,0,0,0,0,0,1,1,1,
1,1,0,0,0,1,1,0,0,2,3,3,3,3,3,3,3,3,3,3,3,3,3,3,3,3,3,1,1,1,
1,1,0,0,0,1,1,0,0,1,1,1,1,1,1,1,1,1,1,1,1,1,1,1,1,1,1,1,1,1,
1,1,0,0,0,1,1,0,0,0,0,0,0,0,0,0,0,0,0,0,0,0,0,0,0,0,0,1,1,1,
1,1,0,0,0,1,1,0,0,0,0,0,0,0,0,0,0,0,0,0,0,0,0,0,0,0,0,1,1,1,
1,1,0,0,0,1,1,3,3,3,3,3,3,3,3,3,3,3,3,3,3,3,3,3,2,0,0,1,1,1,
1,1,0,0,0,1,1,1,1,1,1,1,1,1,1,1,1,1,1,1,1,1,1,1,1,0,0,1,1,1,
1,1,0,0,0,1,1,0,0,0,0,0,0,0,0,0,0,0,0,0,0,0,0,0,0,0,0,1,1,1,
1,1,0,0,0,1,1,0,0,0,0,0,0,0,0,0,0,0,0,0,0,0,0,0,0,0,0,1,1,1,
1,1,0,0,0,1,1,0,0,2,3,3,3,3,3,3,3,3,3,3,3,3,3,3,3,3,3,1,1,1,
1,1,0,0,0,1,1,0,0,1,1,1,1,1,1,1,1,1,1,1,1,1,1,1,1,1,1,1,1,1,
1,1,0,0,0,1,1,0,0,0,0,0,0,0,0,0,0,0,0,0,0,0,0,0,0,0,0,1,1,1,
1,1,0,0,0,1,1,0,0,0,0,0,0,0,0,0,0,0,0,0,0,0,0,0,0,0,0,1,1,1,
1,1,0,0,0,1,1,3,3,3,3,3,3,3,3,3,3,3,3,3,3,3,3,3,2,0,0,1,1,1,
1,1,0,0,0,1,1,1,1,1,1,1,1,1,1,1,1,1,1,1,1,1,1,1,1,0,0,1,1,1,
1,1,0,0,0,1,1,0,0,0,0,0,0,0,0,0,0,0,0,0,0,0,0,0,0,0,0,1,1,1,
1,1,0,0,0,1,1,0,0,0,0,0,0,0,0,0,0,0,0,0,0,0,0,0,0,0,0,1,1,1,
1,1,0,0,0,1,1,0,0,2,3,3,3,3,3,3,3,3,3,3,3,3,3,3,3,3,3,1,1,1,
1,1,0,0,0,1,1,0,0,1,1,1,1,1,1,1,1,1,1,1,1,1,1,1,1,1,1,1,1,1,
1,1,0,0,0,1,1,0,0,0,0,0,0,0,0,0,0,0,0,0,0,0,0,0,0,0,0,1,1,1,
1,1,0,0,0,1,1,0,0,0,0,0,0,0,0,0,0,0,0,0,0,0,0,0,0,0,0,1,1,1,
1,1,0,0,0,1,1,3,3,3,3,3,3,3,3,3,3,3,3,3,3,3,3,3,2,0,0,1,1,1,
1,1,0,0,0,1,1,1,1,1,1,1,1,1,1,1,1,1,1,1,1,1,1,1,1,0,0,1,1,1,
1,1,0,0,0,1,1,0,0,0,0,0,0,0,0,0,0,0,0,0,0,0,0,0,0,0,0,1,1,1,
1,1,0,0,0,1,1,0,0,0,0,0,0,0,0,0,0,0,0,0,0,0,0,0,0,0,0,1,1,1,
1,1,0,0,0,1,1,0,0,2,3,3,3,3,3,3,3,3,3,3,3,3,3,3,3,3,3,1,1,1,
1,1,0,0,0,1,1,0,0,1,1,1,1,1,1,1,1,1,1,1,1,1,1,1,1,1,1,1,1,1,
1,1,0,0,0,1,1,0,0,0,0,0,0,0,0,0,0,0,0,0,0,0,0,0,0,0,0,1,1,1,
1,1,0,0,0,1,1,0,0,0,0,0,0,0,0,0,0,0,0,0,0,0,0,0,0,0,0,1,1,1,
1,1,0,0,0,1,1,3,3,3,3,3,3,3,3,3,3,3,3,3,3,3,3,3,2,0,0,1,1,1,
1,1,0,0,0,1,1,1,1,1,1,1,1,1,1,1,1,1,1,1,1,1,1,1,1,0,0,1,1,1,
1,1,0,0,0,1,1,0,0,0,0,0,0,0,0,0,0,0,0,0,0,0,0,0,0,0,0,1,1,1,
1,1,0,0,0,1,1,0,0,0,0,0,0,0,0,0,0,0,0,0,0,0,0,0,0,0,0,1,1,1,
1,1,0,0,0,1,1,0,0,2,3,3,3,3,3,3,3,3,3,3,3,3,3,3,3,3,3,1,1,1,
1,1,0,0,0,1,1,0,0,1,1,1,1,1,1,1,1,1,1,1,1,1,1,1,1,1,1,1,1,1,
1,1,0,0,0,1,1,0,0,0,0,0,0,0,0,0,0,0,0,0,0,0,0,0,0,0,0,1,1,1,
1,1,0,0,0,1,1,0,0,0,0,0,0,0,0,0,0,0,0,0,0,0,0,0,0,0,0,1,1,1,
1,1,0,0,0,1,1,3,3,3,3,3,3,3,3,3,3,3,3,3,3,3,3,3,2,0,0,1,1,1,
1,1,0,0,0,1,1,1,1,1,1,1,1,1,1,1,1,1,1,1,1,1,1,1,1,0,0,1,1,1,
1,1,0,0,0,1,1,0,0,0,0,0,0,0,0,0,0,0,0,0,0,0,0,0,0,0,0,1,1,1,
1,1,0,0,0,1,1,0,0,0,0,0,0,0,0,0,0,0,0,0,0,0,0,0,0,0,0,1,1,1,
1,1,0,0,0,1,1,0,0,2,3,3,3,3,3,3,3,3,3,3,3,3,3,3,3,3,3,1,1,1,
1,1,0,0,0,1,1,0,0,1,1,1,1,1,1,1,1,1,1,1,1,1,1,1,1,1,1,1,1,1,
1,1,0,0,0,1,1,0,0,0,0,0,0,0,0,0,0,0,0,0,0,0,0,0,0,0,0,1,1,1,
1,1,0,0,0,1,1,0,0,0,0,0,0,0,0,0,0,0,0,0,0,0,0,0,0,0,0,1,1,1,
1,1,0,0,0,1,1,3,3,3,3,3,3,3,3,3,3,3,3,3,3,3,3,3,2,0,0,1,1,1,
1,1,0,0,0,1,1,1,1,1,1,1,1,1,1,1,1,1,1,1,1,1,1,1,1,0,0,1,1,1,
1,1,0,0,0,1,1,0,0,0,0,0,0,0,0,0,0,0,0,0,0,0,0,0,0,0,0,1,1,1,
1,1,0,0,0,1,1,0,0,0,0,0,0,0,0,0,0,0,0,0,0,0,0,0,0,0,0,1,1,1,
1,1,0,0,0,1,1,0,0,2,3,3,3,3,3,3,3,3,3,3,3,3,3,3,3,3,3,1,1,1,
1,1,0,0,0,1,1,0,0,1,1,1,1,1,1,1,1,1,1,1,1,1,1,1,1,1,1,1,1,1,
1,1,0,0,0,1,1,0,0,0,0,0,0,0,0,0,0,0,0,0,0,0,0,0,0,0,0,1,1,1,
1,1,0,0,0,1,1,0,0,0,0,0,0,0,0,0,0,0,0,0,0,0,0,0,0,0,0,1,1,1,
1,1,0,0,0,1,1,3,3,3,3,3,3,3,3,3,3,3,3,3,3,3,3,3,2,0,0,1,1,1,
1,1,0,0,0,1,1,1,1,1,1,1,1,1,1,1,1,1,1,1,1,1,1,1,1,0,0,1,1,1,
1,1,0,0,0,0,0,0,0,0,0,0,0,0,0,0,0,0,0,0,0,0,0,0,0,0,0,1,1,1,
1,1,0,0,0,0,0,0,0,0,0,0,0,0,0,0,0,0,0,0,0,0,0,0,0,0,0,1,1,1,
1,1,1,1,1,1,1,1,1,1,1,1,1,1,1,1,1,1,1,1,1,1,1,1,1,1,1,1,1,1,
1,1,1,1,1,1,1,1,1,1,1,1,1,1,1,1,1,1,1,1,1,1,1,1,1,1,1,1,1,1,
1,1,1,1,1,1,1,1,1,1,1,1,1,1,1,1,1,1,1,1,1,1,1,1,1,1,1,1,1,1
</data>
 </layer>
</map>
