<?xml version="1.0" encoding="UTF-8"?>
<map version="1.10" tiledversion="1.11.2" orientation="orthogonal" renderorder="right-down" width="40" height="40" tilewidth="32" tileheight="32" infinite="0" nextlayerid="6" nextobjectid="45">
 <editorsettings>
  <export target="../../src/PolyGone/Maps/Level4-StephenResch.json" format="json"/>
 </editorsettings>
 <tileset firstgid="1" source="../TiledSets/Proto.tsx"/>
 <tileset firstgid="65" source="../TiledSets/CollisionTiles.tsx"/>
 <tileset firstgid="81" source="../TiledSets/TextureSheet.tsx"/>
 <tileset firstgid="145" source="../TiledSets/EnemySheet.tsx"/>
 <tileset firstgid="161" source="../TiledSets/PlayerSheet.tsx"/>
 <imagelayer id="5" name="Background" repeatx="1" repeaty="1">
  <image source="../../src/PolyGone/Content/Textures/Backgrounds/CastleBackground.png" width="256" height="256"/>
 </imagelayer>
 <layer id="1" name="prototype" width="40" height="40">
  <data encoding="csv">
2,2,2,2,2,2,2,2,2,2,2,2,2,2,2,2,2,2,2,2,2,2,2,2,2,2,2,2,2,2,2,2,2,2,2,2,2,2,2,2,
2,2,2,2,2,2,2,2,2,2,2,2,2,2,2,2,2,2,2,2,2,2,2,2,2,2,2,2,2,2,2,2,2,2,2,2,2,2,2,2,
2,2,2,2,2,2,2,2,2,2,2,2,2,2,2,2,2,2,2,2,2,2,2,2,2,2,2,2,2,2,2,2,2,2,2,2,2,2,2,2,
2,2,2,0,0,0,0,0,0,0,0,0,0,0,0,0,0,0,0,0,0,0,0,0,0,0,0,0,0,0,0,0,0,0,0,0,0,2,2,2,
2,2,2,0,0,0,0,0,0,0,0,0,0,0,0,0,0,0,0,0,0,0,0,0,0,0,0,0,0,0,0,0,0,0,0,0,0,2,2,2,
2,2,2,2,2,2,2,2,2,2,2,0,0,0,0,0,0,0,2,2,2,2,2,2,2,2,2,2,2,2,0,0,0,0,0,0,0,2,2,2,
2,2,2,0,0,0,0,0,0,0,2,0,0,3,3,3,0,0,2,0,0,0,0,0,0,0,0,0,0,2,0,0,0,0,0,0,0,2,2,2,
2,2,2,0,0,0,0,0,0,0,2,0,0,0,0,0,0,0,2,0,0,0,0,0,0,0,0,0,0,2,0,0,0,0,0,0,0,2,2,2,
2,2,2,0,0,0,0,0,0,0,2,0,0,0,0,0,0,0,2,0,0,0,0,0,3,0,0,0,0,2,2,2,2,2,0,0,0,2,2,2,
2,2,2,0,3,0,0,3,0,0,2,2,2,2,2,2,2,2,2,0,0,0,0,0,0,0,0,0,0,0,0,0,0,2,0,0,0,2,2,2,
2,2,2,0,0,0,0,0,0,0,0,0,0,0,0,0,0,0,0,0,0,0,0,0,0,0,0,0,0,0,0,0,0,2,0,0,0,2,2,2,
2,2,2,0,0,0,0,0,0,0,0,0,0,0,0,0,0,0,0,0,3,0,0,0,0,0,0,0,0,0,0,0,0,0,0,0,0,2,2,2,
2,2,2,0,0,0,0,0,0,0,0,0,0,0,0,0,0,0,0,0,0,0,0,0,0,0,0,0,2,0,0,0,0,2,0,0,0,2,2,2,
2,2,2,0,0,0,0,0,0,2,2,2,2,2,2,2,2,0,0,0,0,0,0,0,0,0,0,0,2,0,0,0,0,2,0,0,0,2,2,2,
2,2,2,0,0,0,3,0,0,2,0,0,0,0,0,0,2,2,0,0,0,0,0,0,0,0,3,0,2,0,0,0,0,2,0,0,0,2,2,2,
2,2,2,0,0,0,0,0,0,2,0,0,0,0,0,0,0,2,2,0,0,0,0,0,0,0,0,0,2,3,3,3,3,2,3,3,3,2,2,2,
2,2,2,3,0,0,0,0,2,2,2,2,2,3,3,0,0,0,2,2,0,0,0,0,0,0,0,0,2,0,0,0,0,2,0,0,0,2,2,2,
2,2,2,0,0,0,0,0,2,2,0,0,0,0,0,0,0,0,0,2,2,0,0,0,3,0,0,0,2,0,0,0,0,2,0,0,0,2,2,2,
2,2,2,0,0,3,0,0,2,2,0,0,0,0,0,0,0,0,0,0,2,2,0,0,0,0,0,0,2,0,0,0,0,0,0,0,0,2,2,2,
2,2,2,0,0,0,0,0,2,2,0,0,0,3,3,0,0,0,0,3,0,2,2,0,0,0,0,0,2,0,0,0,0,2,0,0,0,2,2,2,
2,2,2,0,0,0,0,3,0,2,0,0,0,0,0,0,0,0,0,0,0,0,2,2,2,2,2,2,2,0,0,0,0,2,0,0,0,2,2,2,
2,2,2,0,0,0,0,0,0,2,0,0,0,0,0,0,0,0,0,0,0,0,0,2,2,2,2,2,2,0,0,0,0,2,0,0,0,2,2,2,
2,2,2,0,0,3,0,0,0,2,0,0,0,3,3,3,3,0,0,0,0,0,0,0,2,2,2,2,2,3,3,3,3,2,3,3,3,2,2,2,
2,2,2,0,0,0,0,0,3,2,0,0,0,0,0,0,0,0,0,0,0,0,0,0,0,2,2,2,2,0,0,0,0,2,0,0,0,2,2,2,
2,2,2,3,0,0,0,0,0,2,0,0,0,0,0,0,0,0,3,0,0,0,0,0,0,0,2,2,2,0,0,0,0,0,0,0,0,2,2,2,
2,2,2,0,0,0,0,0,0,2,0,0,3,0,0,0,0,0,0,0,0,0,0,0,0,0,0,2,2,0,0,0,0,2,0,0,0,2,2,2,
2,2,2,0,0,3,0,0,0,2,0,0,0,0,0,0,0,0,0,0,3,0,0,0,0,0,0,0,2,0,0,0,0,2,0,0,0,2,2,2,
2,2,2,0,0,0,0,0,0,2,0,0,0,0,3,0,0,0,0,0,0,0,0,0,0,0,0,0,2,0,0,0,0,2,0,0,0,2,2,2,
2,2,2,0,0,0,0,3,0,2,0,0,0,0,0,0,0,0,3,0,0,0,3,0,0,0,0,0,2,3,3,3,3,2,3,3,3,2,2,2,
2,2,2,0,0,0,0,0,0,2,0,0,0,0,0,0,0,0,0,0,0,0,0,0,0,0,0,0,0,0,0,0,0,2,0,0,0,2,2,2,
2,2,2,0,0,0,0,0,0,2,0,0,0,0,0,0,0,0,0,0,0,0,0,0,0,0,0,0,0,0,0,0,0,2,0,0,0,2,2,2,
2,2,2,0,0,0,2,2,2,2,11,11,11,11,11,11,11,11,11,2,2,2,2,2,2,2,2,2,2,2,2,2,2,2,0,0,0,2,2,2,
2,2,2,0,3,0,0,0,0,0,0,0,0,0,0,0,0,0,0,2,2,2,2,2,2,2,2,2,2,2,2,2,2,2,0,0,0,2,2,2,
2,2,2,0,0,0,0,0,0,0,0,0,0,0,0,0,0,0,0,2,2,2,2,2,2,2,2,2,2,2,2,2,2,2,0,0,0,2,2,2,
2,2,2,0,0,0,0,0,0,0,0,0,0,0,0,0,0,0,0,2,2,2,2,2,2,2,2,2,2,2,0,0,0,0,0,0,0,2,2,2,
2,2,2,0,3,0,0,0,0,0,0,0,0,0,0,0,0,0,0,0,0,0,0,0,0,0,0,0,0,0,0,0,0,0,0,0,0,2,2,2,
2,2,2,0,0,0,0,0,0,0,0,0,0,0,0,0,0,0,0,0,0,0,0,0,0,0,0,0,0,0,0,0,0,0,0,0,0,2,2,2,
2,2,2,2,2,2,2,2,2,2,2,11,11,11,11,9,9,9,9,9,9,9,9,9,9,9,9,9,9,9,9,9,9,9,10,10,10,2,2,2,
2,2,2,2,2,2,2,2,2,2,2,2,2,2,2,2,2,2,2,2,2,2,2,2,2,2,2,2,2,2,2,2,2,2,2,2,2,2,2,2,
2,2,2,2,2,2,2,2,2,2,2,2,2,2,2,2,2,2,2,2,2,2,2,2,2,2,2,2,2,2,2,2,2,2,2,2,2,2,2,2
</data>
 </layer>
 <layer id="4" name="tiles" width="40" height="40">
  <data encoding="csv">
82,84,84,84,84,84,84,84,84,84,84,84,84,84,84,84,84,84,84,84,84,84,84,84,84,84,84,84,84,84,84,84,84,84,84,84,84,84,84,82,
82,84,84,84,84,84,84,84,84,84,84,84,84,84,84,84,84,84,84,84,84,84,84,84,84,84,84,84,84,84,84,84,84,84,84,84,84,84,84,82,
82,84,84,84,84,84,84,84,84,84,84,84,84,84,84,84,84,84,84,84,84,84,84,84,84,84,84,84,84,84,84,84,84,84,84,84,84,84,84,82,
82,84,85,0,0,0,0,0,0,0,0,0,0,0,0,0,0,0,0,0,0,0,0,0,0,0,0,0,0,0,0,0,0,0,0,0,0,83,84,82,
82,84,85,0,0,0,0,0,0,0,0,0,0,0,0,0,0,0,0,0,0,0,0,0,0,0,0,0,0,0,0,0,0,0,0,0,0,83,84,82,
82,84,84,84,84,84,84,84,84,84,85,0,0,0,0,0,0,0,83,84,84,84,84,84,84,84,84,84,84,85,0,0,0,0,0,0,0,83,84,82,
82,84,85,0,0,0,0,0,0,0,82,0,0,98,99,100,0,0,82,0,0,0,0,0,0,0,0,0,0,82,0,0,0,0,0,0,0,83,84,82,
82,84,85,0,0,0,0,0,0,0,82,0,0,0,0,0,0,0,82,0,0,0,0,0,0,0,0,0,0,82,0,0,0,0,0,0,0,83,84,82,
82,84,85,0,0,0,0,0,0,0,82,0,0,0,0,0,0,0,82,0,0,0,0,0,97,0,0,0,0,83,84,84,84,85,0,0,0,83,84,82,
82,84,85,0,97,0,0,97,0,0,83,84,84,84,84,84,84,84,85,0,0,0,0,0,0,0,0,0,0,0,0,0,0,82,0,0,0,83,84,82,
82,84,85,0,0,0,0,0,0,0,0,0,0,0,0,0,0,0,0,0,0,0,0,0,0,0,0,0,0,0,0,0,0,82,0,0,0,83,84,82,
82,84,85,0,0,0,0,0,0,0,0,0,0,0,0,0,0,0,0,0,97,0,0,0,0,0,0,0,0,0,0,0,0,0,0,0,0,83,84,82,
82,84,85,0,0,0,0,0,0,0,0,0,0,0,0,0,0,0,0,0,0,0,0,0,0,0,0,0,82,0,0,0,0,82,0,0,0,83,84,82,
82,84,85,0,0,0,0,0,0,83,84,84,84,84,84,84,85,0,0,0,0,0,0,0,0,0,0,0,82,0,0,0,0,82,0,0,0,83,84,82,
82,84,85,0,0,0,97,0,0,82,0,0,0,0,0,0,83,85,0,0,0,0,0,0,0,0,97,0,82,0,0,0,0,82,0,0,0,83,84,82,
82,84,85,0,0,0,0,0,0,82,0,0,0,0,0,0,0,83,85,0,0,0,0,0,0,0,0,0,82,98,99,99,100,82,98,99,100,83,84,82,
82,84,85,100,0,0,0,0,83,84,84,84,85,98,100,0,0,0,83,85,0,0,0,0,0,0,0,0,82,0,0,0,0,82,0,0,0,83,84,82,
82,84,85,0,0,0,0,0,83,85,0,0,0,0,0,0,0,0,0,83,85,0,0,0,97,0,0,0,82,0,0,0,0,82,0,0,0,83,84,82,
82,84,85,0,0,97,0,0,83,85,0,0,0,0,0,0,0,0,0,0,83,85,0,0,0,0,0,0,82,0,0,0,0,0,0,0,0,83,84,82,
82,84,85,0,0,0,0,0,83,85,0,0,0,98,100,0,0,0,0,97,0,83,85,0,0,0,0,0,82,0,0,0,0,82,0,0,0,83,84,82,
82,84,85,0,0,0,0,97,0,82,0,0,0,0,0,0,0,0,0,0,0,0,83,84,84,84,84,84,85,0,0,0,0,82,0,0,0,83,84,82,
82,84,85,0,0,0,0,0,0,82,0,0,0,0,0,0,0,0,0,0,0,0,0,83,84,84,84,84,85,0,0,0,0,82,0,0,0,83,84,82,
82,84,85,0,0,97,0,0,0,82,0,0,0,98,99,99,100,0,0,0,0,0,0,0,83,84,84,84,85,98,99,99,100,82,98,99,100,83,84,82,
82,84,85,0,0,0,0,0,98,82,0,0,0,0,0,0,0,0,0,0,0,0,0,0,0,83,84,84,85,0,0,0,0,82,0,0,0,83,84,82,
82,84,85,100,0,0,0,0,0,82,0,0,0,0,0,0,0,0,97,0,0,0,0,0,0,0,83,84,85,0,0,0,0,0,0,0,0,83,84,82,
82,84,85,0,0,0,0,0,0,82,0,0,97,0,0,0,0,0,0,0,0,0,0,0,0,0,0,83,85,0,0,0,0,82,0,0,0,83,84,82,
82,84,85,0,0,97,0,0,0,82,0,0,0,0,0,0,0,0,0,0,97,0,0,0,0,0,0,0,82,0,0,0,0,82,0,0,0,83,84,82,
82,84,85,0,0,0,0,0,0,82,0,0,0,0,97,0,0,0,0,0,0,0,0,0,0,0,0,0,82,0,0,0,0,82,0,0,0,83,84,82,
82,84,85,0,0,0,0,97,0,82,0,0,0,0,0,0,0,0,97,0,0,0,97,0,0,0,0,0,82,98,99,99,100,82,98,99,100,83,84,82,
82,84,85,0,0,0,0,0,0,82,0,0,0,0,0,0,0,0,0,0,0,0,0,0,0,0,0,0,0,0,0,0,0,82,0,0,0,83,84,82,
82,84,85,0,0,0,0,0,0,82,0,0,0,0,0,0,0,0,0,0,0,0,0,0,0,0,0,0,0,0,0,0,0,82,0,0,0,83,84,82,
82,84,85,0,0,0,83,84,84,82,122,123,123,123,123,123,123,123,124,82,84,84,84,84,84,84,84,84,84,84,84,84,84,85,0,0,0,83,84,82,
82,84,85,0,97,0,0,0,0,0,0,0,0,0,0,0,0,0,0,83,84,84,84,84,84,84,84,84,84,84,84,84,84,85,0,0,0,83,84,82,
82,84,85,0,0,0,0,0,0,0,0,0,0,0,0,0,0,0,0,83,84,84,84,84,84,84,84,84,84,84,84,84,84,85,0,0,0,83,84,82,
82,84,85,0,0,0,0,0,0,0,0,0,0,0,0,0,0,0,0,83,84,84,84,84,84,84,84,84,84,85,0,0,0,0,0,0,0,83,84,82,
82,84,85,0,97,0,0,0,0,0,0,0,0,0,0,0,0,0,0,0,0,0,0,0,0,0,0,0,0,0,0,0,0,0,0,0,0,83,84,82,
82,84,85,0,0,0,0,0,0,0,0,0,0,0,0,0,0,0,0,0,0,0,0,0,0,0,0,0,0,0,0,0,0,0,0,0,0,83,84,82,
82,84,84,84,84,84,84,84,84,82,82,123,123,123,124,106,107,107,107,107,107,107,107,107,107,107,107,107,107,107,107,107,107,108,114,115,116,82,84,82,
82,84,84,84,84,84,84,84,84,84,84,84,84,84,84,84,84,84,84,84,84,84,84,84,84,84,84,84,84,84,84,84,84,84,84,84,84,84,84,82,
82,84,84,84,84,84,84,84,84,84,84,84,84,84,84,84,84,84,84,84,84,84,84,84,84,84,84,84,84,84,84,84,84,84,84,84,84,84,84,82
</data>
 </layer>
 <objectgroup id="3" name="Objects">
  <object id="6" gid="145" x="1056" y="256" width="32" height="32"/>
  <object id="22" gid="145" x="832" y="640" width="32" height="32"/>
  <object id="24" gid="161" x="160" y="160" width="32" height="32"/>
  <object id="25" name="Hub" type="Door" x="128" y="160" width="32" height="32">
   <properties>
    <property name="connects" value="Hub"/>
    <property name="loadX" type="int" value="96"/>
    <property name="loadY" type="int" value="608"/>
   </properties>
  </object>
  <object id="26" name="Goal" type="Goal" x="352" y="512" width="32" height="32"/>
  <object id="27" gid="146" x="448" y="288" width="32" height="32"/>
  <object id="28" gid="146" x="1056" y="384" width="32" height="32"/>
  <object id="29" gid="146" x="1056" y="608" width="32" height="32"/>
  <object id="30" gid="146" x="1056" y="800" width="32" height="32"/>
  <object id="31" gid="146" x="256" y="736" width="32" height="32"/>
  <object id="32" gid="146" x="224" y="288" width="32" height="32"/>
  <object id="33" gid="146" x="128" y="288" width="32" height="32"/>
  <object id="34" gid="146" x="608" y="608" width="32" height="32"/>
  <object id="35" gid="146" x="768" y="256" width="32" height="32"/>
  <object id="36" gid="146" x="640" y="352" width="32" height="32"/>
  <object id="37" gid="146" x="384" y="800" width="32" height="32"/>
  <object id="38" gid="146" x="448" y="864" width="32" height="32"/>
  <object id="39" gid="146" x="576" y="896" width="32" height="32"/>
  <object id="40" gid="147" x="768" y="640" width="32" height="32"/>
  <object id="43" gid="148" x="544" y="1184" width="32" height="32"/>
  <object id="44" gid="149" x="736" y="992" width="32" height="32"/>
 </objectgroup>
 <layer id="2" name="Collisions" width="40" height="40">
  <data encoding="csv">
65,65,65,65,65,65,65,65,65,65,65,65,65,65,65,65,65,65,65,65,65,65,65,65,65,65,65,65,65,65,65,65,65,65,65,65,65,65,65,65,
65,65,65,65,65,65,65,65,65,65,65,65,65,65,65,65,65,65,65,65,65,65,65,65,65,65,65,65,65,65,65,65,65,65,65,65,65,65,65,65,
65,65,65,65,65,65,65,65,65,65,65,65,65,65,65,65,65,65,65,65,65,65,65,65,65,65,65,65,65,65,65,65,65,65,65,65,65,65,65,65,
65,65,65,0,0,0,0,0,0,0,0,0,0,0,0,0,0,0,0,0,0,0,0,0,0,0,0,0,0,0,0,0,0,0,0,0,0,65,65,65,
65,65,65,0,0,0,0,0,0,0,0,0,0,0,0,0,0,0,0,0,0,0,0,0,0,0,0,0,0,0,0,0,0,0,0,0,0,65,65,65,
65,65,65,65,65,65,65,65,65,65,65,0,0,0,0,0,0,0,65,65,65,65,65,65,65,65,65,65,65,65,0,0,0,0,0,0,0,65,65,65,
65,65,65,0,0,0,0,0,0,0,65,0,0,66,66,66,0,0,65,0,0,0,0,0,0,0,0,0,0,65,0,0,0,0,0,0,0,65,65,65,
65,65,65,0,0,0,0,0,0,0,65,0,0,0,0,0,0,0,65,0,0,0,0,0,0,0,0,0,0,65,0,0,0,0,0,0,0,65,65,65,
65,65,65,0,0,0,0,0,0,0,65,0,0,0,0,0,0,0,65,0,0,0,0,0,66,0,0,0,0,65,65,65,65,65,0,0,0,65,65,65,
65,65,65,0,66,0,0,66,0,0,65,65,65,65,65,65,65,65,65,0,0,0,0,0,0,0,0,0,0,0,0,0,0,65,0,0,0,65,65,65,
65,65,65,0,0,0,0,0,0,0,0,0,0,0,0,0,0,0,0,0,0,0,0,0,0,0,0,0,0,0,0,0,0,65,0,0,0,65,65,65,
65,65,65,0,0,0,0,0,0,0,0,0,0,0,0,0,0,0,0,0,66,0,0,0,0,0,0,0,0,0,0,0,0,0,0,0,0,65,65,65,
65,65,65,0,0,0,0,0,0,0,0,0,0,0,0,0,0,0,0,0,0,0,0,0,0,0,0,0,65,0,0,0,0,65,0,0,0,65,65,65,
65,65,65,0,0,0,0,0,0,65,65,65,65,65,65,65,65,0,0,0,0,0,0,0,0,0,0,0,65,0,0,0,0,65,0,0,0,65,65,65,
65,65,65,0,0,0,66,0,0,65,0,0,0,0,0,0,65,65,0,0,0,0,0,0,0,0,66,0,65,0,0,0,0,65,0,0,0,65,65,65,
65,65,65,0,0,0,0,0,0,65,0,0,0,0,0,0,0,65,65,0,0,0,0,0,0,0,0,0,65,66,66,66,66,65,66,66,66,65,65,65,
65,65,65,66,0,0,0,0,65,65,65,65,65,66,66,0,0,0,65,65,0,0,0,0,0,0,0,0,65,0,0,0,0,65,0,0,0,65,65,65,
65,65,65,0,0,0,0,0,65,65,0,0,0,0,0,0,0,0,0,65,65,0,0,0,66,0,0,0,65,0,0,0,0,65,0,0,0,65,65,65,
65,65,65,0,0,66,0,0,65,65,0,0,0,0,0,0,0,0,0,0,65,65,0,0,0,0,0,0,65,0,0,0,0,0,0,0,0,65,65,65,
65,65,65,0,0,0,0,0,65,65,0,0,0,66,66,0,0,0,0,66,0,65,65,0,0,0,0,0,65,0,0,0,0,65,0,0,0,65,65,65,
65,65,65,0,0,0,0,66,0,65,0,0,0,0,0,0,0,0,0,0,0,0,65,65,65,65,65,65,65,0,0,0,0,65,0,0,0,65,65,65,
65,65,65,0,0,0,0,0,0,65,0,0,0,0,0,0,0,0,0,0,0,0,0,65,65,65,65,65,65,0,0,0,0,65,0,0,0,65,65,65,
65,65,65,0,0,66,0,0,0,65,0,0,0,66,66,66,66,0,0,0,0,0,0,0,65,65,65,65,65,66,66,66,66,65,66,66,66,65,65,65,
65,65,65,0,0,0,0,0,66,65,0,0,0,0,0,0,0,0,0,0,0,0,0,0,0,65,65,65,65,0,0,0,0,65,0,0,0,65,65,65,
65,65,65,66,0,0,0,0,0,65,0,0,0,0,0,0,0,0,66,0,0,0,0,0,0,0,65,65,65,0,0,0,0,0,0,0,0,65,65,65,
65,65,65,0,0,0,0,0,0,65,0,0,66,0,0,0,0,0,0,0,0,0,0,0,0,0,0,65,65,0,0,0,0,65,0,0,0,65,65,65,
65,65,65,0,0,66,0,0,0,65,0,0,0,0,0,0,0,0,0,0,66,0,0,0,0,0,0,0,65,0,0,0,0,65,0,0,0,65,65,65,
65,65,65,0,0,0,0,0,0,65,0,0,0,0,66,0,0,0,0,0,0,0,0,0,0,0,0,0,65,0,0,0,0,65,0,0,0,65,65,65,
65,65,65,0,0,0,0,66,0,65,0,0,0,0,0,0,0,0,66,0,0,0,66,0,0,0,0,0,65,66,66,66,66,65,66,66,66,65,65,65,
65,65,65,0,0,0,0,0,0,65,0,0,0,0,0,0,0,0,0,0,0,0,0,0,0,0,0,0,0,0,0,0,0,65,0,0,0,65,65,65,
65,65,65,0,0,0,0,0,0,65,0,0,0,0,0,0,0,0,0,0,0,0,0,0,0,0,0,0,0,0,0,0,0,65,0,0,0,65,65,65,
65,65,65,0,0,0,65,65,65,65,69,69,69,69,69,69,69,69,69,65,65,65,65,65,65,65,65,65,65,65,65,65,65,65,0,0,0,65,65,65,
65,65,65,0,66,0,0,0,0,0,0,0,0,0,0,0,0,0,0,65,65,65,65,65,65,65,65,65,65,65,65,65,65,65,0,0,0,65,65,65,
65,65,65,0,0,0,0,0,0,0,0,0,0,0,0,0,0,0,0,65,65,65,65,65,65,65,65,65,65,65,65,65,65,65,0,0,0,65,65,65,
65,65,65,0,0,0,0,0,0,0,0,0,0,0,0,0,0,0,0,65,65,65,65,65,65,65,65,65,65,65,0,0,0,0,0,0,0,65,65,65,
65,65,65,0,66,0,0,0,0,0,0,0,0,0,0,0,0,0,0,0,0,0,0,0,0,0,0,0,0,0,0,0,0,0,0,0,0,65,65,65,
65,65,65,0,0,0,0,0,0,0,0,0,0,0,0,0,0,0,0,0,0,0,0,0,0,0,0,0,0,0,0,0,0,0,0,0,0,65,65,65,
65,65,65,65,65,65,65,65,65,65,65,69,69,69,69,67,67,67,67,67,67,67,67,67,67,67,67,67,67,67,67,67,67,67,68,68,68,65,65,65,
65,65,65,65,65,65,65,65,65,65,65,65,65,65,65,65,65,65,65,65,65,65,65,65,65,65,65,65,65,65,65,65,65,65,65,65,65,65,65,65,
65,65,65,65,65,65,65,65,65,65,65,65,65,65,65,65,65,65,65,65,65,65,65,65,65,65,65,65,65,65,65,65,65,65,65,65,65,65,65,65
</data>
 </layer>
</map>
