<?xml version="1.0" encoding="UTF-8"?>
<map version="1.10" tiledversion="1.12.1" orientation="orthogonal" renderorder="right-down" width="50" height="30" tilewidth="32" tileheight="32" infinite="0" nextlayerid="6" nextobjectid="24">
 <editorsettings>
  <export target="../../src/PolyGone/Maps/Level2-Dylan.json" format="json"/>
 </editorsettings>
 <tileset firstgid="1" source="../TiledSets/Proto.tsx"/>
 <tileset firstgid="65" source="../TiledSets/CollisionTiles.tsx"/>
 <tileset firstgid="81" source="../TiledSets/TextureSheet.tsx"/>
 <tileset firstgid="145" source="../TiledSets/PlayerSheet.tsx"/>
 <tileset firstgid="149" source="../TiledSets/EnemySheet.tsx"/>
 <imagelayer id="5" name="background" visible="0" parallaxx="0.8" parallaxy="0.9" repeatx="1" repeaty="1">
  <image source="../../src/PolyGone/Content/Textures/Backgrounds/CastleBackground.png" width="256" height="256"/>
 </imagelayer>
 <layer id="1" name="prototype" width="50" height="30">
  <data encoding="csv">
2,2,2,2,2,2,2,2,2,2,2,2,2,2,2,2,2,2,2,2,2,2,2,2,2,2,2,2,2,2,2,2,2,2,2,2,2,2,2,2,2,2,2,2,2,2,2,2,2,2,
2,2,2,2,2,2,2,2,2,2,2,2,2,2,2,2,2,2,2,2,2,2,2,2,2,2,2,2,2,2,2,2,2,2,2,2,2,2,2,2,2,2,2,2,2,2,2,2,2,2,
2,2,2,2,2,2,2,2,2,2,2,2,2,2,2,2,2,2,2,2,2,2,2,2,2,2,2,2,2,2,2,2,2,2,2,2,2,2,2,2,2,2,2,2,2,2,2,2,2,2,
2,2,2,0,0,0,0,0,0,0,0,0,0,0,0,0,0,0,0,0,0,0,0,0,0,0,0,0,0,0,0,0,0,0,0,0,0,0,0,0,0,0,0,0,0,0,0,2,2,2,
2,2,2,0,0,0,0,0,0,0,0,0,0,0,0,0,0,0,0,0,0,0,0,0,0,0,0,0,0,0,0,0,0,0,0,0,0,0,0,0,0,0,0,0,0,0,0,2,2,2,
2,2,2,0,0,0,0,0,0,0,0,0,0,0,0,0,0,0,0,0,0,0,0,0,0,0,0,0,0,0,0,0,0,0,0,0,0,0,0,0,0,0,0,0,0,0,0,2,2,2,
2,2,2,0,0,0,0,0,0,0,0,0,3,3,3,0,0,0,0,0,0,3,3,3,0,0,0,0,0,0,0,0,3,3,3,0,0,0,0,0,0,3,3,3,0,0,0,2,2,2,
2,2,2,0,0,0,0,0,0,0,0,0,0,0,0,0,0,0,0,0,0,0,0,0,0,0,0,0,0,0,0,0,0,0,0,0,0,0,0,0,0,0,0,0,0,0,0,2,2,2,
2,2,2,0,0,0,0,0,0,0,0,0,0,0,0,0,0,0,0,0,0,0,0,0,0,0,0,0,0,0,0,0,0,0,0,0,0,0,0,0,0,0,0,0,0,0,0,2,2,2,
2,2,2,0,0,0,0,0,0,0,0,0,0,0,0,0,0,0,0,0,0,0,0,0,0,0,0,0,0,0,0,0,0,0,0,0,0,0,0,0,0,0,0,0,0,0,0,2,2,2,
2,2,2,0,0,0,0,0,0,0,0,0,0,0,0,0,0,0,0,0,0,0,0,0,0,0,0,0,0,0,0,0,0,0,0,0,0,0,0,0,0,0,0,0,0,0,0,2,2,2,
2,2,2,0,0,0,0,0,0,0,0,0,0,0,0,0,0,0,0,0,0,0,0,0,0,0,0,0,0,0,0,0,0,0,0,0,0,0,0,0,0,0,0,0,0,0,0,2,2,2,
2,2,2,0,0,0,2,2,2,2,2,2,2,2,2,2,2,2,2,2,2,2,9,9,9,9,9,9,9,9,9,9,0,0,0,0,0,0,0,9,9,9,9,9,2,3,3,2,2,2,
2,2,2,0,0,0,2,2,2,2,2,2,2,2,2,2,2,2,2,2,2,2,2,2,2,2,2,2,2,2,2,2,0,0,0,0,0,0,0,2,2,2,2,2,2,0,0,2,2,2,
2,2,2,0,0,0,2,2,0,0,0,0,0,0,0,0,0,0,0,0,0,0,0,0,0,0,0,0,0,0,2,2,0,0,0,0,0,0,0,2,2,0,0,0,0,3,3,2,2,2,
2,2,2,0,0,0,2,2,0,0,0,0,0,0,0,0,0,0,0,0,0,0,0,0,0,0,0,0,0,0,2,2,0,0,0,0,0,0,0,2,2,0,0,0,0,0,0,2,2,2,
2,2,2,3,3,3,2,2,0,0,0,0,0,0,0,3,0,0,0,0,0,0,0,0,0,0,0,0,0,0,2,2,0,0,0,0,0,0,0,2,2,0,0,0,0,2,2,2,2,2,
2,2,2,0,0,0,2,2,0,0,0,0,0,0,0,0,0,0,0,0,0,0,0,0,0,0,0,0,0,0,2,2,0,0,0,0,0,0,0,2,2,0,0,0,0,2,2,2,2,2,
2,2,2,0,0,0,2,2,0,0,0,0,0,0,0,0,0,0,0,0,0,0,0,0,0,0,0,0,0,0,2,2,11,11,11,11,11,11,11,2,2,0,0,3,3,2,2,2,2,2,
2,2,2,0,0,0,2,2,0,0,0,0,0,0,0,0,0,0,3,3,3,2,2,2,0,0,0,0,0,0,2,2,2,2,2,2,2,2,2,2,2,0,0,0,0,2,2,2,2,2,
2,2,2,0,0,0,2,2,0,0,0,0,0,0,0,0,0,0,0,0,0,2,2,2,3,3,0,0,0,0,0,0,0,0,0,0,0,0,0,2,2,3,3,0,0,2,2,2,2,2,
2,2,2,0,0,0,2,2,0,0,0,0,0,0,0,0,0,0,0,0,0,2,2,2,0,0,0,0,0,0,0,0,0,0,0,0,0,0,0,2,2,0,0,0,0,2,2,2,2,2,
2,2,2,0,0,0,2,2,2,2,2,2,3,3,0,0,0,0,0,0,0,2,2,2,0,0,0,0,0,0,0,0,0,0,0,0,0,0,0,2,2,0,0,0,0,2,2,2,2,2,
2,2,2,0,0,0,2,2,2,2,2,2,0,0,0,0,0,0,0,0,0,2,2,2,0,0,0,3,3,3,0,0,0,3,3,3,0,0,0,2,2,3,3,0,0,0,0,2,2,2,
2,2,2,0,0,0,0,0,0,0,2,2,0,0,0,0,0,0,0,0,0,2,2,2,0,0,0,0,0,0,0,0,0,0,0,0,0,0,0,0,0,0,0,0,0,0,0,2,2,2,
2,2,2,0,0,0,0,0,0,0,2,2,0,0,0,0,0,0,0,0,0,2,2,2,0,0,0,0,0,0,0,0,0,0,0,0,0,0,0,0,0,0,0,0,0,0,0,2,2,2,
2,2,2,0,0,0,0,0,0,0,2,2,0,0,0,0,0,0,0,0,0,2,2,2,0,0,0,0,0,0,0,0,0,0,0,0,0,0,0,0,0,0,0,0,0,0,0,2,2,2,
2,2,2,2,2,2,2,2,2,2,2,2,11,11,11,11,11,11,11,11,11,2,2,2,2,2,2,10,10,10,2,2,2,2,2,2,2,2,2,10,10,10,10,2,2,2,2,2,2,2,
2,2,2,2,2,2,2,2,2,2,2,2,2,2,2,2,2,2,2,2,2,2,2,2,2,2,2,2,2,2,2,2,2,2,2,2,2,2,2,2,2,2,2,2,2,2,2,2,2,2,
2,2,2,2,2,2,2,2,2,2,2,2,2,2,2,2,2,2,2,2,2,2,2,2,2,2,2,2,2,2,2,2,2,2,2,2,2,2,2,2,2,2,2,2,2,2,2,2,2,2
</data>
 </layer>
 <layer id="4" name="tiles" width="50" height="30" visible="0">
  <data encoding="csv">
82,84,84,84,84,84,84,84,84,84,84,84,84,84,84,84,84,84,84,84,84,84,84,84,84,84,84,84,84,84,84,84,84,84,84,84,84,84,84,84,84,84,84,84,84,84,84,84,84,82,
82,84,84,84,84,84,84,84,84,84,84,84,84,84,84,84,84,84,84,84,84,84,84,84,84,84,84,84,84,84,84,84,84,84,84,84,84,84,84,84,84,84,84,84,84,84,84,84,84,82,
82,84,84,84,84,84,84,84,84,84,84,84,84,84,84,84,84,84,84,84,84,84,84,84,84,84,84,84,84,84,84,84,84,84,84,84,84,84,84,84,84,84,84,84,84,84,84,84,84,82,
82,84,85,0,0,0,0,0,0,0,0,0,0,0,0,0,0,0,0,0,0,0,0,0,0,0,0,0,0,0,0,0,0,0,0,0,0,0,0,0,0,0,0,0,0,0,0,83,84,82,
82,84,85,0,0,0,0,0,0,0,0,0,0,0,0,0,0,0,0,0,0,0,0,0,0,0,0,0,0,0,0,0,0,0,0,0,0,0,0,0,0,0,0,0,0,0,0,83,84,82,
82,84,85,0,0,0,0,0,0,0,0,0,0,0,0,0,0,0,0,0,0,0,0,0,0,0,0,0,0,0,0,0,0,0,0,0,0,0,0,0,0,0,0,0,0,0,0,83,84,82,
82,84,85,0,0,0,0,0,0,0,0,0,98,99,100,0,0,0,0,0,0,98,99,100,0,0,0,0,0,0,0,0,98,99,100,0,0,0,0,0,0,98,99,100,0,0,0,83,84,82,
82,84,85,0,0,0,0,0,0,0,0,0,0,0,0,0,0,0,0,0,0,0,0,0,0,0,0,0,0,0,0,0,0,0,0,0,0,0,0,0,0,0,0,0,0,0,0,83,84,82,
82,84,85,0,0,0,0,0,0,0,0,0,0,0,0,0,0,0,0,0,0,0,0,0,0,0,0,0,0,0,0,0,0,0,0,0,0,0,0,0,0,0,0,0,0,0,0,83,84,82,
82,84,85,0,0,0,0,0,0,0,0,0,0,0,0,0,0,0,0,0,0,0,0,0,0,0,0,0,0,0,0,0,0,0,0,0,0,0,0,0,0,0,0,0,0,0,0,83,84,82,
82,84,85,0,0,0,0,0,0,0,0,0,0,0,0,0,0,0,0,0,0,0,0,0,0,0,0,0,0,0,0,0,0,0,0,0,0,0,0,0,0,0,0,0,0,0,0,83,84,82,
82,84,85,0,0,0,0,0,0,0,0,0,0,0,0,0,0,0,0,0,0,0,0,0,0,0,0,0,0,0,0,0,0,0,0,0,0,0,0,0,0,0,0,0,0,0,0,83,84,82,
82,84,85,0,0,0,83,84,84,84,84,84,84,84,84,84,84,84,84,84,84,82,106,107,107,107,107,107,107,107,107,108,0,0,0,0,0,0,0,106,107,107,107,108,82,98,100,83,84,82,
82,84,85,0,0,0,83,84,84,84,84,84,84,84,84,84,84,84,84,84,84,84,84,84,84,84,84,84,84,84,84,85,0,0,0,0,0,0,0,83,84,84,84,84,85,0,0,83,84,82,
82,84,85,0,0,0,83,85,0,0,0,0,0,0,0,0,0,0,0,0,0,0,0,0,0,0,0,0,0,0,83,85,0,0,0,0,0,0,0,83,85,0,0,0,0,98,100,83,84,82,
82,84,85,0,0,0,83,85,0,0,0,0,0,0,0,0,0,0,0,0,0,0,0,0,0,0,0,0,0,0,83,85,0,0,0,0,0,0,0,83,85,0,0,0,0,0,0,83,84,82,
82,84,85,98,99,100,83,85,0,0,0,0,0,0,0,97,0,0,0,0,0,0,0,0,0,0,0,0,0,0,83,85,0,0,0,0,0,0,0,83,85,0,0,0,0,83,84,84,84,82,
82,84,85,0,0,0,83,85,0,0,0,0,0,0,0,0,0,0,0,0,0,0,0,0,0,0,0,0,0,0,83,85,0,0,0,0,0,0,0,83,85,0,0,0,0,83,84,84,84,82,
82,84,85,0,0,0,83,85,0,0,0,0,0,0,0,0,0,0,0,0,0,0,0,0,0,0,0,0,0,0,83,82,122,123,123,123,123,123,124,82,85,0,0,98,100,83,84,84,84,82,
82,84,85,0,0,0,83,85,0,0,0,0,0,0,0,0,0,0,98,99,100,83,84,85,0,0,0,0,0,0,83,84,84,84,84,84,84,84,84,84,85,0,0,0,0,83,84,84,84,82,
82,84,85,0,0,0,83,85,0,0,0,0,0,0,0,0,0,0,0,0,0,83,84,85,98,100,0,0,0,0,0,0,0,0,0,0,0,0,0,83,85,98,100,0,0,83,84,84,84,82,
82,84,85,0,0,0,83,85,0,0,0,0,0,0,0,0,0,0,0,0,0,83,84,85,0,0,0,0,0,0,0,0,0,0,0,0,0,0,0,83,85,0,0,0,0,83,84,84,84,82,
82,84,85,0,0,0,83,84,84,84,84,85,98,100,0,0,0,0,0,0,0,83,84,85,0,0,0,0,0,0,0,0,0,0,0,0,0,0,0,83,85,0,0,0,0,83,84,84,84,82,
82,84,85,0,0,0,83,84,84,84,84,85,0,0,0,0,0,0,0,0,0,83,84,85,0,0,0,98,99,100,0,0,0,98,99,100,0,0,0,83,85,98,100,0,0,0,0,83,84,82,
82,84,85,0,0,0,0,0,0,0,83,85,0,0,0,0,0,0,0,0,0,83,84,85,0,0,0,0,0,0,0,0,0,0,0,0,0,0,0,0,0,0,0,0,0,0,0,83,84,82,
82,84,85,0,0,0,0,0,0,0,83,85,0,0,0,0,0,0,0,0,0,83,84,85,0,0,0,0,0,0,0,0,0,0,0,0,0,0,0,0,0,0,0,0,0,0,0,83,84,82,
82,84,85,0,0,0,0,0,0,0,83,85,0,0,0,0,0,0,0,0,0,83,84,85,0,0,0,0,0,0,0,0,0,0,0,0,0,0,0,0,0,0,0,0,0,0,0,83,84,82,
82,84,84,84,84,84,84,84,84,84,84,82,122,123,123,123,123,123,123,123,124,82,84,84,84,84,82,114,115,116,82,84,84,84,84,84,84,84,82,114,115,115,116,82,84,84,84,84,84,82,
82,84,84,84,84,84,84,84,84,84,84,84,84,84,84,84,84,84,84,84,84,84,84,84,84,84,84,84,84,84,84,84,84,84,84,84,84,84,84,84,84,84,84,84,84,84,84,84,84,82,
82,84,84,84,84,84,84,84,84,84,84,84,84,84,84,84,84,84,84,84,84,84,84,84,84,84,84,84,84,84,84,84,84,84,84,84,84,84,84,84,84,84,84,84,84,84,84,84,84,82
</data>
 </layer>
 <objectgroup id="3" name="objects">
  <object id="1" type="Player" gid="145" x="224" y="864" width="32" height="32"/>
  <object id="2" name="Goal" type="Goal" x="288" y="704" width="32" height="32"/>
  <object id="4" name="Hub" type="Door" x="256" y="864" width="32" height="32">
   <properties>
    <property name="connects" value="Hub"/>
    <property name="loadX" type="int" value="64"/>
    <property name="loadY" type="int" value="576"/>
   </properties>
  </object>
  <object id="5" type="Turret" gid="150" x="416" y="192" width="32" height="32"/>
  <object id="6" type="Turret" gid="150" x="704" y="192" width="32" height="32"/>
  <object id="7" type="Turret" gid="150" x="1056" y="192" width="32" height="32"/>
  <object id="8" type="Turret" gid="150" x="1344" y="192" width="32" height="32"/>
  <object id="9" type="Turret" gid="150" x="1088" y="736" width="32" height="32"/>
  <object id="10" type="Turret" gid="150" x="896" y="736" width="32" height="32"/>
  <object id="11" type="Turret" gid="150" x="480" y="512" width="32" height="32"/>
  <object id="12" type="Enemy" gid="149" x="384" y="704" width="32" height="32"/>
  <object id="13" type="Enemy" gid="149" x="704" y="608" width="32" height="32"/>
  <object id="14" type="Enemy" gid="149" x="832" y="864" width="32" height="32"/>
  <object id="15" type="Enemy" gid="149" x="1152" y="864" width="32" height="32"/>
  <object id="16" type="Enemy" gid="149" x="1440" y="864" width="32" height="32"/>
  <object id="17" type="Enemy" gid="149" x="1344" y="736" width="32" height="32"/>
  <object id="18" type="Enemy" gid="149" x="1408" y="576" width="32" height="32"/>
  <object id="19" type="Enemy" gid="149" x="1344" y="384" width="32" height="32"/>
  <object id="20" type="Enemy" gid="149" x="896" y="384" width="32" height="32"/>
  <object id="21" type="Enemy" gid="149" x="544" y="384" width="32" height="32"/>
  <object id="22" type="Enemy" gid="149" x="288" y="384" width="32" height="32"/>
 </objectgroup>
 <layer id="2" name="collisions" width="50" height="30">
  <data encoding="csv">
65,65,65,65,65,65,65,65,65,65,65,65,65,65,65,65,65,65,65,65,65,65,65,65,65,65,65,65,65,65,65,65,65,65,65,65,65,65,65,65,65,65,65,65,65,65,65,65,65,65,
65,65,65,65,65,65,65,65,65,65,65,65,65,65,65,65,65,65,65,65,65,65,65,65,65,65,65,65,65,65,65,65,65,65,65,65,65,65,65,65,65,65,65,65,65,65,65,65,65,65,
65,65,65,65,65,65,65,65,65,65,65,65,65,65,65,65,65,65,65,65,65,65,65,65,65,65,65,65,65,65,65,65,65,65,65,65,65,65,65,65,65,65,65,65,65,65,65,65,65,65,
65,65,65,0,0,0,0,0,0,0,0,0,0,0,0,0,0,0,0,0,0,0,0,0,0,0,0,0,0,0,0,0,0,0,0,0,0,0,0,0,0,0,0,0,0,0,0,65,65,65,
65,65,65,0,0,0,0,0,0,0,0,0,0,0,0,0,0,0,0,0,0,0,0,0,0,0,0,0,0,0,0,0,0,0,0,0,0,0,0,0,0,0,0,0,0,0,0,65,65,65,
65,65,65,0,0,0,0,0,0,0,0,0,0,0,0,0,0,0,0,0,0,0,0,0,0,0,0,0,0,0,0,0,0,0,0,0,0,0,0,0,0,0,0,0,0,0,0,65,65,65,
65,65,65,0,0,0,0,0,0,0,0,0,66,66,66,0,0,0,0,0,0,66,66,66,0,0,0,0,0,0,0,0,66,66,66,0,0,0,0,0,0,66,66,66,0,0,0,65,65,65,
65,65,65,0,0,0,0,0,0,0,0,0,0,0,0,0,0,0,0,0,0,0,0,0,0,0,0,0,0,0,0,0,0,0,0,0,0,0,0,0,0,0,0,0,0,0,0,65,65,65,
65,65,65,0,0,0,0,0,0,0,0,0,0,0,0,0,0,0,0,0,0,0,0,0,0,0,0,0,0,0,0,0,0,0,0,0,0,0,0,0,0,0,0,0,0,0,0,65,65,65,
65,65,65,0,0,0,0,0,0,0,0,0,0,0,0,0,0,0,0,0,0,0,0,0,0,0,0,0,0,0,0,0,0,0,0,0,0,0,0,0,0,0,0,0,0,0,0,65,65,65,
65,65,65,0,0,0,0,0,0,0,0,0,0,0,0,0,0,0,0,0,0,0,0,0,0,0,0,0,0,0,0,0,0,0,0,0,0,0,0,0,0,0,0,0,0,0,0,65,65,65,
65,65,65,0,0,0,0,0,0,0,0,0,0,0,0,0,0,0,0,0,0,0,0,0,0,0,0,0,0,0,0,0,0,0,0,0,0,0,0,0,0,0,0,0,0,0,0,65,65,65,
65,65,65,0,0,0,65,65,65,65,65,65,65,65,65,65,65,65,65,65,65,65,67,67,67,67,67,67,67,67,67,67,0,0,0,0,0,0,0,67,67,67,67,67,65,66,66,65,65,65,
65,65,65,0,0,0,65,65,65,65,65,65,65,65,65,65,65,65,65,65,65,65,65,65,65,65,65,65,65,65,65,65,0,0,0,0,0,0,0,65,65,65,65,65,65,0,0,65,65,65,
65,65,65,0,0,0,65,65,0,0,0,0,0,0,0,0,0,0,0,0,0,0,0,0,0,0,0,0,0,0,65,65,0,0,0,0,0,0,0,65,65,0,0,0,0,66,66,65,65,65,
65,65,65,0,0,0,65,65,0,0,0,0,0,0,0,0,0,0,0,0,0,0,0,0,0,0,0,0,0,0,65,65,0,0,0,0,0,0,0,65,65,0,0,0,0,0,0,65,65,65,
65,65,65,66,66,66,65,65,0,0,0,0,0,0,0,66,0,0,0,0,0,0,0,0,0,0,0,0,0,0,65,65,0,0,0,0,0,0,0,65,65,0,0,0,0,65,65,65,65,65,
65,65,65,0,0,0,65,65,0,0,0,0,0,0,0,0,0,0,0,0,0,0,0,0,0,0,0,0,0,0,65,65,0,0,0,0,0,0,0,65,65,0,0,0,0,65,65,65,65,65,
65,65,65,0,0,0,65,65,0,0,0,0,0,0,0,0,0,0,0,0,0,0,0,0,0,0,0,0,0,0,65,65,69,69,69,69,69,69,69,65,65,0,0,66,66,65,65,65,65,65,
65,65,65,0,0,0,65,65,0,0,0,0,0,0,0,0,0,0,66,66,66,65,65,65,0,0,0,0,0,0,65,65,65,65,65,65,65,65,65,65,65,0,0,0,0,65,65,65,65,65,
65,65,65,0,0,0,65,65,0,0,0,0,0,0,0,0,0,0,0,0,0,65,65,65,66,66,0,0,0,0,0,0,0,0,0,0,0,0,0,65,65,66,66,0,0,65,65,65,65,65,
65,65,65,0,0,0,65,65,0,0,0,0,0,0,0,0,0,0,0,0,0,65,65,65,0,0,0,0,0,0,0,0,0,0,0,0,0,0,0,65,65,0,0,0,0,65,65,65,65,65,
65,65,65,0,0,0,65,65,65,65,65,65,66,66,0,0,0,0,0,0,0,65,65,65,0,0,0,0,0,0,0,0,0,0,0,0,0,0,0,65,65,0,0,0,0,65,65,65,65,65,
65,65,65,0,0,0,65,65,65,65,65,65,0,0,0,0,0,0,0,0,0,65,65,65,0,0,0,66,66,66,0,0,0,66,66,66,0,0,0,65,65,66,66,0,0,0,0,65,65,65,
65,65,65,0,0,0,0,0,0,0,65,65,0,0,0,0,0,0,0,0,0,65,65,65,0,0,0,0,0,0,0,0,0,0,0,0,0,0,0,0,0,0,0,0,0,0,0,65,65,65,
65,65,65,0,0,0,0,0,0,0,65,65,0,0,0,0,0,0,0,0,0,65,65,65,0,0,0,0,0,0,0,0,0,0,0,0,0,0,0,0,0,0,0,0,0,0,0,65,65,65,
65,65,65,0,0,0,0,0,0,0,65,65,0,0,0,0,0,0,0,0,0,65,65,65,0,0,0,0,0,0,0,0,0,0,0,0,0,0,0,0,0,0,0,0,0,0,0,65,65,65,
65,65,65,65,65,65,65,65,65,65,65,65,69,69,69,69,69,69,69,69,69,65,65,65,65,65,65,68,68,68,65,65,65,65,65,65,65,65,65,68,68,68,68,65,65,65,65,65,65,65,
65,65,65,65,65,65,65,65,65,65,65,65,65,65,65,65,65,65,65,65,65,65,65,65,65,65,65,65,65,65,65,65,65,65,65,65,65,65,65,65,65,65,65,65,65,65,65,65,65,65,
65,65,65,65,65,65,65,65,65,65,65,65,65,65,65,65,65,65,65,65,65,65,65,65,65,65,65,65,65,65,65,65,65,65,65,65,65,65,65,65,65,65,65,65,65,65,65,65,65,65
</data>
 </layer>
</map>
