<?xml version="1.0" encoding="UTF-8"?>
<map version="1.10" tiledversion="1.12.1" orientation="orthogonal" renderorder="right-down" width="90" height="30" tilewidth="32" tileheight="32" infinite="0" nextlayerid="6" nextobjectid="49">
 <editorsettings>
  <export target="../../src/PolyGone/Maps/Level1-Dylan.json" format="json"/>
 </editorsettings>
 <tileset firstgid="1" source="../TiledSets/Proto.tsx"/>
 <tileset firstgid="65" source="../TiledSets/CollisionTiles.tsx"/>
 <tileset firstgid="81" source="../TiledSets/PlayerSheet.tsx"/>
 <tileset firstgid="85" source="../TiledSets/TextureSheet.tsx"/>
 <tileset firstgid="149" source="../TiledSets/EnemySheet.tsx"/>
 <imagelayer id="5" name="background" visible="0" parallaxx="0.8" parallaxy="0.9" repeatx="1" repeaty="1">
  <image source="../../src/PolyGone/Content/Textures/Backgrounds/CastleBackground.png" width="256" height="256"/>
 </imagelayer>
 <layer id="1" name="prototype" width="90" height="30">
  <data encoding="csv">
2,2,2,2,2,2,2,2,2,2,2,2,2,2,2,2,2,2,2,2,2,2,2,2,2,2,2,2,2,2,2,2,2,2,2,2,2,2,2,2,2,2,2,2,2,2,2,2,2,2,2,2,2,2,2,2,2,2,2,2,2,2,2,2,2,2,2,2,2,2,2,2,2,2,2,2,2,2,2,2,2,2,2,2,2,2,2,2,2,2,
2,2,2,2,2,2,2,2,2,2,2,2,2,2,2,2,2,2,2,2,2,2,2,2,2,2,2,2,2,2,2,2,2,2,2,2,2,2,2,2,2,2,2,2,2,2,2,2,2,2,2,2,2,2,2,2,2,2,2,2,2,2,2,2,2,2,2,2,2,2,2,2,2,2,2,2,2,2,2,2,2,2,2,2,2,2,2,2,2,2,
2,2,2,2,2,2,2,2,2,2,2,2,2,2,2,2,2,2,2,2,2,2,2,2,2,2,2,2,2,2,2,2,2,2,2,2,2,2,2,2,2,2,2,2,2,2,2,2,2,2,2,2,2,2,2,2,2,2,2,2,2,2,2,2,2,2,2,2,2,2,2,2,2,2,2,2,2,2,2,2,2,2,2,2,2,2,2,2,2,2,
2,2,2,0,0,0,0,0,0,0,0,0,0,0,0,0,0,0,0,0,0,0,0,0,0,0,0,0,0,0,0,0,0,0,0,0,0,0,0,0,0,0,0,0,0,0,0,0,0,0,0,0,0,0,0,0,0,0,0,0,0,0,0,0,0,0,0,0,0,0,0,0,0,0,0,0,0,0,0,0,0,0,0,0,0,0,0,2,2,2,
2,2,2,0,0,0,0,0,0,0,0,0,0,0,0,0,0,0,0,0,0,0,0,0,0,0,0,0,0,0,0,0,0,0,0,0,0,0,0,0,0,0,0,0,0,0,0,0,0,0,0,0,0,0,0,0,0,0,0,0,0,0,0,0,0,0,0,0,0,0,0,0,0,0,0,0,0,0,0,0,0,0,0,0,0,0,0,2,2,2,
2,2,2,0,0,0,0,0,0,0,0,0,0,0,0,0,0,0,0,0,0,0,0,0,0,0,0,0,0,0,2,2,0,0,0,0,0,0,0,0,0,0,0,0,2,2,2,0,0,0,0,0,0,0,0,0,0,0,0,0,0,0,0,0,0,0,2,2,2,0,0,0,0,0,0,0,0,0,0,0,0,0,0,0,0,0,0,2,2,2,
2,2,2,0,0,0,0,0,0,0,0,0,0,0,0,0,0,2,2,0,0,0,0,0,0,0,0,0,0,0,0,0,0,0,0,0,0,0,0,0,0,0,0,0,0,0,0,0,0,0,0,0,0,0,0,0,0,0,0,0,0,0,0,0,0,0,0,0,0,0,0,0,0,0,0,0,0,0,0,0,0,0,0,0,0,0,0,2,2,2,
2,2,2,0,0,0,0,0,0,0,0,0,0,2,2,0,0,0,0,0,3,0,0,0,0,2,2,2,0,0,0,0,0,2,2,2,2,2,2,2,2,2,0,0,0,0,0,0,3,0,0,0,0,0,0,0,2,2,2,0,0,2,2,2,0,0,0,0,0,0,0,2,2,2,0,0,0,0,0,0,2,2,0,0,0,0,0,2,2,2,
2,2,2,0,0,0,0,0,0,0,0,0,0,0,0,0,0,0,0,0,0,0,0,0,0,0,0,0,0,0,0,0,0,0,0,0,0,0,0,0,0,0,0,0,0,0,0,0,0,0,0,0,0,0,0,0,0,0,0,0,0,0,0,0,0,0,0,0,0,0,0,0,0,0,0,0,0,0,0,0,0,0,0,0,0,0,0,2,2,2,
2,2,2,0,0,0,0,0,3,3,2,2,2,11,11,11,11,11,11,11,11,11,2,2,11,11,11,11,11,11,11,11,11,11,11,11,11,11,11,11,11,11,11,11,11,11,11,11,11,11,2,2,2,2,11,11,11,11,11,11,11,11,11,11,11,11,11,11,11,11,11,11,11,11,11,11,11,2,2,11,11,11,11,2,2,3,2,2,2,2,
2,2,2,0,0,0,0,0,0,0,2,2,2,2,2,2,2,2,2,2,2,2,2,2,2,2,2,2,2,2,2,2,2,2,2,2,2,2,2,2,2,2,2,2,2,2,2,2,2,2,2,2,2,2,2,2,2,2,2,2,2,2,2,2,2,2,2,2,2,2,2,2,2,2,2,2,2,2,2,2,2,2,2,2,2,3,2,2,2,2,
2,2,2,0,0,0,0,0,0,0,2,2,0,0,0,0,0,0,0,0,0,0,0,0,0,0,0,0,0,0,0,0,0,0,0,0,0,0,0,0,0,0,0,0,0,0,0,0,0,0,0,0,0,0,0,0,0,0,0,0,0,0,0,0,0,0,0,0,0,0,0,0,0,0,0,0,0,0,0,0,0,0,0,0,0,3,0,2,2,2,
2,2,2,0,0,0,0,0,3,3,2,2,0,0,0,0,0,0,0,0,0,0,0,0,0,0,0,0,0,0,0,0,0,0,0,0,0,0,0,0,0,0,0,0,0,0,0,0,0,0,0,0,0,0,0,0,0,0,0,0,0,0,0,0,0,0,0,0,0,0,0,0,0,0,0,0,0,0,0,0,0,0,0,0,0,3,0,2,2,2,
2,2,2,0,0,0,0,0,0,0,2,2,0,0,0,0,0,0,0,0,2,2,2,0,0,0,0,0,0,0,0,0,0,0,0,0,0,0,3,3,0,0,0,3,3,0,0,0,0,3,3,0,0,0,0,0,0,0,0,0,0,0,0,0,0,0,0,0,0,0,0,0,0,0,0,0,0,0,0,0,0,0,0,0,0,3,0,2,2,2,
2,2,2,0,0,0,0,0,0,0,0,0,0,0,0,3,3,3,0,0,2,2,2,0,3,3,0,0,0,0,2,2,2,0,0,0,0,0,0,0,0,0,0,0,0,0,0,0,0,0,0,0,0,0,0,0,2,2,2,0,0,0,0,0,0,2,2,2,0,0,0,0,0,0,0,0,0,0,0,0,0,0,0,0,0,3,0,2,2,2,
2,2,2,2,2,3,3,0,0,0,0,0,0,0,0,0,0,0,0,0,2,2,2,0,0,0,0,0,0,0,2,2,2,0,0,0,0,0,0,0,0,0,0,0,0,0,0,0,0,0,0,0,0,0,0,0,2,2,2,0,0,0,0,0,0,2,2,2,0,0,0,0,0,0,0,2,2,2,0,0,0,0,0,0,0,3,0,2,2,2,
2,2,2,2,2,0,0,0,0,0,0,0,0,0,0,0,0,0,0,0,2,2,2,0,0,0,0,0,0,0,2,2,2,0,0,0,0,0,0,0,0,0,0,0,0,0,0,0,0,0,0,0,0,0,0,0,2,2,2,0,0,0,0,0,0,2,2,2,0,0,2,2,2,0,0,0,0,0,0,0,2,2,0,0,0,3,0,2,2,2,
2,2,2,2,2,0,0,0,0,0,0,0,0,0,0,0,0,0,0,0,2,2,2,0,0,0,0,0,0,0,2,2,2,0,0,0,0,0,0,0,0,0,0,0,0,0,0,0,0,0,0,0,0,0,0,0,2,2,2,0,0,0,0,0,0,2,2,2,0,0,0,0,0,0,0,0,0,0,0,0,0,0,0,0,0,3,0,2,2,2,
2,2,2,2,2,0,0,0,3,3,2,2,2,2,10,10,10,2,2,2,2,2,2,2,2,10,10,10,2,2,2,2,2,10,10,9,9,9,9,9,9,11,11,11,11,9,9,9,9,9,9,9,10,10,10,2,2,2,2,2,10,10,10,2,2,2,2,2,2,11,11,11,11,11,11,11,11,11,11,11,11,11,11,2,2,3,2,2,2,2,
2,2,2,2,2,0,0,0,0,0,2,2,2,2,2,2,2,2,2,2,2,2,2,2,2,2,2,2,2,2,2,2,2,2,2,2,2,2,2,2,2,2,2,2,2,2,2,2,2,2,2,2,2,2,2,2,2,2,2,2,2,2,2,2,2,2,2,2,2,2,2,2,2,2,2,2,2,2,2,2,2,2,2,2,2,3,2,2,2,2,
2,2,2,2,2,0,0,0,0,0,0,0,0,0,0,0,0,0,0,0,0,0,0,0,0,0,0,0,0,0,0,0,0,0,0,0,0,0,0,0,0,0,0,0,0,0,0,0,0,0,0,0,0,0,0,0,0,0,0,0,0,0,0,0,0,0,0,0,0,0,0,0,0,0,0,0,0,0,0,0,0,0,0,0,0,3,0,2,2,2,
2,2,2,2,2,3,3,0,0,0,0,0,0,0,0,0,0,0,0,0,0,0,0,0,0,0,0,0,0,0,0,0,0,0,0,0,0,0,0,0,0,0,0,0,0,0,0,0,0,0,0,0,0,0,0,0,0,0,0,0,0,0,0,0,0,0,0,0,0,0,0,0,0,0,0,0,0,0,0,0,0,0,0,0,0,3,0,2,2,2,
2,2,2,2,2,0,0,0,0,0,0,0,0,0,0,0,0,0,0,0,2,2,2,2,2,0,0,0,0,0,0,0,0,0,0,0,0,0,0,0,0,0,0,0,0,0,0,0,0,0,2,2,2,2,2,0,0,0,0,0,0,0,0,0,0,0,0,0,0,0,2,2,2,2,2,0,0,0,0,0,0,0,0,0,0,3,0,2,2,2,
2,2,2,0,0,0,0,0,0,0,0,0,0,0,0,0,0,0,0,0,2,2,2,2,2,0,0,0,0,0,0,0,0,0,0,0,0,0,0,0,2,2,2,2,2,0,0,0,0,0,2,2,2,2,2,0,0,0,0,0,0,0,0,0,0,0,0,0,0,0,2,2,2,2,2,0,0,0,0,0,0,0,0,0,0,3,0,2,2,2,
2,2,2,0,0,0,0,0,3,3,2,2,0,0,0,0,3,3,0,0,2,2,2,2,2,0,0,3,3,0,0,0,0,0,0,0,3,3,0,0,2,2,2,2,2,0,0,3,3,0,2,2,2,2,2,0,3,3,0,0,0,0,0,0,0,0,0,3,3,0,2,2,2,2,2,0,3,3,0,0,0,0,0,0,0,3,0,2,2,2,
2,2,2,0,0,0,0,0,0,0,2,2,0,0,0,0,0,0,0,0,2,2,2,2,2,0,0,0,0,0,0,2,2,2,2,0,0,0,0,0,2,2,2,2,2,0,0,0,0,0,2,2,2,2,2,0,0,0,0,2,2,2,2,2,2,2,0,0,0,0,2,2,2,2,2,0,0,0,0,2,2,0,0,0,0,3,0,2,2,2,
2,2,2,0,0,0,0,0,0,0,2,2,0,0,0,0,0,0,0,0,2,2,2,2,2,0,0,0,0,0,0,2,2,2,2,0,0,0,0,0,2,2,2,2,2,0,0,0,0,0,2,2,2,2,2,0,0,0,0,2,2,2,2,2,2,2,0,0,0,0,2,2,2,2,2,0,0,0,0,2,2,0,0,0,0,3,0,2,2,2,
2,2,2,2,2,2,2,2,2,2,2,2,2,2,2,2,2,2,2,2,2,2,2,2,2,2,2,2,2,2,2,2,2,2,2,2,2,2,2,2,2,2,2,2,2,2,2,2,2,2,2,2,2,2,2,2,2,2,2,2,2,2,2,2,2,2,2,2,2,2,2,2,2,2,2,2,2,2,2,2,2,2,2,2,2,2,2,2,2,2,
2,2,2,2,2,2,2,2,2,2,2,2,2,2,2,2,2,2,2,2,2,2,2,2,2,2,2,2,2,2,2,2,2,2,2,2,2,2,2,2,2,2,2,2,2,2,2,2,2,2,2,2,2,2,2,2,2,2,2,2,2,2,2,2,2,2,2,2,2,2,2,2,2,2,2,2,2,2,2,2,2,2,2,2,2,2,2,2,2,2,
2,2,2,2,2,2,2,2,2,2,2,2,2,2,2,2,2,2,2,2,2,2,2,2,2,2,2,2,2,2,2,2,2,2,2,2,2,2,2,2,2,2,2,2,2,2,2,2,2,2,2,2,2,2,2,2,2,2,2,2,2,2,2,2,2,2,2,2,2,2,2,2,2,2,2,2,2,2,2,2,2,2,2,2,2,2,2,2,2,2
</data>
 </layer>
 <layer id="4" name="tiles" width="90" height="30" visible="0">
  <data encoding="csv">
86,88,88,88,88,88,88,88,88,88,88,88,88,88,88,88,88,88,88,88,88,88,88,88,88,88,88,88,88,88,88,88,88,88,88,88,88,88,88,88,88,88,88,88,88,88,88,88,88,88,88,88,88,88,88,88,88,88,88,88,88,88,88,88,88,88,88,88,88,88,88,88,88,88,88,88,88,88,88,88,88,88,88,88,88,88,88,88,88,86,
86,88,88,88,88,88,88,88,88,88,88,88,88,88,88,88,88,88,88,88,88,88,88,88,88,88,88,88,88,88,88,88,88,88,88,88,88,88,88,88,88,88,88,88,88,88,88,88,88,88,88,88,88,88,88,88,88,88,88,88,88,88,88,88,88,88,88,88,88,88,88,88,88,88,88,88,88,88,88,88,88,88,88,88,88,88,88,88,88,86,
86,88,88,88,88,88,88,88,88,88,88,88,88,88,88,88,88,88,88,88,88,88,88,88,88,88,88,88,88,88,88,88,88,88,88,88,88,88,88,88,88,88,88,88,88,88,88,88,88,88,88,88,88,88,88,88,88,88,88,88,88,88,88,88,88,88,88,88,88,88,88,88,88,88,88,88,88,88,88,88,88,88,88,88,88,88,88,88,88,86,
86,88,89,0,0,0,0,0,0,0,0,0,0,0,0,0,0,0,0,0,0,0,0,0,0,0,0,0,0,0,0,0,0,0,0,0,0,0,0,0,0,0,0,0,0,0,0,0,0,0,0,0,0,0,0,0,0,0,0,0,0,0,0,0,0,0,0,0,0,0,0,0,0,0,0,0,0,0,0,0,0,0,0,0,0,0,0,87,88,86,
86,88,89,0,0,0,0,0,0,0,0,0,0,0,0,0,0,0,0,0,0,0,0,0,0,0,0,0,0,0,0,0,0,0,0,0,0,0,0,0,0,0,0,0,0,0,0,0,0,0,0,0,0,0,0,0,0,0,0,0,0,0,0,0,0,0,0,0,0,0,0,0,0,0,0,0,0,0,0,0,0,0,0,0,0,0,0,87,88,86,
86,88,89,0,0,0,0,0,0,0,0,0,0,0,0,0,0,0,0,0,0,0,0,0,0,0,0,0,0,0,87,89,0,0,0,0,0,0,0,0,0,0,0,0,87,88,89,0,0,0,0,0,0,0,0,0,0,0,0,0,0,0,0,0,0,0,87,88,89,0,0,0,0,0,0,0,0,0,0,0,0,0,0,0,0,0,0,87,88,86,
86,88,89,0,0,0,0,0,0,0,0,0,0,0,0,0,0,87,89,0,0,0,0,0,0,0,0,0,0,0,0,0,0,0,0,0,0,0,0,0,0,0,0,0,0,0,0,0,0,0,0,0,0,0,0,0,0,0,0,0,0,0,0,0,0,0,0,0,0,0,0,0,0,0,0,0,0,0,0,0,0,0,0,0,0,0,0,87,88,86,
86,88,89,0,0,0,0,0,0,0,0,0,0,87,89,0,0,0,0,0,101,0,0,0,0,87,88,89,0,0,0,0,0,87,88,88,88,88,88,88,88,89,0,0,0,0,0,0,101,0,0,0,0,0,0,0,87,88,89,0,0,87,88,89,0,0,0,0,0,0,0,87,88,89,0,0,0,0,0,0,87,89,0,0,0,0,0,87,88,86,
86,88,89,0,0,0,0,0,0,0,0,0,0,0,0,0,0,0,0,0,0,0,0,0,0,0,0,0,0,0,0,0,0,0,0,0,0,0,0,0,0,0,0,0,0,0,0,0,0,0,0,0,0,0,0,0,0,0,0,0,0,0,0,0,0,0,0,0,0,0,0,0,0,0,0,0,0,0,0,0,0,0,0,0,0,0,0,87,88,86,
86,88,89,0,0,0,0,0,102,104,87,88,86,126,127,127,127,127,127,127,127,128,86,86,126,127,127,127,127,127,127,127,127,127,127,127,127,127,127,127,127,127,127,127,127,127,127,127,127,128,86,88,88,86,126,127,127,127,127,127,127,127,127,127,127,127,127,127,127,127,127,127,127,127,127,127,128,86,86,126,127,127,128,86,89,103,87,88,88,86,
86,88,89,0,0,0,0,0,0,0,87,88,88,88,88,88,88,88,88,88,88,88,88,88,88,88,88,88,88,88,88,88,88,88,88,88,88,88,88,88,88,88,88,88,88,88,88,88,88,88,88,88,88,88,88,88,88,88,88,88,88,88,88,88,88,88,88,88,88,88,88,88,88,88,88,88,88,88,88,88,88,88,88,88,89,103,87,88,88,86,
86,88,89,0,0,0,0,0,0,0,87,89,0,0,0,0,0,0,0,0,0,0,0,0,0,0,0,0,0,0,0,0,0,0,0,0,0,0,0,0,0,0,0,0,0,0,0,0,0,0,0,0,0,0,0,0,0,0,0,0,0,0,0,0,0,0,0,0,0,0,0,0,0,0,0,0,0,0,0,0,0,0,0,0,0,101,0,87,88,86,
86,88,89,0,0,0,0,0,102,104,87,89,0,0,0,0,0,0,0,0,0,0,0,0,0,0,0,0,0,0,0,0,0,0,0,0,0,0,0,0,0,0,0,0,0,0,0,0,0,0,0,0,0,0,0,0,0,0,0,0,0,0,0,0,0,0,0,0,0,0,0,0,0,0,0,0,0,0,0,0,0,0,0,0,0,101,0,87,88,86,
86,88,89,0,0,0,0,0,0,0,87,89,0,0,0,0,0,0,0,0,87,88,89,0,0,0,0,0,0,0,0,0,0,0,0,0,0,0,102,104,0,0,0,102,104,0,0,0,0,102,104,0,0,0,0,0,0,0,0,0,0,0,0,0,0,0,0,0,0,0,0,0,0,0,0,0,0,0,0,0,0,0,0,0,0,101,0,87,88,86,
86,88,89,0,0,0,0,0,0,0,0,0,0,0,0,102,103,104,0,0,87,88,89,0,102,104,0,0,0,0,87,88,89,0,0,0,0,0,0,0,0,0,0,0,0,0,0,0,0,0,0,0,0,0,0,0,87,88,89,0,0,0,0,0,0,87,88,89,0,0,0,0,0,0,0,0,0,0,0,0,0,0,0,0,0,101,0,87,88,86,
86,88,88,88,89,102,104,0,0,0,0,0,0,0,0,0,0,0,0,0,87,88,89,0,0,0,0,0,0,0,87,88,89,0,0,0,0,0,0,0,0,0,0,0,0,0,0,0,0,0,0,0,0,0,0,0,87,88,89,0,0,0,0,0,0,87,88,89,0,0,0,0,0,0,0,87,88,89,0,0,0,0,0,0,0,101,0,87,88,86,
86,88,88,88,89,0,0,0,0,0,0,0,0,0,0,0,0,0,0,0,87,88,89,0,0,0,0,0,0,0,87,88,89,0,0,0,0,0,0,0,0,0,0,0,0,0,0,0,0,0,0,0,0,0,0,0,87,88,89,0,0,0,0,0,0,87,88,89,0,0,87,88,89,0,0,0,0,0,0,0,87,89,0,0,0,101,0,87,88,86,
86,88,88,88,89,0,0,0,0,0,0,0,0,0,0,0,0,0,0,0,87,88,89,0,0,0,0,0,0,0,87,88,89,0,0,0,0,0,0,0,0,0,0,0,0,0,0,0,0,0,0,0,0,0,0,0,87,88,89,0,0,0,0,0,0,87,88,89,0,0,0,0,0,0,0,0,0,0,0,0,0,0,0,0,0,101,0,87,88,86,
86,88,88,88,89,0,0,0,102,104,87,88,88,86,118,119,120,86,88,88,88,88,88,88,86,118,119,120,86,88,88,88,86,118,120,110,111,111,111,111,112,126,127,127,128,110,111,111,111,111,111,112,118,119,120,86,88,88,88,86,118,119,120,86,88,88,88,88,86,126,127,127,127,127,127,127,127,127,127,127,127,127,128,86,89,103,87,88,88,86,
86,88,88,88,89,0,0,0,0,0,87,88,88,88,88,88,88,88,88,88,88,88,88,88,88,88,88,88,88,88,88,88,88,88,88,88,88,88,88,88,88,88,88,88,88,88,88,88,88,88,88,88,88,88,88,88,88,88,88,88,88,88,88,88,88,88,88,88,88,88,88,88,88,88,88,88,88,88,88,88,88,88,88,88,89,103,87,88,88,86,
86,88,88,88,89,0,0,0,0,0,0,0,0,0,0,0,0,0,0,0,0,0,0,0,0,0,0,0,0,0,0,0,0,0,0,0,0,0,0,0,0,0,0,0,0,0,0,0,0,0,0,0,0,0,0,0,0,0,0,0,0,0,0,0,0,0,0,0,0,0,0,0,0,0,0,0,0,0,0,0,0,0,0,0,0,101,0,87,88,86,
86,88,88,88,89,102,104,0,0,0,0,0,0,0,0,0,0,0,0,0,0,0,0,0,0,0,0,0,0,0,0,0,0,0,0,0,0,0,0,0,0,0,0,0,0,0,0,0,0,0,0,0,0,0,0,0,0,0,0,0,0,0,0,0,0,0,0,0,0,0,0,0,0,0,0,0,0,0,0,0,0,0,0,0,0,101,0,87,88,86,
86,88,88,88,89,0,0,0,0,0,0,0,0,0,0,0,0,0,0,0,87,88,88,88,89,0,0,0,0,0,0,0,0,0,0,0,0,0,0,0,0,0,0,0,0,0,0,0,0,0,87,88,88,88,89,0,0,0,0,0,0,0,0,0,0,0,0,0,0,0,87,88,88,88,89,0,0,0,0,0,0,0,0,0,0,101,0,87,88,86,
86,88,89,0,0,0,0,0,0,0,0,0,0,0,0,0,0,0,0,0,87,88,88,88,89,0,0,0,0,0,0,0,0,0,0,0,0,0,0,0,87,88,88,88,89,0,0,0,0,0,87,88,88,88,89,0,0,0,0,0,0,0,0,0,0,0,0,0,0,0,87,88,88,88,89,0,0,0,0,0,0,0,0,0,0,101,0,87,88,86,
86,88,89,0,0,0,0,0,102,104,87,89,0,0,0,0,102,104,0,0,87,88,88,88,89,0,0,102,104,0,0,0,0,0,0,0,102,104,0,0,87,88,88,88,89,0,0,102,104,0,87,88,88,88,89,0,102,104,0,0,0,0,0,0,0,0,0,102,104,0,87,88,88,88,89,0,102,104,0,0,0,0,0,0,0,101,0,87,88,86,
86,88,89,0,0,0,0,0,0,0,87,89,0,0,0,0,0,0,0,0,87,88,88,88,89,0,0,0,0,0,0,87,88,88,89,0,0,0,0,0,87,88,88,88,89,0,0,0,0,0,87,88,88,88,89,0,0,0,0,87,88,88,88,88,88,89,0,0,0,0,87,88,88,88,89,0,0,0,0,87,89,0,0,0,0,101,0,87,88,86,
86,88,89,0,0,0,0,0,0,0,87,89,0,0,0,0,0,0,0,0,87,88,88,88,89,0,0,0,0,0,0,87,88,88,89,0,0,0,0,0,87,88,88,88,89,0,0,0,0,0,87,88,88,88,89,0,0,0,0,87,88,88,88,88,88,89,0,0,0,0,87,88,88,88,89,0,0,0,0,87,89,0,0,0,0,101,0,87,88,86,
86,88,88,88,88,88,88,88,88,88,88,88,88,88,88,88,88,88,88,88,88,88,88,88,88,88,88,88,88,88,88,88,88,88,88,88,88,88,88,88,88,88,88,88,88,88,88,88,88,88,88,88,88,88,88,88,88,88,88,88,88,88,88,88,88,88,88,88,88,88,88,88,88,88,88,88,88,88,88,88,88,88,88,88,88,88,88,88,88,86,
86,88,88,88,88,88,88,88,88,88,88,88,88,88,88,88,88,88,88,88,88,88,88,88,88,88,88,88,88,88,88,88,88,88,88,88,88,88,88,88,88,88,88,88,88,88,88,88,88,88,88,88,88,88,88,88,88,88,88,88,88,88,88,88,88,88,88,88,88,88,88,88,88,88,88,88,88,88,88,88,88,88,88,88,88,88,88,88,88,86,
86,88,88,88,88,88,88,88,88,88,88,88,88,88,88,88,88,88,88,88,88,88,88,88,88,88,88,88,88,88,88,88,88,88,88,88,88,88,88,88,88,88,88,88,88,88,88,88,88,88,88,88,88,88,88,88,88,88,88,88,88,88,88,88,88,88,88,88,88,88,88,88,88,88,88,88,88,88,88,88,88,88,88,88,88,88,88,88,88,86
</data>
 </layer>
 <objectgroup id="3" name="objects">
  <object id="2" type="Player" gid="81" x="128" y="864" width="32" height="32"/>
  <object id="3" name="Goal" type="Goal" x="2720" y="576" width="32" height="32"/>
  <object id="4" name="Hub" type="Door" x="96" y="864" width="32" height="32">
   <properties>
    <property name="connects" value="Hub"/>
    <property name="loadX" type="int" value="64"/>
    <property name="loadY" type="int" value="576"/>
   </properties>
  </object>
  <object id="5" type="Enemy" gid="149" x="448" y="224" width="32" height="32"/>
  <object id="11" type="Enemy" gid="149" x="832" y="224" width="32" height="32"/>
  <object id="12" type="Enemy" gid="149" x="1088" y="224" width="32" height="32"/>
  <object id="13" type="Enemy" gid="149" x="1280" y="224" width="32" height="32"/>
  <object id="14" type="Enemy" gid="149" x="1632" y="288" width="32" height="32"/>
  <object id="15" type="Enemy" gid="149" x="1984" y="224" width="32" height="32"/>
  <object id="16" type="Enemy" gid="149" x="2304" y="224" width="32" height="32"/>
  <object id="17" type="Enemy" gid="149" x="2592" y="224" width="32" height="32"/>
  <object id="19" type="Turret" gid="150" x="544" y="768" width="32" height="32"/>
  <object id="21" type="Turret" gid="150" x="864" y="768" width="32" height="32"/>
  <object id="22" type="Turret" gid="150" x="1152" y="768" width="32" height="32"/>
  <object id="23" type="Turret" gid="150" x="1536" y="768" width="32" height="32"/>
  <object id="24" type="Turret" gid="150" x="1792" y="768" width="32" height="32"/>
  <object id="25" type="Turret" gid="150" x="2176" y="768" width="32" height="32"/>
  <object id="26" type="Turret" gid="150" x="2464" y="768" width="32" height="32"/>
  <object id="27" type="Enemy" gid="149" x="672" y="704" width="32" height="32"/>
  <object id="28" type="Enemy" gid="149" x="1088" y="800" width="32" height="32"/>
  <object id="29" type="Enemy" gid="149" x="1312" y="736" width="32" height="32"/>
  <object id="30" type="Enemy" gid="149" x="1664" y="704" width="32" height="32"/>
  <object id="31" type="Enemy" gid="149" x="1952" y="800" width="32" height="32"/>
  <object id="32" type="Enemy" gid="149" x="2336" y="704" width="32" height="32"/>
  <object id="36" type="Enemy" gid="149" x="672" y="416" width="32" height="32"/>
  <object id="39" type="Enemy" gid="149" x="992" y="448" width="32" height="32"/>
  <object id="40" type="Enemy" gid="149" x="1824" y="448" width="32" height="32"/>
  <object id="42" type="Enemy" gid="149" x="2112" y="448" width="32" height="32"/>
  <object id="44" type="Enemy" gid="149" x="2432" y="480" width="32" height="32"/>
  <object id="45" type="Turret" gid="150" x="1248" y="416" width="32" height="32"/>
  <object id="46" type="Turret" gid="150" x="1408" y="416" width="32" height="32"/>
  <object id="48" type="Turret" gid="150" x="1568" y="416" width="32" height="32"/>
 </objectgroup>
 <layer id="2" name="collisions" width="90" height="30">
  <data encoding="csv">
65,65,65,65,65,65,65,65,65,65,65,65,65,65,65,65,65,65,65,65,65,65,65,65,65,65,65,65,65,65,65,65,65,65,65,65,65,65,65,65,65,65,65,65,65,65,65,65,65,65,65,65,65,65,65,65,65,65,65,65,65,65,65,65,65,65,65,65,65,65,65,65,65,65,65,65,65,65,65,65,65,65,65,65,65,65,65,65,65,65,
65,65,65,65,65,65,65,65,65,65,65,65,65,65,65,65,65,65,65,65,65,65,65,65,65,65,65,65,65,65,65,65,65,65,65,65,65,65,65,65,65,65,65,65,65,65,65,65,65,65,65,65,65,65,65,65,65,65,65,65,65,65,65,65,65,65,65,65,65,65,65,65,65,65,65,65,65,65,65,65,65,65,65,65,65,65,65,65,65,65,
65,65,65,65,65,65,65,65,65,65,65,65,65,65,65,65,65,65,65,65,65,65,65,65,65,65,65,65,65,65,65,65,65,65,65,65,65,65,65,65,65,65,65,65,65,65,65,65,65,65,65,65,65,65,65,65,65,65,65,65,65,65,65,65,65,65,65,65,65,65,65,65,65,65,65,65,65,65,65,65,65,65,65,65,65,65,65,65,65,65,
65,65,65,0,0,0,0,0,0,0,0,0,0,0,0,0,0,0,0,0,0,0,0,0,0,0,0,0,0,0,0,0,0,0,0,0,0,0,0,0,0,0,0,0,0,0,0,0,0,0,0,0,0,0,0,0,0,0,0,0,0,0,0,0,0,0,0,0,0,0,0,0,0,0,0,0,0,0,0,0,0,0,0,0,0,0,0,65,65,65,
65,65,65,0,0,0,0,0,0,0,0,0,0,0,0,0,0,0,0,0,0,0,0,0,0,0,0,0,0,0,0,0,0,0,0,0,0,0,0,0,0,0,0,0,0,0,0,0,0,0,0,0,0,0,0,0,0,0,0,0,0,0,0,0,0,0,0,0,0,0,0,0,0,0,0,0,0,0,0,0,0,0,0,0,0,0,0,65,65,65,
65,65,65,0,0,0,0,0,0,0,0,0,0,0,0,0,0,0,0,0,0,0,0,0,0,0,0,0,0,0,65,65,0,0,0,0,0,0,0,0,0,0,0,0,65,65,65,0,0,0,0,0,0,0,0,0,0,0,0,0,0,0,0,0,0,0,65,65,65,0,0,0,0,0,0,0,0,0,0,0,0,0,0,0,0,0,0,65,65,65,
65,65,65,0,0,0,0,0,0,0,0,0,0,0,0,0,0,65,65,0,0,0,0,0,0,0,0,0,0,0,0,0,0,0,0,0,0,0,0,0,0,0,0,0,0,0,0,0,0,0,0,0,0,0,0,0,0,0,0,0,0,0,0,0,0,0,0,0,0,0,0,0,0,0,0,0,0,0,0,0,0,0,0,0,0,0,0,65,65,65,
65,65,65,0,0,0,0,0,0,0,0,0,0,65,65,0,0,0,0,0,66,0,0,0,0,65,65,65,0,0,0,0,0,65,65,65,65,65,65,65,65,65,0,0,0,0,0,0,66,0,0,0,0,0,0,0,65,65,65,0,0,65,65,65,0,0,0,0,0,0,0,65,65,65,0,0,0,0,0,0,65,65,0,0,0,0,0,65,65,65,
65,65,65,0,0,0,0,0,0,0,0,0,0,0,0,0,0,0,0,0,0,0,0,0,0,0,0,0,0,0,0,0,0,0,0,0,0,0,0,0,0,0,0,0,0,0,0,0,0,0,0,0,0,0,0,0,0,0,0,0,0,0,0,0,0,0,0,0,0,0,0,0,0,0,0,0,0,0,0,0,0,0,0,0,0,0,0,65,65,65,
65,65,65,0,0,0,0,0,66,66,65,65,65,69,69,69,69,69,69,69,69,69,65,65,69,69,69,69,69,69,69,69,69,69,69,69,69,69,69,69,69,69,69,69,69,69,69,69,69,69,65,65,65,65,69,69,69,69,69,69,69,69,69,69,69,69,69,69,69,69,69,69,69,69,69,69,69,65,65,69,69,69,69,65,65,66,65,65,65,65,
65,65,65,0,0,0,0,0,0,0,65,65,65,65,65,65,65,65,65,65,65,65,65,65,65,65,65,65,65,65,65,65,65,65,65,65,65,65,65,65,65,65,65,65,65,65,65,65,65,65,65,65,65,65,65,65,65,65,65,65,65,65,65,65,65,65,65,65,65,65,65,65,65,65,65,65,65,65,65,65,65,65,65,65,65,66,65,65,65,65,
65,65,65,0,0,0,0,0,0,0,65,65,0,0,0,0,0,0,0,0,0,0,0,0,0,0,0,0,0,0,0,0,0,0,0,0,0,0,0,0,0,0,0,0,0,0,0,0,0,0,0,0,0,0,0,0,0,0,0,0,0,0,0,0,0,0,0,0,0,0,0,0,0,0,0,0,0,0,0,0,0,0,0,0,0,66,0,65,65,65,
65,65,65,0,0,0,0,0,66,66,65,65,0,0,0,0,0,0,0,0,0,0,0,0,0,0,0,0,0,0,0,0,0,0,0,0,0,0,0,0,0,0,0,0,0,0,0,0,0,0,0,0,0,0,0,0,0,0,0,0,0,0,0,0,0,0,0,0,0,0,0,0,0,0,0,0,0,0,0,0,0,0,0,0,0,66,0,65,65,65,
65,65,65,0,0,0,0,0,0,0,65,65,0,0,0,0,0,0,0,0,65,65,65,0,0,0,0,0,0,0,0,0,0,0,0,0,0,0,66,66,0,0,0,66,66,0,0,0,0,66,66,0,0,0,0,0,0,0,0,0,0,0,0,0,0,0,0,0,0,0,0,0,0,0,0,0,0,0,0,0,0,0,0,0,0,66,0,65,65,65,
65,65,65,0,0,0,0,0,0,0,0,0,0,0,0,66,66,66,0,0,65,65,65,0,66,66,0,0,0,0,65,65,65,0,0,0,0,0,0,0,0,0,0,0,0,0,0,0,0,0,0,0,0,0,0,0,65,65,65,0,0,0,0,0,0,65,65,65,0,0,0,0,0,0,0,0,0,0,0,0,0,0,0,0,0,66,0,65,65,65,
65,65,65,65,65,66,66,0,0,0,0,0,0,0,0,0,0,0,0,0,65,65,65,0,0,0,0,0,0,0,65,65,65,0,0,0,0,0,0,0,0,0,0,0,0,0,0,0,0,0,0,0,0,0,0,0,65,65,65,0,0,0,0,0,0,65,65,65,0,0,0,0,0,0,0,65,65,65,0,0,0,0,0,0,0,66,0,65,65,65,
65,65,65,65,65,0,0,0,0,0,0,0,0,0,0,0,0,0,0,0,65,65,65,0,0,0,0,0,0,0,65,65,65,0,0,0,0,0,0,0,0,0,0,0,0,0,0,0,0,0,0,0,0,0,0,0,65,65,65,0,0,0,0,0,0,65,65,65,0,0,65,65,65,0,0,0,0,0,0,0,65,65,0,0,0,66,0,65,65,65,
65,65,65,65,65,0,0,0,0,0,0,0,0,0,0,0,0,0,0,0,65,65,65,0,0,0,0,0,0,0,65,65,65,0,0,0,0,0,0,0,0,0,0,0,0,0,0,0,0,0,0,0,0,0,0,0,65,65,65,0,0,0,0,0,0,65,65,65,0,0,0,0,0,0,0,0,0,0,0,0,0,0,0,0,0,66,0,65,65,65,
65,65,65,65,65,0,0,0,66,66,65,65,65,65,68,68,68,65,65,65,65,65,65,65,65,68,68,68,65,65,65,65,65,68,68,67,67,67,67,67,67,69,69,69,69,67,67,67,67,67,67,67,68,68,68,65,65,65,65,65,68,68,68,65,65,65,65,65,65,69,69,69,69,69,69,69,69,69,69,69,69,69,69,65,65,66,65,65,65,65,
65,65,65,65,65,0,0,0,0,0,65,65,65,65,65,65,65,65,65,65,65,65,65,65,65,65,65,65,65,65,65,65,65,65,65,65,65,65,65,65,65,65,65,65,65,65,65,65,65,65,65,65,65,65,65,65,65,65,65,65,65,65,65,65,65,65,65,65,65,65,65,65,65,65,65,65,65,65,65,65,65,65,65,65,65,66,65,65,65,65,
65,65,65,65,65,0,0,0,0,0,0,0,0,0,0,0,0,0,0,0,0,0,0,0,0,0,0,0,0,0,0,0,0,0,0,0,0,0,0,0,0,0,0,0,0,0,0,0,0,0,0,0,0,0,0,0,0,0,0,0,0,0,0,0,0,0,0,0,0,0,0,0,0,0,0,0,0,0,0,0,0,0,0,0,0,66,0,65,65,65,
65,65,65,65,65,66,66,0,0,0,0,0,0,0,0,0,0,0,0,0,0,0,0,0,0,0,0,0,0,0,0,0,0,0,0,0,0,0,0,0,0,0,0,0,0,0,0,0,0,0,0,0,0,0,0,0,0,0,0,0,0,0,0,0,0,0,0,0,0,0,0,0,0,0,0,0,0,0,0,0,0,0,0,0,0,66,0,65,65,65,
65,65,65,65,65,0,0,0,0,0,0,0,0,0,0,0,0,0,0,0,65,65,65,65,65,0,0,0,0,0,0,0,0,0,0,0,0,0,0,0,0,0,0,0,0,0,0,0,0,0,65,65,65,65,65,0,0,0,0,0,0,0,0,0,0,0,0,0,0,0,65,65,65,65,65,0,0,0,0,0,0,0,0,0,0,66,0,65,65,65,
65,65,65,0,0,0,0,0,0,0,0,0,0,0,0,0,0,0,0,0,65,65,65,65,65,0,0,0,0,0,0,0,0,0,0,0,0,0,0,0,65,65,65,65,65,0,0,0,0,0,65,65,65,65,65,0,0,0,0,0,0,0,0,0,0,0,0,0,0,0,65,65,65,65,65,0,0,0,0,0,0,0,0,0,0,66,0,65,65,65,
65,65,65,0,0,0,0,0,66,66,65,65,0,0,0,0,66,66,0,0,65,65,65,65,65,0,0,66,66,0,0,0,0,0,0,0,66,66,0,0,65,65,65,65,65,0,0,66,66,0,65,65,65,65,65,0,66,66,0,0,0,0,0,0,0,0,0,66,66,0,65,65,65,65,65,0,66,66,0,0,0,0,0,0,0,66,0,65,65,65,
65,65,65,0,0,0,0,0,0,0,65,65,0,0,0,0,0,0,0,0,65,65,65,65,65,0,0,0,0,0,0,65,65,65,65,0,0,0,0,0,65,65,65,65,65,0,0,0,0,0,65,65,65,65,65,0,0,0,0,65,65,65,65,65,65,65,0,0,0,0,65,65,65,65,65,0,0,0,0,65,65,0,0,0,0,66,0,65,65,65,
65,65,65,0,0,0,0,0,0,0,65,65,0,0,0,0,0,0,0,0,65,65,65,65,65,0,0,0,0,0,0,65,65,65,65,0,0,0,0,0,65,65,65,65,65,0,0,0,0,0,65,65,65,65,65,0,0,0,0,65,65,65,65,65,65,65,0,0,0,0,65,65,65,65,65,0,0,0,0,65,65,0,0,0,0,66,0,65,65,65,
65,65,65,65,65,65,65,65,65,65,65,65,65,65,65,65,65,65,65,65,65,65,65,65,65,65,65,65,65,65,65,65,65,65,65,65,65,65,65,65,65,65,65,65,65,65,65,65,65,65,65,65,65,65,65,65,65,65,65,65,65,65,65,65,65,65,65,65,65,65,65,65,65,65,65,65,65,65,65,65,65,65,65,65,65,65,65,65,65,65,
65,65,65,65,65,65,65,65,65,65,65,65,65,65,65,65,65,65,65,65,65,65,65,65,65,65,65,65,65,65,65,65,65,65,65,65,65,65,65,65,65,65,65,65,65,65,65,65,65,65,65,65,65,65,65,65,65,65,65,65,65,65,65,65,65,65,65,65,65,65,65,65,65,65,65,65,65,65,65,65,65,65,65,65,65,65,65,65,65,65,
65,65,65,65,65,65,65,65,65,65,65,65,65,65,65,65,65,65,65,65,65,65,65,65,65,65,65,65,65,65,65,65,65,65,65,65,65,65,65,65,65,65,65,65,65,65,65,65,65,65,65,65,65,65,65,65,65,65,65,65,65,65,65,65,65,65,65,65,65,65,65,65,65,65,65,65,65,65,65,65,65,65,65,65,65,65,65,65,65,65
</data>
 </layer>
</map>
