<?xml version="1.0" encoding="UTF-8"?>
<map version="1.10" tiledversion="1.12.1" orientation="orthogonal" renderorder="right-down" width="90" height="30" tilewidth="32" tileheight="32" infinite="0" nextlayerid="4" nextobjectid="64">
 <editorsettings>
  <export target="../../src/PolyGone/Maps/TestLevel3.json" format="json"/>
 </editorsettings>
 <tileset firstgid="1" source="../TiledSets/BasicTiles.tsx"/>
 <tileset firstgid="17" source="../TiledSets/CollisionTiles.tsx"/>
 <layer id="1" name="Tiles" width="90" height="30">
  <data encoding="csv">
1,1,1,1,1,1,1,1,1,1,1,1,1,1,1,1,1,1,1,1,1,1,1,1,1,1,1,1,1,1,1,1,1,1,1,1,1,1,1,1,1,1,1,1,1,1,1,1,1,1,1,1,1,1,1,1,1,1,1,1,1,1,1,1,1,1,1,1,1,1,1,1,1,1,1,1,1,1,1,1,1,1,1,1,1,1,1,1,1,1,
1,0,0,0,0,0,0,0,0,0,0,0,0,0,0,0,1,0,0,0,0,0,0,0,0,0,0,0,0,0,0,0,0,0,0,0,0,0,1,1,0,0,0,0,0,0,0,0,0,0,0,0,0,0,0,0,0,0,0,0,1,1,0,0,0,0,0,0,0,0,0,0,0,0,0,0,0,0,0,0,0,0,0,0,0,0,0,0,0,1,
1,0,0,0,0,0,0,0,0,0,0,0,0,0,0,0,1,0,0,0,0,0,0,0,0,0,0,0,0,0,0,0,0,0,0,0,0,0,1,1,0,0,0,0,0,0,0,0,0,0,0,0,0,0,0,0,0,0,0,0,1,1,0,0,0,0,0,0,0,0,0,0,0,0,0,0,0,0,0,0,0,0,0,0,0,0,0,0,0,1,
1,0,0,0,0,0,0,0,0,0,0,0,0,0,0,0,1,0,0,0,0,0,0,0,0,0,0,0,0,0,0,0,0,0,0,0,0,0,1,1,0,0,0,0,0,0,0,0,0,0,0,0,0,0,0,0,0,0,0,0,1,1,0,0,0,0,0,0,0,0,0,0,0,0,0,0,0,0,0,0,0,0,0,0,0,0,0,0,0,1,
1,0,0,0,0,0,0,0,0,0,0,0,0,0,0,0,1,4,4,1,1,1,1,0,0,0,0,0,0,0,0,0,0,4,1,0,0,0,1,1,0,0,0,0,0,0,0,0,0,0,0,0,0,0,0,0,0,0,0,0,1,1,0,0,0,0,0,0,0,0,0,0,0,0,0,0,0,0,0,0,0,0,0,0,0,0,0,0,0,1,
1,0,0,0,0,0,0,0,0,0,0,0,0,0,0,0,1,0,0,0,0,0,1,0,0,0,0,0,0,0,0,0,0,4,1,0,0,0,1,1,0,0,0,0,0,0,0,0,0,0,0,0,0,0,0,0,0,0,0,0,1,1,0,0,0,0,0,0,0,0,0,0,0,0,0,0,0,0,0,0,0,0,0,0,0,0,0,0,0,1,
1,0,0,0,0,0,0,0,0,0,0,0,0,0,0,0,1,0,0,0,0,0,1,0,0,0,0,0,0,0,0,0,0,4,1,0,0,0,1,1,0,0,0,0,0,0,0,0,0,0,0,0,0,0,0,0,0,0,0,0,1,1,0,0,0,0,0,0,0,0,0,0,0,0,0,0,0,0,0,0,0,0,0,0,0,0,0,0,0,1,
1,0,0,0,0,0,0,0,0,0,0,0,0,0,0,0,1,4,4,1,0,0,1,0,0,0,0,0,0,0,0,0,0,4,1,0,0,0,1,1,0,0,0,0,0,0,0,0,0,0,0,0,0,0,0,0,0,0,0,0,1,1,0,0,0,0,0,0,0,0,0,0,0,0,0,0,0,0,0,0,0,0,0,0,0,0,0,0,0,1,
1,0,0,0,0,0,0,0,0,0,0,0,0,0,0,0,1,0,0,1,0,0,1,0,0,0,0,0,0,0,0,0,0,4,1,0,0,0,1,1,0,0,0,0,0,0,0,0,0,0,0,0,0,0,0,0,0,0,0,0,1,1,0,0,0,0,0,0,0,0,0,0,0,0,0,0,0,0,0,0,0,0,0,0,0,0,0,0,0,1,
1,0,0,0,0,0,0,0,0,0,0,0,0,0,0,0,1,0,0,1,0,0,1,0,0,0,0,0,0,0,0,0,0,4,1,0,0,0,1,1,0,0,0,0,0,0,0,0,0,0,0,0,0,0,0,0,0,0,0,0,1,1,0,0,0,0,0,0,0,0,0,0,0,0,0,0,0,0,0,0,0,0,0,0,0,0,0,0,0,1,
1,0,0,0,0,0,0,0,0,0,0,0,0,0,0,0,1,4,4,1,0,0,1,0,0,0,0,0,0,0,0,0,0,4,1,0,0,0,1,1,0,0,0,0,0,0,0,0,0,0,0,0,0,0,0,0,0,0,0,0,1,1,1,1,1,1,1,1,1,1,1,1,1,1,1,1,1,1,1,1,1,1,1,1,1,1,1,1,1,1,
1,0,0,0,0,0,0,0,0,0,0,0,0,0,0,0,1,0,0,1,0,0,1,1,1,1,1,1,1,1,1,1,1,1,1,0,0,0,1,1,0,0,0,0,0,0,0,0,0,0,0,0,0,0,0,0,0,0,0,0,1,1,0,0,0,0,0,0,0,0,0,0,0,0,0,0,0,0,0,0,0,0,0,0,0,0,0,0,0,1,
1,0,0,0,0,0,0,0,0,0,0,0,0,0,0,0,1,0,0,1,0,0,1,0,0,0,0,0,0,0,0,0,0,0,0,0,0,0,1,1,1,1,1,1,1,1,1,1,1,1,1,1,1,1,1,1,1,1,1,1,1,1,0,0,0,0,0,0,0,0,0,0,0,0,0,0,0,0,0,0,0,0,0,0,0,0,0,0,0,1,
1,0,0,0,0,0,0,0,0,0,0,0,0,0,0,0,1,4,4,1,0,0,1,0,0,0,0,0,0,0,0,0,0,0,0,0,0,0,1,1,1,1,1,1,1,1,1,1,1,1,1,1,1,1,1,1,1,1,1,1,1,1,0,0,0,0,0,0,0,0,0,0,0,0,0,0,0,0,0,0,0,0,0,0,0,0,0,0,0,1,
1,0,0,0,0,0,0,0,0,0,0,0,0,0,0,0,1,0,0,1,0,0,0,0,0,0,0,0,0,0,0,0,0,0,0,0,0,0,1,1,1,1,1,1,1,1,1,1,1,0,0,0,0,0,0,0,0,0,0,0,1,1,4,4,1,1,1,1,1,1,1,1,1,1,1,1,1,1,1,1,1,1,1,1,1,1,0,0,0,1,
1,0,0,0,0,0,0,0,0,0,0,0,0,0,0,0,1,0,0,1,0,0,0,0,0,1,0,0,1,0,0,1,0,0,1,0,0,0,1,1,1,1,1,1,1,1,1,1,1,0,4,0,0,0,4,0,0,0,4,0,1,1,0,0,0,0,0,0,1,1,0,0,0,0,0,0,0,0,0,0,0,0,0,0,0,0,0,0,0,1,
1,0,0,0,0,0,0,0,0,0,0,0,0,0,0,0,1,4,4,1,1,1,1,1,1,1,1,1,1,1,1,1,1,1,1,0,0,0,1,1,1,1,1,1,1,1,1,1,1,0,0,0,0,0,0,0,0,0,0,0,1,1,0,0,0,0,0,0,1,1,0,0,0,0,0,0,0,0,0,0,0,0,0,0,0,0,0,0,0,1,
1,0,0,0,0,0,0,0,0,0,0,0,0,0,0,0,1,0,0,1,1,1,1,1,1,1,1,1,1,1,1,1,1,1,1,0,0,0,1,1,1,1,1,1,1,1,0,0,0,0,0,0,0,0,0,0,0,0,0,0,1,1,4,4,0,0,0,4,1,1,0,0,0,0,0,0,0,0,0,0,0,0,0,0,0,0,0,0,0,1,
1,0,0,0,0,0,0,0,0,0,0,0,0,0,0,0,1,0,0,1,0,0,0,0,0,0,0,0,0,0,0,0,0,0,0,0,0,0,1,1,1,1,1,1,1,1,0,0,0,0,0,0,0,0,0,0,0,0,0,0,1,1,0,0,0,0,0,0,1,1,0,0,0,1,1,1,1,1,1,1,1,1,1,1,1,1,1,1,1,1,
1,0,0,0,0,0,0,0,0,0,0,0,0,0,0,0,1,4,4,1,0,0,0,0,0,0,0,0,0,0,0,0,0,0,0,0,0,0,1,1,1,1,1,1,1,1,0,0,0,0,0,0,0,0,0,0,0,0,0,0,1,1,0,0,0,0,0,0,1,1,0,0,0,1,1,4,4,4,4,4,4,4,4,4,4,4,0,0,0,1,
1,0,0,0,0,0,0,0,0,0,0,0,0,0,0,0,1,0,0,0,0,0,0,0,0,0,0,0,0,0,0,0,0,0,0,0,0,0,1,1,1,1,1,0,0,0,0,0,0,4,1,1,1,1,1,1,1,0,0,0,1,1,4,4,0,0,0,4,1,1,0,0,0,1,1,4,4,4,4,4,4,4,4,4,4,4,0,0,0,1,
1,0,0,0,0,0,0,0,0,0,0,0,0,0,0,0,1,0,0,0,0,0,0,1,1,1,1,1,1,1,1,1,1,1,1,0,0,0,1,1,1,1,1,0,0,0,0,0,0,1,1,1,1,1,1,1,1,0,0,0,1,1,0,0,0,0,0,0,1,1,0,0,0,1,1,4,4,4,4,4,4,4,4,4,4,4,0,0,0,1,
1,0,0,0,0,0,0,0,0,0,0,0,0,0,0,0,1,4,4,1,1,1,1,1,1,1,1,1,1,1,1,1,1,1,1,0,0,0,1,1,1,1,1,0,0,0,0,0,0,1,1,1,1,1,1,1,1,0,0,0,1,1,0,0,0,0,0,0,1,1,0,0,0,1,1,4,4,4,4,4,4,4,4,4,4,4,4,4,4,1,
1,0,0,0,0,0,0,0,0,0,0,0,0,0,0,0,1,0,0,0,0,0,0,0,0,0,0,0,0,0,0,0,0,0,0,0,0,0,1,1,0,0,0,0,0,0,4,1,1,1,1,1,1,1,1,1,1,0,0,0,1,1,1,1,0,0,0,0,1,1,0,0,0,1,1,4,4,4,4,4,4,4,4,4,4,4,4,4,4,1,
1,1,1,1,1,1,1,1,1,1,1,1,1,1,1,1,1,0,0,0,0,0,0,0,0,0,0,0,0,0,0,0,0,0,0,0,0,0,1,1,0,0,0,0,0,0,1,1,1,1,1,1,1,1,1,1,1,0,0,0,1,1,1,1,0,0,0,0,1,1,0,0,0,1,1,4,4,4,4,4,4,4,4,4,4,4,4,4,4,1,
1,0,0,0,0,0,0,0,0,0,0,0,0,0,0,0,1,4,4,1,1,0,0,0,0,0,0,0,0,0,0,0,0,1,1,0,0,0,1,1,0,0,0,0,0,0,1,1,1,1,1,1,1,1,1,1,1,0,0,0,1,1,0,0,0,0,1,1,1,1,0,0,0,1,1,4,4,4,4,4,4,4,4,4,4,4,4,4,4,1,
1,0,0,0,0,0,0,0,0,0,0,0,0,0,0,0,0,0,0,1,1,0,0,0,0,0,0,0,0,0,0,0,0,1,1,0,0,0,0,0,0,0,0,4,1,1,1,1,1,1,1,1,1,1,1,1,1,0,0,0,0,0,0,0,0,0,1,1,1,1,0,0,0,0,0,4,4,4,4,4,4,4,4,4,4,4,4,4,4,1,
1,0,0,0,0,0,0,0,0,0,0,0,0,0,0,0,0,0,0,1,1,0,0,4,0,0,0,0,0,0,4,0,0,1,1,0,0,0,0,0,0,0,0,1,1,1,1,1,1,1,1,1,1,1,1,1,1,0,0,0,0,0,0,0,1,1,1,1,1,1,0,0,0,0,0,4,4,4,4,4,4,4,4,4,4,4,4,4,4,1,
1,1,1,1,1,1,1,1,1,1,1,1,1,1,1,1,1,1,1,1,1,0,0,0,0,0,4,4,0,0,0,0,0,1,1,0,0,0,0,0,0,0,0,1,1,1,1,1,1,1,1,1,1,1,1,1,1,0,0,0,0,0,0,0,1,1,1,1,1,1,0,0,0,0,0,4,4,4,4,4,4,4,4,4,4,4,4,4,4,1,
1,1,1,1,1,1,1,1,1,1,1,1,1,1,1,1,1,1,1,1,1,0,0,0,0,0,0,0,0,0,0,0,0,1,1,1,1,1,1,1,1,1,1,1,1,1,1,1,1,1,1,1,1,1,1,1,1,1,1,1,1,1,1,1,1,1,1,1,1,1,1,1,1,1,1,1,1,1,1,1,1,1,1,1,1,1,1,1,1,1
</data>
 </layer>
 <objectgroup id="3" name="Objects">
  <object id="1" type="Player" gid="2" x="64" y="896" width="32" height="32"/>
  <object id="11" type="Enemy" gid="3" x="800" y="480" width="32" height="32"/>
  <object id="12" type="Enemy" gid="3" x="896" y="480" width="32" height="32"/>
  <object id="13" type="Enemy" gid="3" x="992" y="480" width="32" height="32"/>
  <object id="14" type="Enemy" gid="3" x="1088" y="480" width="32" height="32"/>
  <object id="15" type="Enemy" gid="3" x="736" y="672" width="32" height="32"/>
  <object id="16" type="Enemy" gid="3" x="768" y="672" width="32" height="32"/>
  <object id="17" type="Enemy" gid="3" x="800" y="672" width="32" height="32"/>
  <object id="18" type="Enemy" gid="3" x="832" y="672" width="32" height="32"/>
  <object id="19" type="Enemy" gid="3" x="896" y="672" width="32" height="32"/>
  <object id="20" type="Enemy" gid="3" x="928" y="672" width="32" height="32"/>
  <object id="21" type="Enemy" gid="3" x="864" y="672" width="32" height="32"/>
  <object id="22" type="Enemy" gid="3" x="960" y="672" width="32" height="32"/>
  <object id="23" type="Enemy" gid="3" x="1024" y="672" width="32" height="32"/>
  <object id="24" type="Enemy" gid="3" x="992" y="672" width="32" height="32"/>
  <object id="25" type="Enemy" gid="3" x="1056" y="672" width="32" height="32"/>
  <object id="27" type="Enemy" gid="3" x="864" y="896" width="32" height="32"/>
  <object id="29" type="Enemy" gid="3" x="1056" y="800" width="32" height="32"/>
  <object id="33" type="TurretEnemy" gid="7" x="736" y="864" width="32" height="32"/>
  <object id="35" type="TurretEnemy" gid="7" x="1056" y="352" width="32" height="32"/>
  <object id="36" type="TurretEnemy" gid="7" x="1056" y="288" width="32" height="32"/>
  <object id="37" type="TurretEnemy" gid="7" x="1056" y="224" width="32" height="32"/>
  <object id="38" type="TurretEnemy" gid="7" x="1056" y="160" width="32" height="32"/>
  <object id="39" type="TurretEnemy" gid="7" x="960" y="864" width="32" height="32"/>
  <object id="41" type="TurretEnemy" gid="7" x="1600" y="480" width="32" height="32"/>
  <object id="42" type="TurretEnemy" gid="7" x="1728" y="480" width="32" height="32"/>
  <object id="43" type="TurretEnemy" gid="7" x="1856" y="480" width="32" height="32"/>
  <object id="45" type="TurretEnemy" gid="7" x="2144" y="640" width="32" height="32"/>
  <object id="46" type="TurretEnemy" gid="7" x="2144" y="544" width="32" height="32"/>
  <object id="47" type="Enemy" gid="3" x="1920" y="928" width="32" height="32"/>
  <object id="48" type="Enemy" gid="3" x="2048" y="864" width="32" height="32"/>
  <object id="49" type="Enemy" gid="3" x="2112" y="800" width="32" height="32"/>
  <object id="50" type="Enemy" gid="3" x="2016" y="640" width="32" height="32"/>
  <object id="51" type="Enemy" gid="3" x="2016" y="544" width="32" height="32"/>
  <object id="52" name="Goal" type="Goal" x="2784" y="672" width="32" height="32"/>
  <object id="53" type="TurretEnemy" gid="7" x="2432" y="672" width="32" height="32"/>
  <object id="54" type="TurretEnemy" gid="7" x="2784" y="896" width="32" height="32"/>
  <object id="55" type="TurretEnemy" gid="7" x="2688" y="672" width="32" height="32"/>
  <object id="56" type="TurretEnemy" gid="7" x="2784" y="768" width="32" height="32"/>
  <object id="57" type="TurretEnemy" gid="7" x="2560" y="672" width="32" height="32"/>
  <object id="58" type="Enemy" gid="3" x="2432" y="576" width="32" height="32"/>
  <object id="59" type="Enemy" gid="3" x="2720" y="576" width="32" height="32"/>
  <object id="60" type="Enemy" gid="3" x="2208" y="448" width="32" height="32"/>
  <object id="61" type="Enemy" gid="3" x="2464" y="448" width="32" height="32"/>
  <object id="62" type="Enemy" gid="3" x="2656" y="448" width="32" height="32"/>
  <object id="63" name="HubDoor" type="Door" x="32" y="896" width="32" height="32">
   <properties>
    <property name="connectedLevel" value="Hub"/>
    <property name="loadX" type="int" value="96"/>
    <property name="loadY" type="int" value="224"/>
   </properties>
  </object>
 </objectgroup>
 <layer id="2" name="Collisions" width="90" height="30" opacity="0.5">
  <data encoding="csv">
17,17,17,17,17,17,17,17,17,17,17,17,17,17,17,17,17,17,17,17,17,17,17,17,17,17,17,17,17,17,17,17,17,17,17,17,17,17,17,17,17,17,17,17,17,17,17,17,17,17,17,17,17,17,17,17,17,17,17,17,17,17,17,17,17,17,17,17,17,17,17,17,17,17,17,17,17,17,17,17,17,17,17,17,17,17,17,17,17,17,
17,0,0,0,0,0,0,0,0,0,0,0,0,0,0,0,17,0,0,0,0,0,0,0,0,0,0,0,0,0,0,0,0,0,0,0,0,0,17,17,0,0,0,0,0,0,0,0,0,0,0,0,0,0,0,0,0,0,0,0,17,17,0,0,0,0,0,0,0,0,0,0,0,0,0,0,0,0,0,0,0,0,0,0,0,0,0,0,0,17,
17,0,0,0,0,0,0,0,0,0,0,0,0,0,0,0,17,0,0,0,0,0,0,0,0,0,0,0,0,0,0,0,0,0,0,0,0,0,17,17,0,0,0,0,0,0,0,0,0,0,0,0,0,0,0,0,0,0,0,0,17,17,0,0,0,0,0,0,0,0,0,0,0,0,0,0,0,0,0,0,0,0,0,0,0,0,0,0,0,17,
17,0,0,0,0,0,0,0,0,0,0,0,0,0,0,0,17,0,0,0,0,0,0,0,0,0,0,0,0,0,0,0,0,0,0,0,0,0,17,17,0,0,0,0,0,0,0,0,0,0,0,0,0,0,0,0,0,0,0,0,17,17,0,0,0,0,0,0,0,0,0,0,0,0,0,0,0,0,0,0,0,0,0,0,0,0,0,0,0,17,
17,0,0,0,0,0,0,0,0,0,0,0,0,0,0,0,17,18,18,17,17,17,17,0,0,0,0,0,0,0,0,0,0,18,17,0,0,0,17,17,0,0,0,0,0,0,0,0,0,0,0,0,0,0,0,0,0,0,0,0,17,17,0,0,0,0,0,0,0,0,0,0,0,0,0,0,0,0,0,0,0,0,0,0,0,0,0,0,0,17,
17,0,0,0,0,0,0,0,0,0,0,0,0,0,0,0,17,0,0,0,0,0,17,0,0,0,0,0,0,0,0,0,0,18,17,0,0,0,17,17,0,0,0,0,0,0,0,0,0,0,0,0,0,0,0,0,0,0,0,0,17,17,0,0,0,0,0,0,0,0,0,0,0,0,0,0,0,0,0,0,0,0,0,0,0,0,0,0,0,17,
17,0,0,0,0,0,0,0,0,0,0,0,0,0,0,0,17,0,0,0,0,0,17,0,0,0,0,0,0,0,0,0,0,18,17,0,0,0,17,17,0,0,0,0,0,0,0,0,0,0,0,0,0,0,0,0,0,0,0,0,17,17,0,0,0,0,0,0,0,0,0,0,0,0,0,0,0,0,0,0,0,0,0,0,0,0,0,0,0,17,
17,0,0,0,0,0,0,0,0,0,0,0,0,0,0,0,17,18,18,17,0,0,17,0,0,0,0,0,0,0,0,0,0,18,17,0,0,0,17,17,0,0,0,0,0,0,0,0,0,0,0,0,0,0,0,0,0,0,0,0,17,17,0,0,0,0,0,0,0,0,0,0,0,0,0,0,0,0,0,0,0,0,0,0,0,0,0,0,0,17,
17,0,0,0,0,0,0,0,0,0,0,0,0,0,0,0,17,0,0,17,0,0,17,0,0,0,0,0,0,0,0,0,0,18,17,0,0,0,17,17,0,0,0,0,0,0,0,0,0,0,0,0,0,0,0,0,0,0,0,0,17,17,0,0,0,0,0,0,0,0,0,0,0,0,0,0,0,0,0,0,0,0,0,0,0,0,0,0,0,17,
17,0,0,0,0,0,0,0,0,0,0,0,0,0,0,0,17,0,0,17,0,0,17,0,0,0,0,0,0,0,0,0,0,18,17,0,0,0,17,17,0,0,0,0,0,0,0,0,0,0,0,0,0,0,0,0,0,0,0,0,17,17,0,0,0,0,0,0,0,0,0,0,0,0,0,0,0,0,0,0,0,0,0,0,0,0,0,0,0,17,
17,0,0,0,0,0,0,0,0,0,0,0,0,0,0,0,17,18,18,17,0,0,17,0,0,0,0,0,0,0,0,0,0,18,17,0,0,0,17,17,0,0,0,0,0,0,0,0,0,0,0,0,0,0,0,0,0,0,0,0,17,17,17,17,17,17,17,17,17,17,17,17,17,17,17,17,17,17,17,17,17,17,17,17,17,17,17,17,17,17,
17,0,0,0,0,0,0,0,0,0,0,0,0,0,0,0,17,0,0,17,0,0,17,17,17,17,17,17,17,17,17,17,17,17,17,0,0,0,17,17,0,0,0,0,0,0,0,0,0,0,0,0,0,0,0,0,0,0,0,0,17,17,0,0,0,0,0,0,0,0,0,0,0,0,0,0,0,0,0,0,0,0,0,0,0,0,0,0,0,17,
17,0,0,0,0,0,0,0,0,0,0,0,0,0,0,0,17,0,0,17,0,0,17,0,0,0,0,0,0,0,0,0,0,0,0,0,0,0,17,17,17,17,17,17,17,17,17,17,17,17,17,17,17,17,17,17,17,17,17,17,17,17,0,0,0,0,0,0,0,0,0,0,0,0,0,0,0,0,0,0,0,0,0,0,0,0,0,0,0,17,
17,0,0,0,0,0,0,0,0,0,0,0,0,0,0,0,17,18,18,17,0,0,17,0,0,0,0,0,0,0,0,0,0,0,0,0,0,0,17,17,17,17,17,17,17,17,17,17,17,17,17,17,17,17,17,17,17,17,17,17,17,17,0,0,0,0,0,0,0,0,0,0,0,0,0,0,0,0,0,0,0,0,0,0,0,0,0,0,0,17,
17,0,0,0,0,0,0,0,0,0,0,0,0,0,0,0,17,0,0,17,0,0,0,0,0,0,0,0,0,0,0,0,0,0,0,0,0,0,17,17,17,17,17,17,17,17,17,17,17,0,0,0,0,0,0,0,0,0,0,0,17,17,18,18,17,17,17,17,17,17,17,17,17,17,17,17,17,17,17,17,17,17,17,17,17,17,0,0,0,17,
17,0,0,0,0,0,0,0,0,0,0,0,0,0,0,0,17,0,0,17,0,0,0,0,0,17,0,0,17,0,0,17,0,0,17,0,0,0,17,17,17,17,17,17,17,17,17,17,17,0,18,0,0,0,18,0,0,0,18,0,17,17,0,0,0,0,0,0,17,17,0,0,0,0,0,0,0,0,0,0,0,0,0,0,0,0,0,0,0,17,
17,0,0,0,0,0,0,0,0,0,0,0,0,0,0,0,17,18,18,17,17,17,17,17,17,17,17,17,17,17,17,17,17,17,17,0,0,0,17,17,17,17,17,17,17,17,17,17,17,0,0,0,0,0,0,0,0,0,0,0,17,17,0,0,0,0,0,0,17,17,0,0,0,0,0,0,0,0,0,0,0,0,0,0,0,0,0,0,0,17,
17,0,0,0,0,0,0,0,0,0,0,0,0,0,0,0,17,0,0,17,17,17,17,17,17,17,17,17,17,17,17,17,17,17,17,0,0,0,17,17,17,17,17,17,17,17,0,0,0,0,0,0,0,0,0,0,0,0,0,0,17,17,18,18,0,0,0,18,17,17,0,0,0,0,0,0,0,0,0,0,0,0,0,0,0,0,0,0,0,17,
17,0,0,0,0,0,0,0,0,0,0,0,0,0,0,0,17,0,0,17,0,0,0,0,0,0,0,0,0,0,0,0,0,0,0,0,0,0,17,17,17,17,17,17,17,17,0,0,0,0,0,0,0,0,0,0,0,0,0,0,17,17,0,0,0,0,0,0,17,17,0,0,0,17,17,17,17,17,17,17,17,17,17,17,17,17,17,17,17,17,
17,0,0,0,0,0,0,0,0,0,0,0,0,0,0,0,17,18,18,17,0,0,0,0,0,0,0,0,0,0,0,0,0,0,0,0,0,0,17,17,17,17,17,17,17,17,0,0,0,0,0,0,0,0,0,0,0,0,0,0,17,17,0,0,0,0,0,0,17,17,0,0,0,17,17,18,18,18,18,18,18,18,18,18,18,18,0,0,0,17,
17,0,0,0,0,0,0,0,0,0,0,0,0,0,0,0,17,0,0,0,0,0,0,0,0,0,0,0,0,0,0,0,0,0,0,0,0,0,17,17,17,17,17,0,0,0,0,0,0,18,17,17,17,17,17,17,17,0,0,0,17,17,18,18,0,0,0,18,17,17,0,0,0,17,17,18,18,18,18,18,18,18,18,18,18,18,0,0,0,17,
17,0,0,0,0,0,0,0,0,0,0,0,0,0,0,0,17,0,0,0,0,0,0,17,17,17,17,17,17,17,17,17,17,17,17,0,0,0,17,17,17,17,17,0,0,0,0,0,0,17,17,17,17,17,17,17,17,0,0,0,17,17,0,0,0,0,0,0,17,17,0,0,0,17,17,18,18,18,18,18,18,18,18,18,18,18,0,0,0,17,
17,0,0,0,0,0,0,0,0,0,0,0,0,0,0,0,17,18,18,17,17,17,17,17,17,17,17,17,17,17,17,17,17,17,17,0,0,0,17,17,17,17,17,0,0,0,0,0,0,17,17,17,17,17,17,17,17,0,0,0,17,17,0,0,0,0,0,0,17,17,0,0,0,17,17,18,18,18,18,18,18,18,18,18,18,18,18,18,18,17,
17,0,0,0,0,0,0,0,0,0,0,0,0,0,0,0,17,0,0,0,0,0,0,0,0,0,0,0,0,0,0,0,0,0,0,0,0,0,17,17,0,0,0,0,0,0,18,17,17,17,17,17,17,17,17,17,17,0,0,0,17,17,17,17,0,0,0,0,17,17,0,0,0,17,17,18,18,18,18,18,18,18,18,18,18,18,18,18,18,17,
17,17,17,17,17,17,17,17,17,17,17,17,17,17,17,17,17,0,0,0,0,0,0,0,0,0,0,0,0,0,0,0,0,0,0,0,0,0,17,17,0,0,0,0,0,0,17,17,17,17,17,17,17,17,17,17,17,0,0,0,17,17,17,17,0,0,0,0,17,17,0,0,0,17,17,18,18,18,18,18,18,18,18,18,18,18,18,18,18,17,
17,0,0,0,0,0,0,0,0,0,0,0,0,0,0,0,17,18,18,17,17,0,0,0,0,0,0,0,0,0,0,0,0,17,17,0,0,0,17,17,0,0,0,0,0,0,17,17,17,17,17,17,17,17,17,17,17,0,0,0,17,17,0,0,0,0,17,17,17,17,0,0,0,17,17,18,18,18,18,18,18,18,18,18,18,18,18,18,18,17,
17,0,0,0,0,0,0,0,0,0,0,0,0,0,0,0,0,0,0,17,17,0,0,0,0,0,0,0,0,0,0,0,0,17,17,0,0,0,0,0,0,0,0,18,17,17,17,17,17,17,17,17,17,17,17,17,17,0,0,0,0,0,0,0,0,0,17,17,17,17,0,0,0,0,0,18,18,18,18,18,18,18,18,18,18,18,18,18,18,17,
17,0,0,0,0,0,0,0,0,0,0,0,0,0,0,0,0,0,0,17,17,0,0,18,0,0,0,0,0,0,18,0,0,17,17,0,0,0,0,0,0,0,0,17,17,17,17,17,17,17,17,17,17,17,17,17,17,0,0,0,0,0,0,0,17,17,17,17,17,17,0,0,0,0,0,18,18,18,18,18,18,18,18,18,18,18,18,18,18,17,
17,17,17,17,17,17,17,17,17,17,17,17,17,17,17,17,17,17,17,17,17,0,0,0,0,0,18,18,0,0,0,0,0,17,17,0,0,0,0,0,0,0,0,17,17,17,17,17,17,17,17,17,17,17,17,17,17,0,0,0,0,0,0,0,17,17,17,17,17,17,0,0,0,0,0,18,18,18,18,18,18,18,18,18,18,18,18,18,18,17,
17,17,17,17,17,17,17,17,17,17,17,17,17,17,17,17,17,17,17,17,17,0,0,0,0,0,0,0,0,0,0,0,0,17,17,17,17,17,17,17,17,17,17,17,17,17,17,17,17,17,17,17,17,17,17,17,17,17,17,17,17,17,17,17,17,17,17,17,17,17,17,17,17,17,17,17,17,17,17,17,17,17,17,17,17,17,17,17,17,17
</data>
 </layer>
</map>
